( pcb2gcode 2.5.0 )
( Software-independent Gcode )

G94 ( Millimeters per minute feed rate. )
G21 ( Units == Millimeters. )

G90 ( Absolute coordinates. )
G00 S12000 ( RPM spindle speed. )
G01 F600.00000 ( Feedrate. )


G00 Z20.00000 (Retract to tool change height)
T1
M5      (Spindle stop.)
G04 P1.00000 (Wait for spindle to stop)
(MSG, Change tool bit to mill diameter 0.26000mm)
M6      (Tool change.)
M0      (Temporary machine stop.)
M3 ( Spindle on clockwise. )
G04 P1.00000 (Wait for spindle to get up to speed)
G04 P0 ( dwell for no time -- G64 should not smooth over this point )
G00 Z5.00000 ( retract )

G00 X7.38022 Y4.93481 ( rapid move to begin. )
G01 F300.00000
( Mill infeed pass 1/1 )
G01 Z-0.05000
G04 P0 ( dwell for no time -- G64 should not smooth over this point )
G01 F600.00000
G01 X7.38022 Y4.93481
G01 X7.37875 Y4.93332
G01 X7.37817 Y4.93271
G01 X7.30728 Y4.86128
G01 X7.30413 Y4.85831
G01 X7.24703 Y4.80799
G01 X7.24347 Y4.80510
G01 X7.24365 Y4.80487
G01 X7.24347 Y4.80510
G01 X7.20677 Y4.77708
G01 X7.14052 Y4.72537
G01 X7.13760 Y4.72321
G01 X7.09943 Y4.69669
G01 X7.09638 Y4.69468
G01 X7.05937 Y4.67195
G01 X7.02950 Y4.65150
G01 X6.95409 Y4.59430
G01 X6.90154 Y4.54665
G01 X6.87596 Y4.52107
G01 X6.82836 Y4.46855
G01 X6.77113 Y4.39313
G01 X6.75074 Y4.36329
G01 X6.72605 Y4.32311
G01 X6.67309 Y4.21721
G01 X6.65848 Y4.18399
G01 X6.65013 Y4.16220
G01 X6.61111 Y4.02552
G01 X6.60293 Y3.99037
G01 X6.58749 Y3.82458
G01 X6.58650 Y3.80997
G01 X6.58749 Y3.79542
G01 X6.60293 Y3.62958
G01 X6.61111 Y3.59443
G01 X6.65013 Y3.45775
G01 X6.65848 Y3.43596
G01 X6.67309 Y3.40274
G01 X6.72605 Y3.29684
G01 X6.75074 Y3.25666
G01 X6.77113 Y3.22679
G01 X6.82836 Y3.15138
G01 X6.87596 Y3.09888
G01 X6.90154 Y3.07327
G01 X6.95409 Y3.02565
G01 X7.02950 Y2.96845
G01 X7.05937 Y2.94800
G01 X7.09950 Y2.92334
G01 X7.12653 Y2.90985
G01 X7.12973 Y2.90812
G01 X7.16910 Y2.88562
G01 X7.17220 Y2.88374
G01 X7.20827 Y2.86037
G01 X7.24162 Y2.84104
G01 X7.24197 Y2.84086
G01 X7.24842 Y2.83703
G01 X7.33666 Y2.77795
G01 X7.34215 Y2.77355
G01 X7.40067 Y2.72425
G01 X7.41497 Y2.71262
G01 X7.44957 Y2.68529
G01 X7.45371 Y2.68173
G01 X7.46130 Y2.67465
G01 X7.58721 Y2.66225
G01 X7.63816 Y2.66225
G01 X7.76412 Y2.67465
G01 X7.77166 Y2.68168
G01 X7.76412 Y2.67465
G01 X7.63816 Y2.66225
G01 X7.58721 Y2.66225
G01 X7.46130 Y2.67465
G01 X7.53577 Y2.60497
G01 X7.68960 Y2.60497
G01 X7.77166 Y2.68168
G01 X7.77585 Y2.68529
G01 X7.80882 Y2.71125
G01 X7.82462 Y2.72415
G01 X7.88152 Y2.77226
G01 X7.88713 Y2.77650
G01 X7.97580 Y2.83634
G01 X7.98228 Y2.84018
G01 X7.98370 Y2.84091
G01 X8.01705 Y2.86029
G01 X8.05279 Y2.88348
G01 X8.05589 Y2.88539
G01 X8.09556 Y2.90810
G01 X8.09879 Y2.90982
G01 X8.12582 Y2.92334
G01 X8.16597 Y2.94800
G01 X8.19584 Y2.96845
G01 X8.27126 Y3.02565
G01 X8.32381 Y3.07327
G01 X8.34939 Y3.09885
G01 X8.39699 Y3.15138
G01 X8.45421 Y3.22679
G01 X8.47466 Y3.25669
G01 X8.49932 Y3.29684
G01 X8.55226 Y3.40276
G01 X8.56686 Y3.43593
G01 X8.57522 Y3.45778
G01 X8.61426 Y3.59440
G01 X8.62244 Y3.62958
G01 X8.63785 Y3.79542
G01 X8.63107 Y3.79725
G01 X8.61398 Y3.62382
G01 X8.61210 Y3.61119
G01 X8.60900 Y3.59882
G01 X8.55843 Y3.43205
G01 X8.54867 Y3.40850
G01 X8.46651 Y3.25481
G01 X8.45995 Y3.24381
G01 X8.45236 Y3.23362
G01 X8.34179 Y3.09890
G01 X8.32378 Y3.08087
G01 X8.18906 Y2.97033
G01 X8.17883 Y2.96273
G01 X8.16788 Y2.95615
G01 X8.01418 Y2.87401
G01 X7.99064 Y2.86426
G01 X7.82386 Y2.81366
G01 X7.81149 Y2.81056
G01 X7.79887 Y2.80871
G01 X7.62544 Y2.79161
G01 X7.59993 Y2.79161
G01 X7.42650 Y2.80871
G01 X7.41388 Y2.81056
G01 X7.40151 Y2.81366
G01 X7.23473 Y2.86426
G01 X7.21121 Y2.87401
G01 X7.05749 Y2.95615
G01 X7.04657 Y2.96273
G01 X7.03631 Y2.97033
G01 X6.90159 Y3.08087
G01 X6.88358 Y3.09890
G01 X6.77301 Y3.23362
G01 X6.76542 Y3.24381
G01 X6.75886 Y3.25481
G01 X6.67672 Y3.40850
G01 X6.66697 Y3.43205
G01 X6.61637 Y3.59882
G01 X6.61327 Y3.61119
G01 X6.61139 Y3.62382
G01 X6.59432 Y3.79725
G01 X6.59432 Y3.82273
G01 X6.61139 Y3.99616
G01 X6.61327 Y4.00878
G01 X6.61637 Y4.02115
G01 X6.66697 Y4.18793
G01 X6.67672 Y4.21147
G01 X6.75886 Y4.36517
G01 X6.76542 Y4.37612
G01 X6.77301 Y4.38635
G01 X6.88358 Y4.52107
G01 X6.90159 Y4.53911
G01 X7.03631 Y4.64965
G01 X7.04657 Y4.65724
G01 X7.05749 Y4.66382
G01 X7.21121 Y4.74596
G01 X7.23473 Y4.75572
G01 X7.40151 Y4.80631
G01 X7.41388 Y4.80941
G01 X7.42650 Y4.81127
G01 X7.59993 Y4.82836
G01 X7.62544 Y4.82836
G01 X7.79887 Y4.81127
G01 X7.81149 Y4.80941
G01 X7.82386 Y4.80631
G01 X7.99064 Y4.75572
G01 X8.01418 Y4.74596
G01 X8.16788 Y4.66382
G01 X8.17883 Y4.65724
G01 X8.18906 Y4.64965
G01 X8.32378 Y4.53911
G01 X8.34179 Y4.52107
G01 X8.45236 Y4.38635
G01 X8.45995 Y4.37612
G01 X8.46651 Y4.36517
G01 X8.54867 Y4.21147
G01 X8.55843 Y4.18793
G01 X8.60900 Y4.02115
G01 X8.61210 Y4.00878
G01 X8.61398 Y3.99616
G01 X8.63107 Y3.82273
G01 X8.63107 Y3.79725
G01 X8.63785 Y3.79542
G01 X8.63884 Y3.80997
G01 X8.63785 Y3.82455
G01 X8.62244 Y3.99037
G01 X8.61426 Y4.02554
G01 X8.57522 Y4.16217
G01 X8.56686 Y4.18401
G01 X8.55226 Y4.21719
G01 X8.49932 Y4.32311
G01 X8.47466 Y4.36326
G01 X8.45421 Y4.39313
G01 X8.39699 Y4.46857
G01 X8.34939 Y4.52110
G01 X8.32381 Y4.54668
G01 X8.27128 Y4.59428
G01 X8.19584 Y4.65150
G01 X8.16597 Y4.67195
G01 X8.12897 Y4.69468
G01 X8.12813 Y4.69522
G01 X8.11743 Y4.70200
G01 X8.11660 Y4.70256
G01 X8.09579 Y4.71622
G01 X8.09196 Y4.71896
G01 X8.04319 Y4.75635
G01 X8.03966 Y4.75930
G01 X8.01677 Y4.77957
G01 X7.98246 Y4.80708
G01 X7.97347 Y4.81360
G01 X7.96752 Y4.81846
G01 X7.86968 Y4.90878
G01 X7.86486 Y4.91373
G01 X7.84675 Y4.93443
G01 X7.83267 Y4.95049
G01 X7.79612 Y4.98942
G01 X7.77695 Y5.00855
G01 X7.77613 Y5.00939
G01 X7.77072 Y5.01498
G01 X7.57517 Y5.01498
G01 X7.45584 Y5.01498
G01 X7.45073 Y5.00939
G01 X7.44997 Y5.00852
G01 X7.39244 Y4.94749
G01 X7.39188 Y4.94688
G01 X7.38022 Y4.93481
G01 X7.38853 Y4.93692
G01 X7.41378 Y4.94066
G01 X7.58721 Y4.95772
G01 X7.63816 Y4.95772
G01 X7.81162 Y4.94066
G01 X7.83684 Y4.93692
G01 X7.84675 Y4.93443
G04 P0 ( dwell for no time -- G64 should not smooth over this point )
G00 Z5.00000 ( retract )

G00 X7.37743 Y2.57508 ( rapid move to begin. )
G01 F300.00000
( Mill infeed pass 1/1 )
G01 Z-0.05000
G04 P0 ( dwell for no time -- G64 should not smooth over this point )
G01 F600.00000
G01 X7.37743 Y2.57508
G01 X7.46476 Y2.49354
G01 X7.47006 Y2.48867
G01 X7.47903 Y2.48280
G01 X7.48886 Y2.47848
G01 X7.48584 Y2.46987
G01 X7.48886 Y2.47848
G01 X7.49927 Y2.47587
G01 X7.50997 Y2.47498
G01 X7.71522 Y2.47498
G01 X7.72737 Y2.47612
G01 X7.73908 Y2.47952
G01 X7.74997 Y2.48503
G01 X7.75294 Y2.47739
G01 X7.74997 Y2.48503
G01 X7.75962 Y2.49248
G01 X7.84774 Y2.57482
G01 X7.84441 Y2.53756
G01 X7.84314 Y2.44978
G01 X7.84377 Y2.43446
G01 X7.85287 Y2.43055
G01 X7.84377 Y2.43446
G01 X7.81012 Y2.40081
G01 X7.81472 Y2.38801
G01 X7.81012 Y2.40081
G01 X7.63816 Y2.41772
G01 X7.61268 Y2.41899
G01 X7.58721 Y2.41772
G01 X7.41525 Y2.40081
G01 X7.41063 Y2.38801
G01 X7.41525 Y2.40081
G01 X7.38157 Y2.43449
G01 X7.37250 Y2.43055
G01 X7.38157 Y2.43449
G01 X7.38218 Y2.45026
G01 X7.38073 Y2.53883
G01 X7.37743 Y2.57508
G01 X7.36689 Y2.58493
G01 X7.33402 Y2.61089
G01 X7.33321 Y2.61153
G01 X7.31812 Y2.62382
G01 X7.31733 Y2.62448
G01 X7.26107 Y2.67185
G01 X7.17860 Y2.72732
G01 X7.17779 Y2.72778
G01 X7.14167 Y2.74871
G01 X7.13895 Y2.75039
G01 X7.10303 Y2.77365
G01 X7.06679 Y2.79436
G01 X7.03885 Y2.80833
G01 X7.03389 Y2.81109
G01 X6.98995 Y2.83807
G01 X6.98729 Y2.83980
G01 X6.95477 Y2.86205
G01 X6.95218 Y2.86390
G01 X6.87324 Y2.92382
G01 X6.87278 Y2.92326
G01 X6.87324 Y2.92382
G01 X6.86887 Y2.92743
G01 X6.81304 Y2.97802
G01 X6.81073 Y2.98023
G01 X6.78289 Y3.00807
G01 X6.78071 Y3.01038
G01 X6.73014 Y3.06619
G01 X6.72650 Y3.07056
G01 X6.72622 Y3.07030
G01 X6.72650 Y3.07056
G01 X6.66661 Y3.14952
G01 X6.66473 Y3.15211
G01 X6.64253 Y3.18452
G01 X6.64078 Y3.18724
G01 X6.64047 Y3.18707
G01 X6.64078 Y3.18724
G01 X6.61375 Y3.23121
G01 X6.61101 Y3.23616
G01 X6.55610 Y3.34604
G01 X6.55566 Y3.34584
G01 X6.55610 Y3.34604
G01 X6.55472 Y3.34891
G01 X6.53885 Y3.38508
G01 X6.53760 Y3.38803
G01 X6.52770 Y3.41396
G01 X6.52592 Y3.41932
G01 X6.48564 Y3.56027
G01 X6.48485 Y3.56337
G01 X6.48421 Y3.56324
G01 X6.48485 Y3.56337
G01 X6.47588 Y3.60190
G01 X6.47525 Y3.60502
G01 X6.47454 Y3.60893
G01 X6.47375 Y3.61455
G01 X6.45798 Y3.78417
G01 X6.45785 Y3.78574
G01 X6.45650 Y3.80556
G01 X6.45582 Y3.80556
G01 X6.45650 Y3.80556
G01 X6.45650 Y3.81442
G01 X6.45785 Y3.83423
G01 X6.45798 Y3.83583
G01 X6.47375 Y4.00540
G01 X6.47454 Y4.01102
G01 X6.47403 Y4.01112
G01 X6.47454 Y4.01102
G01 X6.47525 Y4.01493
G01 X6.47588 Y4.01805
G01 X6.48485 Y4.05658
G01 X6.48564 Y4.05968
G01 X6.52592 Y4.20063
G01 X6.52770 Y4.20599
G01 X6.52727 Y4.20616
G01 X6.52770 Y4.20599
G01 X6.53760 Y4.23192
G01 X6.53885 Y4.23487
G01 X6.55472 Y4.27104
G01 X6.55610 Y4.27391
G01 X6.61101 Y4.38379
G01 X6.61043 Y4.38414
G01 X6.61101 Y4.38379
G01 X6.61375 Y4.38874
G01 X6.64078 Y4.43271
G01 X6.64253 Y4.43537
G01 X6.66473 Y4.46783
G01 X6.66661 Y4.47043
G01 X6.72650 Y4.54939
G01 X6.73011 Y4.55376
G01 X6.78071 Y4.60957
G01 X6.78292 Y4.61188
G01 X6.78254 Y4.61221
G01 X6.78292 Y4.61188
G01 X6.81073 Y4.63972
G01 X6.81307 Y4.64190
G01 X6.86890 Y4.69252
G01 X6.87327 Y4.69613
G01 X6.95218 Y4.75602
G01 X6.95477 Y4.75790
G01 X6.98729 Y4.78013
G01 X6.98995 Y4.78188
G01 X7.02676 Y4.80449
G01 X7.06194 Y4.82892
G01 X7.12704 Y4.87977
G01 X7.12762 Y4.88023
G01 X7.16283 Y4.90705
G01 X7.21655 Y4.95440
G01 X7.28558 Y5.02397
G01 X7.29811 Y5.03695
G01 X7.33732 Y5.07855
G01 X7.33666 Y5.07921
G01 X7.33516 Y5.08076
G01 X7.29712 Y5.12130
G01 X7.29562 Y5.12298
G01 X7.28172 Y5.13883
G01 X7.28650 Y5.10954
G01 X7.28990 Y5.07083
G01 X7.28749 Y5.03202
G01 X7.28579 Y5.02420
G01 X7.28558 Y5.02397
G01 X7.28579 Y5.02420
G01 X7.28749 Y5.03202
G01 X7.28990 Y5.07083
G01 X7.28650 Y5.10954
G01 X7.28172 Y5.13883
G01 X7.26496 Y5.15798
G01 X7.17248 Y5.24335
G01 X7.16531 Y5.24855
G01 X7.16280 Y5.25046
G01 X7.12600 Y5.27995
G01 X7.12353 Y5.28203
G01 X7.10118 Y5.30184
G01 X7.05612 Y5.33641
G01 X7.03773 Y5.34853
G01 X7.02790 Y5.35478
G01 X6.98995 Y5.37807
G01 X6.98729 Y5.37982
G01 X6.95477 Y5.40205
G01 X6.95218 Y5.40393
G01 X6.87327 Y5.46382
G01 X6.86890 Y5.46743
G01 X6.81307 Y5.51805
G01 X6.81243 Y5.51736
G01 X6.81307 Y5.51805
G01 X6.81073 Y5.52023
G01 X6.78292 Y5.54807
G01 X6.78071 Y5.55038
G01 X6.73011 Y5.60619
G01 X6.72650 Y5.61056
G01 X6.66661 Y5.68952
G01 X6.66473 Y5.69211
G01 X6.64253 Y5.72458
G01 X6.64180 Y5.72412
G01 X6.64253 Y5.72458
G01 X6.64078 Y5.72724
G01 X6.61375 Y5.77121
G01 X6.61101 Y5.77616
G01 X6.55610 Y5.88604
G01 X6.55472 Y5.88891
G01 X6.53885 Y5.92508
G01 X6.53760 Y5.92803
G01 X6.52770 Y5.95396
G01 X6.52592 Y5.95932
G01 X6.52534 Y5.95912
G01 X6.52592 Y5.95932
G01 X6.48564 Y6.10027
G01 X6.48485 Y6.10337
G01 X6.47588 Y6.14190
G01 X6.47525 Y6.14502
G01 X6.47454 Y6.14893
G01 X6.47405 Y6.14883
G01 X6.47454 Y6.14893
G01 X6.47375 Y6.15455
G01 X6.45798 Y6.32417
G01 X6.45785 Y6.32574
G01 X6.45650 Y6.34555
G01 X6.45592 Y6.34555
G01 X6.45650 Y6.34555
G01 X6.45650 Y6.35442
G01 X6.45785 Y6.37423
G01 X6.45798 Y6.37583
G01 X6.47375 Y6.54540
G01 X6.47454 Y6.55099
G01 X6.47525 Y6.55493
G01 X6.47588 Y6.55805
G01 X6.47537 Y6.55810
G01 X6.47588 Y6.55805
G01 X6.48485 Y6.59658
G01 X6.48564 Y6.59968
G01 X6.52592 Y6.74065
G01 X6.52770 Y6.74601
G01 X6.52744 Y6.74611
G01 X6.52770 Y6.74601
G01 X6.53760 Y6.77192
G01 X6.53882 Y6.77487
G01 X6.55472 Y6.81101
G01 X6.55604 Y6.81388
G01 X6.56473 Y6.83120
G01 X6.58091 Y6.86859
G01 X6.58754 Y6.88650
G01 X6.59277 Y6.93430
G01 X6.59501 Y6.97469
G01 X6.59501 Y21.77768
G01 X6.59488 Y21.79267
G01 X6.59488 Y21.79396
G01 X6.59511 Y21.81367
G01 X6.59516 Y21.81527
G01 X6.59666 Y21.85637
G01 X6.59638 Y21.85640
G01 X6.59666 Y21.85637
G01 X6.59722 Y21.86282
G01 X6.60298 Y21.90491
G01 X6.60464 Y21.91890
G01 X6.60651 Y21.93674
G01 X6.60669 Y21.93846
G01 X6.60997 Y21.96320
G01 X6.61175 Y21.97202
G01 X6.61124 Y21.97214
G01 X6.61175 Y21.97202
G01 X6.62308 Y22.01309
G01 X6.62719 Y22.02927
G01 X6.62887 Y22.03488
G01 X6.64047 Y22.06795
G01 X6.64743 Y22.08883
G01 X6.65117 Y22.10079
G01 X6.65180 Y22.10275
G01 X6.66173 Y22.13102
G01 X6.66544 Y22.13963
G01 X6.66486 Y22.13986
G01 X6.66544 Y22.13963
G01 X6.67355 Y22.15515
G01 X6.68439 Y22.17666
G01 X6.69176 Y22.19201
G01 X6.69450 Y22.19714
G01 X6.71243 Y22.22731
G01 X6.72320 Y22.24606
G01 X6.72704 Y22.25297
G01 X6.72818 Y22.25490
G01 X6.74624 Y22.28492
G01 X6.74573 Y22.28527
G01 X6.74624 Y22.28492
G01 X6.75160 Y22.29251
G01 X6.76257 Y22.30592
G01 X6.77738 Y22.32472
G01 X6.78772 Y22.33844
G01 X6.79145 Y22.34296
G01 X6.81505 Y22.36899
G01 X6.81970 Y22.37422
G01 X6.83433 Y22.39109
G01 X6.83491 Y22.39173
G01 X6.84507 Y22.40313
G01 X6.84591 Y22.40404
G01 X6.85975 Y22.41898
G01 X6.86392 Y22.42309
G01 X6.87669 Y22.43460
G01 X6.89420 Y22.45103
G01 X6.90260 Y22.45916
G01 X8.89488 Y24.45144
G01 X8.90534 Y24.46208
G01 X8.90628 Y24.46304
G01 X8.92040 Y24.47681
G01 X8.92155 Y24.47790
G01 X8.95167 Y24.50592
G01 X8.95662 Y24.51009
G01 X8.99056 Y24.53582
G01 X9.00161 Y24.54450
G01 X9.01548 Y24.55578
G01 X9.01685 Y24.55685
G01 X9.03658 Y24.57201
G01 X9.04413 Y24.57701
G01 X9.04359 Y24.57785
G01 X9.04413 Y24.57701
G01 X9.08103 Y24.59792
G01 X9.09571 Y24.60668
G01 X9.10087 Y24.60945
G01 X9.13229 Y24.62456
G01 X9.15177 Y24.63429
G01 X9.16308 Y24.64018
G01 X9.16490 Y24.64112
G01 X9.19190 Y24.65410
G01 X9.20062 Y24.65756
G01 X9.21723 Y24.66279
G01 X9.24009 Y24.67031
G01 X9.25634 Y24.67605
G01 X9.26186 Y24.67770
G01 X9.26165 Y24.67826
G01 X9.26186 Y24.67770
G01 X9.30280 Y24.68819
G01 X9.31649 Y24.69192
G01 X9.32642 Y24.69477
G01 X9.32884 Y24.69540
G01 X9.36071 Y24.70323
G01 X9.36970 Y24.70478
G01 X9.36963 Y24.70521
G01 X9.36970 Y24.70478
G01 X9.38693 Y24.70650
G01 X9.41070 Y24.70932
G01 X9.42759 Y24.71171
G01 X9.43341 Y24.71224
G01 X9.46856 Y24.71397
G01 X9.47565 Y24.71440
G01 X9.50196 Y24.71626
G01 X9.50316 Y24.71633
G01 X9.51431 Y24.71689
G01 X9.51520 Y24.71694
G01 X9.53549 Y24.71771
G01 X9.54136 Y24.71768
G01 X9.55855 Y24.71677
G01 X9.58256 Y24.71600
G01 X9.59427 Y24.71583
G01 X12.02916 Y24.71583
G01 X12.07066 Y24.71816
G01 X12.14547 Y24.72660
G01 X12.18509 Y24.74999
G01 X12.22299 Y24.77633
G01 X12.22459 Y24.77740
G01 X12.24255 Y24.78910
G01 X12.24402 Y24.79002
G01 X12.28580 Y24.81570
G01 X12.29078 Y24.81847
G01 X12.39606 Y24.87110
G01 X12.39896 Y24.87247
G01 X12.39868 Y24.87310
G01 X12.39896 Y24.87247
G01 X12.43508 Y24.88837
G01 X12.43805 Y24.88956
G01 X12.46238 Y24.89888
G01 X12.46777 Y24.90066
G01 X12.60297 Y24.93929
G01 X12.60607 Y24.94008
G01 X12.60594 Y24.94072
G01 X12.60607 Y24.94008
G01 X12.64463 Y24.94907
G01 X12.64775 Y24.94973
G01 X12.65080 Y24.95029
G01 X12.65641 Y24.95106
G01 X12.81928 Y24.96619
G01 X12.82085 Y24.96632
G01 X12.84064 Y24.96767
G01 X12.84064 Y24.96835
G01 X12.84064 Y24.96767
G01 X12.84948 Y24.96767
G01 X12.86929 Y24.96632
G01 X12.87087 Y24.96619
G01 X13.03373 Y24.95106
G01 X13.03381 Y24.95156
G01 X13.03373 Y24.95106
G01 X13.03934 Y24.95029
G01 X13.04239 Y24.94973
G01 X13.04552 Y24.94907
G01 X13.08407 Y24.94008
G01 X13.08717 Y24.93929
G01 X13.22238 Y24.90066
G01 X13.22774 Y24.89888
G01 X13.22794 Y24.89934
G01 X13.22774 Y24.89888
G01 X13.25209 Y24.88956
G01 X13.25507 Y24.88837
G01 X13.29119 Y24.87247
G01 X13.29408 Y24.87110
G01 X13.39939 Y24.81847
G01 X13.39974 Y24.81905
G01 X13.39939 Y24.81847
G01 X13.40434 Y24.81570
G01 X13.44613 Y24.79004
G01 X13.44879 Y24.78829
G01 X13.48128 Y24.76609
G01 X13.48387 Y24.76421
G01 X13.55943 Y24.70688
G01 X13.56380 Y24.70328
G01 X13.61709 Y24.65497
G01 X13.61940 Y24.65276
G01 X13.61973 Y24.65314
G01 X13.61940 Y24.65276
G01 X13.64724 Y24.62492
G01 X13.64945 Y24.62261
G01 X13.69776 Y24.56929
G01 X13.70137 Y24.56495
G01 X13.70162 Y24.56515
G01 X13.70137 Y24.56495
G01 X13.75872 Y24.48936
G01 X13.76058 Y24.48677
G01 X13.78280 Y24.45428
G01 X13.78455 Y24.45161
G01 X13.81021 Y24.40986
G01 X13.81295 Y24.40488
G01 X13.81336 Y24.40513
G01 X13.81295 Y24.40488
G01 X13.86561 Y24.29957
G01 X13.86695 Y24.29670
G01 X13.88283 Y24.26058
G01 X13.88405 Y24.25764
G01 X13.89339 Y24.23325
G01 X13.89383 Y24.23340
G01 X13.89339 Y24.23325
G01 X13.89517 Y24.22787
G01 X13.93380 Y24.09269
G01 X13.93459 Y24.08959
G01 X13.94358 Y24.05101
G01 X13.94407 Y24.05111
G01 X13.94358 Y24.05101
G01 X13.94424 Y24.04788
G01 X13.94480 Y24.04483
G01 X13.94557 Y24.03922
G01 X13.96070 Y23.87638
G01 X13.96083 Y23.87481
G01 X13.96218 Y23.85502
G01 X13.96271 Y23.85502
G01 X13.96985 Y23.85057
G01 X13.95278 Y24.04588
G01 X13.90203 Y24.23526
G01 X13.81915 Y24.41298
G01 X13.70670 Y24.57356
G01 X13.56807 Y24.71222
G01 X13.40747 Y24.82466
G01 X13.22977 Y24.90752
G01 X13.04039 Y24.95827
G01 X12.84508 Y24.97536
G01 X12.64976 Y24.95827
G01 X12.46038 Y24.90752
G01 X12.28268 Y24.82466
G01 X12.21971 Y24.78057
G01 X12.21087 Y24.77491
G01 X12.18308 Y24.75862
G01 X12.16525 Y24.74991
G01 X12.14628 Y24.74404
G01 X12.05992 Y24.72433
G01 X12.04557 Y24.72190
G01 X12.03101 Y24.72106
G01 X9.59376 Y24.72106
G01 X9.58548 Y24.72134
G01 X9.56036 Y24.72294
G01 X9.55218 Y24.72372
G01 X9.53983 Y24.72530
G01 X9.49703 Y24.72202
G01 X9.49218 Y24.72174
G01 X9.47707 Y24.72116
G01 X9.47207 Y24.72106
G01 X9.42914 Y24.72106
G01 X9.41692 Y24.71857
G01 X9.40890 Y24.71717
G01 X9.38395 Y24.71367
G01 X9.37575 Y24.71278
G01 X9.36333 Y24.71184
G01 X9.32203 Y24.70003
G01 X9.31708 Y24.69871
G01 X9.30239 Y24.69512
G01 X9.29777 Y24.69408
G01 X9.25573 Y24.68545
G01 X9.24430 Y24.68054
G01 X9.23658 Y24.67752
G01 X9.21288 Y24.66909
G01 X9.20506 Y24.66657
G01 X9.19310 Y24.66315
G01 X9.15507 Y24.64328
G01 X9.15063 Y24.64105
G01 X9.13699 Y24.63457
G01 X9.13252 Y24.63256
G01 X9.09302 Y24.61560
G01 X9.08276 Y24.60846
G01 X9.07593 Y24.60404
G01 X9.05439 Y24.59098
G01 X9.04720 Y24.58692
G01 X9.03615 Y24.58115
G01 X9.00293 Y24.55405
G01 X8.99902 Y24.55098
G01 X8.98695 Y24.54189
G01 X8.98296 Y24.53899
G01 X8.94768 Y24.51445
G01 X8.89361 Y24.45763
G01 X8.89137 Y24.45532
G01 X6.89854 Y22.46249
G01 X6.89249 Y22.45685
G01 X6.87360 Y22.44021
G01 X6.86732 Y22.43503
G01 X6.85744 Y22.42736
G01 X6.82948 Y22.39477
G01 X6.82620 Y22.39112
G01 X6.81594 Y22.38004
G01 X6.81251 Y22.37646
G01 X6.78216 Y22.34613
G01 X6.77532 Y22.33574
G01 X6.77057 Y22.32901
G01 X6.75541 Y22.30890
G01 X6.75020 Y22.30244
G01 X6.74210 Y22.29302
G01 X6.72127 Y22.25548
G01 X6.71883 Y22.25129
G01 X6.71101 Y22.23836
G01 X6.70834 Y22.23412
G01 X6.68472 Y22.19828
G01 X6.68010 Y22.18672
G01 X6.67680 Y22.17915
G01 X6.66598 Y22.15639
G01 X6.66227 Y22.14918
G01 X6.65617 Y22.13826
G01 X6.64332 Y22.09726
G01 X6.64182 Y22.09274
G01 X6.63677 Y22.07849
G01 X6.63494 Y22.07372
G01 X6.61904 Y22.03384
G01 X6.61683 Y22.02155
G01 X6.61513 Y22.01362
G01 X6.60916 Y21.98916
G01 X6.60695 Y21.98129
G01 X6.60321 Y21.96932
G01 X6.59884 Y21.92660
G01 X6.59826 Y21.92167
G01 X6.59615 Y21.90669
G01 X6.59536 Y21.90184
G01 X6.58777 Y21.85957
G01 X6.58973 Y21.78116
G01 X6.58978 Y21.77796
G01 X6.58978 Y6.97291
G01 X6.58899 Y6.95874
G01 X6.58668 Y6.94477
G01 X6.56801 Y6.86067
G01 X6.56422 Y6.84703
G01 X6.55894 Y6.83387
G01 X6.51894 Y6.74807
G01 X6.46641 Y6.55208
G01 X6.44870 Y6.34997
G01 X6.46641 Y6.14787
G01 X6.51894 Y5.95191
G01 X6.60469 Y5.76801
G01 X6.72104 Y5.60182
G01 X6.86453 Y5.45836
G01 X7.02003 Y5.34947
G01 X7.02645 Y5.34464
G01 X7.04583 Y5.32920
G01 X7.05955 Y5.31658
G01 X7.07131 Y5.30210
G01 X7.12211 Y5.22956
G01 X7.13204 Y5.21287
G01 X7.13936 Y5.19486
G01 X7.14390 Y5.17599
G01 X7.15820 Y5.08856
G01 X7.15990 Y5.06921
G01 X7.15871 Y5.04980
G01 X7.15462 Y5.03080
G01 X7.12958 Y4.94586
G01 X7.12269 Y4.92768
G01 X7.11319 Y4.91073
G01 X7.10126 Y4.89539
G01 X7.04182 Y4.82973
G01 X7.03146 Y4.81950
G01 X7.02003 Y4.81048
G01 X6.86453 Y4.70159
G01 X6.72104 Y4.55813
G01 X6.60469 Y4.39194
G01 X6.51894 Y4.20804
G01 X6.46641 Y4.01208
G01 X6.44870 Y3.80997
G01 X6.46641 Y3.60787
G01 X6.51894 Y3.41191
G01 X6.60469 Y3.22801
G01 X6.72104 Y3.06182
G01 X6.86450 Y2.91836
G01 X7.03069 Y2.80198
G01 X7.06653 Y2.78529
G01 X7.07928 Y2.77846
G01 X7.09122 Y2.77025
G01 X7.16062 Y2.71653
G01 X7.17497 Y2.70358
G01 X7.18726 Y2.68867
G01 X7.19719 Y2.67208
G01 X7.23694 Y2.59293
G01 X7.24436 Y2.57495
G01 X7.24898 Y2.55605
G01 X7.25076 Y2.53670
G01 X7.25221 Y2.44813
G01 X7.25162 Y2.43357
G01 X7.24941 Y2.41917
G01 X7.24309 Y2.38910
G01 X7.37418 Y2.25801
G01 X7.40151 Y2.26631
G01 X7.41388 Y2.26941
G01 X7.42650 Y2.27127
G01 X7.59993 Y2.28836
G01 X7.62544 Y2.28836
G01 X7.79887 Y2.27127
G01 X7.82386 Y2.26631
G01 X7.85117 Y2.25801
G01 X7.98225 Y2.38910
G01 X7.97593 Y2.41917
G01 X7.97372 Y2.43345
G01 X7.97314 Y2.44790
G01 X7.97441 Y2.53568
G01 X7.97613 Y2.55494
G01 X7.98068 Y2.57373
G01 X7.98797 Y2.59166
G01 X8.02739 Y2.67096
G01 X8.03732 Y2.68765
G01 X8.04962 Y2.70269
G01 X8.06402 Y2.71572
G01 X8.13394 Y2.77007
G01 X8.14596 Y2.77838
G01 X8.15881 Y2.78526
G01 X8.19465 Y2.80198
G01 X8.36084 Y2.91836
G01 X8.50430 Y3.06182
G01 X8.62066 Y3.22801
G01 X8.70641 Y3.41191
G01 X8.75894 Y3.60787
G01 X8.77661 Y3.80997
G01 X8.75894 Y4.01208
G01 X8.70641 Y4.20804
G01 X8.62066 Y4.39194
G01 X8.50430 Y4.55813
G01 X8.36084 Y4.70159
G01 X8.20534 Y4.81048
G01 X8.19889 Y4.81531
G01 X8.17951 Y4.83075
G01 X8.16580 Y4.84337
G01 X8.15404 Y4.85785
G01 X8.10323 Y4.93039
G01 X8.09330 Y4.94708
G01 X8.08599 Y4.96509
G01 X8.08144 Y4.98396
G01 X8.06714 Y5.07139
G01 X8.06544 Y5.09077
G01 X8.06666 Y5.11018
G01 X8.07075 Y5.12917
G01 X8.09582 Y5.21411
G01 X8.10268 Y5.23227
G01 X8.11218 Y5.24921
G01 X8.12409 Y5.26453
G01 X8.18350 Y5.33019
G01 X8.19389 Y5.34045
G01 X8.20534 Y5.34947
G01 X8.30603 Y5.41998
G01 X8.31487 Y5.42564
G01 X8.34266 Y5.44192
G01 X8.36049 Y5.45064
G01 X8.37946 Y5.45650
G01 X8.46582 Y5.47621
G01 X8.48017 Y5.47865
G01 X8.49475 Y5.47949
G01 X9.19864 Y5.47949
G01 X9.22040 Y5.47764
G01 X9.28614 Y5.46646
G01 X9.31073 Y5.45976
G01 X9.33353 Y5.44838
G01 X9.40852 Y5.40126
G01 X9.42040 Y5.39283
G01 X9.43127 Y5.38312
G01 X10.93843 Y3.87596
G01 X10.95253 Y3.85925
G01 X10.99109 Y3.80489
G01 X11.00371 Y3.78277
G01 X11.01179 Y3.75862
G01 X11.03150 Y3.67228
G01 X11.03394 Y3.65790
G01 X11.03478 Y3.64335
G01 X11.03478 Y-19.82848
G01 X11.03396 Y-19.84299
G01 X11.02898 Y-19.88726
G01 X11.02472 Y-19.90872
G01 X11.01692 Y-19.92914
G01 X10.97849 Y-20.00895
G01 X10.96876 Y-20.02579
G01 X10.95665 Y-20.04098
G01 X10.94242 Y-20.05419
G01 X10.87318 Y-20.10941
G01 X10.85713 Y-20.12036
G01 X10.83963 Y-20.12879
G01 X10.82106 Y-20.13450
G01 X10.73473 Y-20.15421
G01 X10.72035 Y-20.15665
G01 X10.70580 Y-20.15749
G01 X10.41748 Y-20.15749
G01 X10.40364 Y-20.15675
G01 X10.38995 Y-20.15454
G01 X10.30765 Y-20.13671
G01 X10.28949 Y-20.13135
G01 X10.27229 Y-20.12343
G01 X10.25642 Y-20.11309
G01 X10.18596 Y-20.05945
G01 X10.17143 Y-20.04654
G01 X10.15896 Y-20.03163
G01 X10.14887 Y-20.01502
G01 X10.10867 Y-19.93610
G01 X10.10117 Y-19.91817
G01 X10.09642 Y-19.89933
G01 X10.09454 Y-19.88000
G01 X10.09256 Y-19.79148
G01 X10.09358 Y-19.77207
G01 X10.09747 Y-19.75305
G01 X10.10415 Y-19.73481
G01 X10.14077 Y-19.65416
G01 X10.15012 Y-19.63712
G01 X10.16190 Y-19.62165
G01 X10.17585 Y-19.60811
G01 X10.21895 Y-19.57212
G01 X10.22040 Y-19.57034
G01 X10.23760 Y-19.55541
G01 X10.24197 Y-19.55223
G01 X10.30983 Y-19.48434
G01 X10.34875 Y-19.40801
G01 X10.35875 Y-19.34467
G01 X10.35875 Y-17.60207
G01 X10.34875 Y-17.53875
G01 X10.30983 Y-17.46242
G01 X10.24923 Y-17.40182
G01 X10.17290 Y-17.36291
G01 X10.10956 Y-17.35287
G01 X9.97951 Y-17.35287
G01 X9.96097 Y-17.35153
G01 X9.90468 Y-17.34342
G01 X9.88144 Y-17.33786
G01 X9.85959 Y-17.32813
G01 X9.78235 Y-17.28480
G01 X9.76617 Y-17.27406
G01 X9.75177 Y-17.26103
G01 X9.73948 Y-17.24599
G01 X9.68868 Y-17.17345
G01 X9.67875 Y-17.15673
G01 X9.67143 Y-17.13873
G01 X9.66686 Y-17.11983
G01 X9.65258 Y-17.03243
G01 X9.65091 Y-17.01310
G01 X9.65210 Y-16.99372
G01 X9.65619 Y-16.97472
G01 X9.68124 Y-16.88976
G01 X9.68812 Y-16.87157
G01 X9.69762 Y-16.85463
G01 X9.70956 Y-16.83929
G01 X9.76899 Y-16.77363
G01 X9.77936 Y-16.76339
G01 X9.79081 Y-16.75437
G01 X9.96127 Y-16.63502
G01 X10.09990 Y-16.49636
G01 X10.21235 Y-16.33578
G01 X10.29523 Y-16.15806
G01 X10.34598 Y-15.96868
G01 X10.36305 Y-15.77337
G01 X10.34598 Y-15.57807
G01 X10.29523 Y-15.38869
G01 X10.21235 Y-15.21097
G01 X10.09990 Y-15.05039
G01 X9.96127 Y-14.91173
G01 X9.80067 Y-14.79928
G01 X9.62297 Y-14.71643
G01 X9.43359 Y-14.66568
G01 X9.23828 Y-14.64859
G01 X9.04296 Y-14.66568
G01 X8.85358 Y-14.71643
G01 X8.67588 Y-14.79928
G01 X8.51527 Y-14.91173
G01 X8.37405 Y-15.05298
G01 X8.36447 Y-15.06390
G01 X8.35302 Y-15.07421
G01 X8.28375 Y-15.12943
G01 X8.26770 Y-15.14036
G01 X8.25020 Y-15.14879
G01 X8.23166 Y-15.15450
G01 X8.14532 Y-15.17421
G01 X8.13095 Y-15.17665
G01 X8.11639 Y-15.17749
G01 X7.58421 Y-15.17749
G01 X7.57017 Y-15.17673
G01 X7.52757 Y-15.17211
G01 X7.50641 Y-15.16799
G01 X7.48622 Y-15.16047
G01 X7.40608 Y-15.12273
G01 X7.39325 Y-15.11579
G01 X7.38129 Y-15.10746
G01 X7.37352 Y-15.10134
G01 X7.34992 Y-15.08806
G01 X7.30700 Y-15.07178
G01 X7.30321 Y-15.07028
G01 X7.29214 Y-15.06568
G01 X7.28863 Y-15.06418
G01 X7.24662 Y-15.04526
G01 X7.22066 Y-15.03804
G01 X7.17504 Y-15.03253
G01 X7.17113 Y-15.03197
G01 X7.15927 Y-15.03017
G01 X7.15536 Y-15.02954
G01 X7.11396 Y-15.02194
G01 X7.07192 Y-15.02446
G01 X7.06824 Y-15.02463
G01 X7.05622 Y-15.02501
G01 X7.05211 Y-15.02509
G01 X6.04556 Y-15.02509
G01 X6.04154 Y-15.02501
G01 X6.02915 Y-15.02463
G01 X6.01259 Y-15.02306
G01 X5.99636 Y-15.01938
G01 X5.91142 Y-14.99431
G01 X5.89326 Y-14.98745
G01 X5.87634 Y-14.97795
G01 X5.86100 Y-14.96604
G01 X5.79531 Y-14.90663
G01 X5.78503 Y-14.89621
G01 X5.77596 Y-14.88468
G01 X5.77278 Y-14.88016
G01 X5.63565 Y-14.74302
G01 X5.47675 Y-14.63175
G01 X5.30090 Y-14.54975
G01 X5.11353 Y-14.49954
G01 X4.92028 Y-14.48262
G01 X4.72702 Y-14.49954
G01 X4.53964 Y-14.54975
G01 X4.36380 Y-14.63175
G01 X4.20489 Y-14.74302
G01 X4.06771 Y-14.88018
G01 X4.03187 Y-14.93136
G01 X4.02013 Y-14.94582
G01 X3.98120 Y-14.98727
G01 X3.96331 Y-15.00309
G01 X3.94287 Y-15.01539
G01 X3.86309 Y-15.05382
G01 X3.84498 Y-15.06090
G01 X3.82603 Y-15.06522
G01 X3.80667 Y-15.06670
G01 X3.71810 Y-15.06670
G01 X3.69872 Y-15.06522
G01 X3.67977 Y-15.06090
G01 X3.66166 Y-15.05382
G01 X3.58188 Y-15.01539
G01 X3.56507 Y-15.00566
G01 X3.54988 Y-14.99354
G01 X3.53667 Y-14.97932
G01 X3.48145 Y-14.91008
G01 X3.47050 Y-14.89403
G01 X3.46207 Y-14.87653
G01 X3.45636 Y-14.85796
G01 X3.43665 Y-14.77162
G01 X3.43421 Y-14.75725
G01 X3.43337 Y-14.74269
G01 X3.43337 Y-6.26537
G01 X3.43522 Y-6.24360
G01 X3.44637 Y-6.17789
G01 X3.45031 Y-6.16133
G01 X3.45638 Y-6.14543
G01 X3.46446 Y-6.13047
G01 X3.51160 Y-6.05546
G01 X3.52003 Y-6.04357
G01 X3.52974 Y-6.03270
G01 X5.08561 Y-4.47683
G01 X5.10230 Y-4.46275
G01 X5.15666 Y-4.42417
G01 X5.17114 Y-4.41526
G01 X5.18668 Y-4.40830
G01 X5.20299 Y-4.40345
G01 X5.28935 Y-4.38374
G01 X5.30370 Y-4.38130
G01 X5.31828 Y-4.38046
G01 X6.42541 Y-4.38046
G01 X6.42940 Y-4.38053
G01 X6.44180 Y-4.38092
G01 X6.45836 Y-4.38249
G01 X6.47459 Y-4.38617
G01 X6.55952 Y-4.41124
G01 X6.57769 Y-4.41810
G01 X6.59463 Y-4.42760
G01 X6.60994 Y-4.43951
G01 X6.67560 Y-4.49892
G01 X6.68586 Y-4.50931
G01 X6.69488 Y-4.52077
G01 X6.72104 Y-4.55813
G01 X6.86453 Y-4.70159
G01 X7.02003 Y-4.81048
G01 X7.02645 Y-4.81531
G01 X7.04583 Y-4.83075
G01 X7.05955 Y-4.84337
G01 X7.07131 Y-4.85785
G01 X7.12211 Y-4.93039
G01 X7.13204 Y-4.94708
G01 X7.13936 Y-4.96509
G01 X7.14390 Y-4.98396
G01 X7.15820 Y-5.07139
G01 X7.15990 Y-5.09074
G01 X7.15871 Y-5.11015
G01 X7.15462 Y-5.12915
G01 X7.12958 Y-5.21409
G01 X7.12269 Y-5.23227
G01 X7.11319 Y-5.24921
G01 X7.10126 Y-5.26456
G01 X7.04182 Y-5.33022
G01 X7.03146 Y-5.34045
G01 X7.02003 Y-5.34947
G01 X6.86453 Y-5.45836
G01 X6.72104 Y-5.60182
G01 X6.60469 Y-5.76801
G01 X6.51894 Y-5.95191
G01 X6.46641 Y-6.14787
G01 X6.44870 Y-6.34997
G01 X6.46641 Y-6.55208
G01 X6.51894 Y-6.74804
G01 X6.60469 Y-6.93194
G01 X6.72104 Y-7.09813
G01 X6.86450 Y-7.24159
G01 X7.03069 Y-7.35797
G01 X7.21459 Y-7.44372
G01 X7.41058 Y-7.49623
G01 X7.61268 Y-7.51390
G01 X7.81479 Y-7.49623
G01 X8.01075 Y-7.44372
G01 X8.19465 Y-7.35797
G01 X8.36084 Y-7.24159
G01 X8.50430 Y-7.09813
G01 X8.62066 Y-6.93194
G01 X8.70641 Y-6.74804
G01 X8.75894 Y-6.55208
G01 X8.77661 Y-6.34997
G01 X8.75894 Y-6.14787
G01 X8.70641 Y-5.95191
G01 X8.62066 Y-5.76801
G01 X8.50430 Y-5.60182
G01 X8.36084 Y-5.45836
G01 X8.20534 Y-5.34947
G01 X8.19889 Y-5.34464
G01 X8.17951 Y-5.32920
G01 X8.16580 Y-5.31658
G01 X8.15404 Y-5.30210
G01 X8.10323 Y-5.22956
G01 X8.09330 Y-5.21287
G01 X8.08599 Y-5.19486
G01 X8.08144 Y-5.17599
G01 X8.06714 Y-5.08856
G01 X8.06544 Y-5.06918
G01 X8.06666 Y-5.04977
G01 X8.07075 Y-5.03077
G01 X8.09582 Y-4.94584
G01 X8.10268 Y-4.92768
G01 X8.11218 Y-4.91073
G01 X8.12409 Y-4.89542
G01 X8.18350 Y-4.82976
G01 X8.19389 Y-4.81950
G01 X8.20534 Y-4.81048
G01 X8.36084 Y-4.70159
G01 X8.50430 Y-4.55813
G01 X8.62066 Y-4.39194
G01 X8.70641 Y-4.20804
G01 X8.75894 Y-4.01208
G01 X8.77661 Y-3.80997
G01 X8.75894 Y-3.60787
G01 X8.70641 Y-3.41191
G01 X8.62066 Y-3.22801
G01 X8.50430 Y-3.06182
G01 X8.36084 Y-2.91836
G01 X8.20534 Y-2.80947
G01 X8.19889 Y-2.80464
G01 X8.17951 Y-2.78920
G01 X8.16580 Y-2.77658
G01 X8.15404 Y-2.76210
G01 X8.10323 Y-2.68956
G01 X8.09330 Y-2.67287
G01 X8.08599 Y-2.65486
G01 X8.08144 Y-2.63599
G01 X8.06714 Y-2.54856
G01 X8.06544 Y-2.52918
G01 X8.06666 Y-2.50977
G01 X8.07075 Y-2.49077
G01 X8.09582 Y-2.40584
G01 X8.10268 Y-2.38768
G01 X8.11218 Y-2.37073
G01 X8.12409 Y-2.35542
G01 X8.18350 Y-2.28976
G01 X8.19389 Y-2.27950
G01 X8.20534 Y-2.27048
G01 X8.36084 Y-2.16159
G01 X8.50430 Y-2.01813
G01 X8.62066 Y-1.85194
G01 X8.70641 Y-1.66804
G01 X8.75894 Y-1.47208
G01 X8.77661 Y-1.26997
G01 X8.75894 Y-1.06787
G01 X8.70641 Y-0.87191
G01 X8.62066 Y-0.68801
G01 X8.50430 Y-0.52182
G01 X8.36084 Y-0.37836
G01 X8.19465 Y-0.26198
G01 X8.15881 Y-0.24526
G01 X8.14608 Y-0.23846
G01 X8.13417 Y-0.23025
G01 X8.06475 Y-0.17653
G01 X8.05038 Y-0.16360
G01 X8.03811 Y-0.14867
G01 X8.02815 Y-0.13208
G01 X7.98840 Y-0.05296
G01 X7.98101 Y-0.03498
G01 X7.97636 Y-0.01610
G01 X7.97458 Y0.00325
G01 X7.97314 Y0.09182
G01 X7.97372 Y0.10638
G01 X7.97593 Y0.12078
G01 X7.98225 Y0.15085
G01 X7.85117 Y0.28194
G01 X7.82386 Y0.27366
G01 X7.81149 Y0.27056
G01 X7.79887 Y0.26871
G01 X7.62544 Y0.25161
G01 X7.59993 Y0.25161
G01 X7.42650 Y0.26871
G01 X7.41388 Y0.27056
G01 X7.40151 Y0.27366
G01 X7.37420 Y0.28197
G01 X7.24309 Y0.15085
G01 X7.24941 Y0.12078
G01 X7.25162 Y0.10650
G01 X7.25221 Y0.09205
G01 X7.25094 Y0.00427
G01 X7.24921 Y-0.01496
G01 X7.24466 Y-0.03378
G01 X7.23735 Y-0.05169
G01 X7.19793 Y-0.13096
G01 X7.18802 Y-0.14765
G01 X7.17573 Y-0.16269
G01 X7.16133 Y-0.17572
G01 X7.09143 Y-0.23007
G01 X7.07941 Y-0.23838
G01 X7.06653 Y-0.24529
G01 X7.03069 Y-0.26198
G01 X6.86450 Y-0.37836
G01 X6.72104 Y-0.52182
G01 X6.69488 Y-0.55918
G01 X6.69254 Y-0.56241
G01 X6.68513 Y-0.57234
G01 X6.67436 Y-0.58501
G01 X6.66204 Y-0.59619
G01 X6.59277 Y-0.65141
G01 X6.57675 Y-0.66236
G01 X6.55925 Y-0.67079
G01 X6.54068 Y-0.67650
G01 X6.45434 Y-0.69621
G01 X6.43997 Y-0.69865
G01 X6.42541 Y-0.69949
G01 X3.93146 Y-0.69949
G01 X3.92745 Y-0.69941
G01 X3.91505 Y-0.69903
G01 X3.91119 Y-0.69886
G01 X3.86959 Y-0.69634
G01 X3.82816 Y-0.70394
G01 X3.82422 Y-0.70460
G01 X3.81234 Y-0.70640
G01 X3.80848 Y-0.70691
G01 X3.76288 Y-0.71244
G01 X3.73695 Y-0.71966
G01 X3.69491 Y-0.73858
G01 X3.69128 Y-0.74016
G01 X3.68018 Y-0.74475
G01 X3.67650 Y-0.74623
G01 X3.63362 Y-0.76246
G01 X3.61013 Y-0.77572
G01 X3.57381 Y-0.80414
G01 X3.57063 Y-0.80653
G01 X3.56095 Y-0.81366
G01 X3.55785 Y-0.81585
G01 X3.52318 Y-0.83980
G01 X3.49527 Y-0.87132
G01 X3.49260 Y-0.87424
G01 X3.48435 Y-0.88301
G01 X3.48165 Y-0.88580
G01 X0.57368 Y-3.79377
G01 X0.57089 Y-3.79646
G01 X0.56215 Y-3.80469
G01 X0.55921 Y-3.80738
G01 X0.52771 Y-3.83527
G01 X0.50381 Y-3.86992
G01 X0.50157 Y-3.87304
G01 X0.49446 Y-3.88272
G01 X0.49202 Y-3.88595
G01 X0.46365 Y-3.92212
G01 X0.45044 Y-3.94556
G01 X0.43409 Y-3.98866
G01 X0.43264 Y-3.99230
G01 X0.42804 Y-4.00340
G01 X0.42649 Y-4.00700
G01 X0.40757 Y-4.04899
G01 X0.40035 Y-4.07500
G01 X0.39479 Y-4.12064
G01 X0.39426 Y-4.12450
G01 X0.39246 Y-4.13636
G01 X0.39182 Y-4.14025
G01 X0.38423 Y-4.18168
G01 X0.38677 Y-4.22369
G01 X0.38694 Y-4.22770
G01 X0.38730 Y-4.23972
G01 X0.38738 Y-4.24358
G01 X0.38738 Y-21.53740
G01 X0.38730 Y-21.54123
G01 X0.38694 Y-21.55325
G01 X0.38677 Y-21.55726
G01 X0.38423 Y-21.59927
G01 X0.39182 Y-21.64070
G01 X0.39248 Y-21.64464
G01 X0.39428 Y-21.65652
G01 X0.39479 Y-21.66033
G01 X0.40035 Y-21.70605
G01 X0.40757 Y-21.73188
G01 X0.42649 Y-21.77392
G01 X0.42804 Y-21.77753
G01 X0.43264 Y-21.78863
G01 X0.43409 Y-21.79229
G01 X0.45044 Y-21.83541
G01 X0.46365 Y-21.85883
G01 X0.49202 Y-21.89500
G01 X0.49436 Y-21.89808
G01 X0.50147 Y-21.90773
G01 X0.50381 Y-21.91101
G01 X0.52774 Y-21.94568
G01 X0.55923 Y-21.97359
G01 X0.56215 Y-21.97626
G01 X0.57092 Y-21.98451
G01 X0.57371 Y-21.98721
G01 X2.18625 Y-23.59975
G01 X2.18895 Y-23.60254
G01 X2.19720 Y-23.61131
G01 X2.19987 Y-23.61423
G01 X2.22778 Y-23.64572
G01 X2.26243 Y-23.66962
G01 X2.26573 Y-23.67199
G01 X2.27541 Y-23.67912
G01 X2.27841 Y-23.68141
G01 X2.31473 Y-23.70983
G01 X2.33820 Y-23.72307
G01 X2.38110 Y-23.73932
G01 X2.38481 Y-23.74080
G01 X2.39591 Y-23.74539
G01 X2.39954 Y-23.74697
G01 X2.44147 Y-23.76584
G01 X2.46753 Y-23.77310
G01 X2.51308 Y-23.77864
G01 X2.51699 Y-23.77918
G01 X2.52885 Y-23.78098
G01 X2.53274 Y-23.78161
G01 X2.57416 Y-23.78921
G01 X2.61615 Y-23.78667
G01 X2.62019 Y-23.78649
G01 X2.63220 Y-23.78613
G01 X2.63606 Y-23.78606
G01 X3.79501 Y-23.78606
G01 X3.79900 Y-23.78613
G01 X3.81140 Y-23.78652
G01 X3.82796 Y-23.78809
G01 X3.84419 Y-23.79177
G01 X3.92913 Y-23.81684
G01 X3.94729 Y-23.82370
G01 X3.96420 Y-23.83320
G01 X3.97954 Y-23.84511
G01 X4.04523 Y-23.90452
G01 X4.05552 Y-23.91494
G01 X4.06458 Y-23.92647
G01 X4.06776 Y-23.93099
G01 X4.20489 Y-24.06813
G01 X4.36390 Y-24.17948
G01 X4.38564 Y-24.18966
G01 X4.39974 Y-24.19736
G01 X4.41277 Y-24.20673
G01 X4.48132 Y-24.26279
G01 X4.49542 Y-24.27620
G01 X4.50736 Y-24.29154
G01 X4.51686 Y-24.30851
G01 X4.55427 Y-24.38878
G01 X4.56115 Y-24.40694
G01 X4.56524 Y-24.42594
G01 X4.56644 Y-24.44532
G01 X4.56535 Y-24.53389
G01 X4.56367 Y-24.55324
G01 X4.55910 Y-24.57214
G01 X4.55178 Y-24.59015
G01 X4.51236 Y-24.66945
G01 X4.50243 Y-24.68613
G01 X4.49014 Y-24.70117
G01 X4.47573 Y-24.71420
G01 X4.40581 Y-24.76856
G01 X4.39379 Y-24.77686
G01 X4.38094 Y-24.78375
G01 X4.36380 Y-24.79175
G01 X4.20489 Y-24.90302
G01 X4.06776 Y-25.04016
G01 X4.06458 Y-25.04468
G01 X4.06204 Y-25.04818
G01 X4.05460 Y-25.05812
G01 X4.04388 Y-25.07069
G01 X4.03164 Y-25.08179
G01 X3.96240 Y-25.13701
G01 X3.94635 Y-25.14796
G01 X3.92885 Y-25.15639
G01 X3.91028 Y-25.16210
G01 X3.82394 Y-25.18181
G01 X3.80957 Y-25.18425
G01 X3.79501 Y-25.18509
G01 X2.32108 Y-25.18509
G01 X2.29928 Y-25.18324
G01 X2.23355 Y-25.17206
G01 X2.20896 Y-25.16535
G01 X2.18615 Y-25.15398
G01 X2.11117 Y-25.10686
G01 X2.09928 Y-25.09843
G01 X2.08841 Y-25.08872
G01 X-0.45801 Y-22.54225
G01 X-0.47211 Y-22.52553
G01 X-0.51069 Y-22.47115
G01 X-0.52332 Y-22.44903
G01 X-0.53139 Y-22.42487
G01 X-0.55110 Y-22.33854
G01 X-0.55354 Y-22.32416
G01 X-0.55438 Y-22.30961
G01 X-0.55438 Y32.66260
G01 X-0.55430 Y32.66643
G01 X-0.55395 Y32.67845
G01 X-0.55377 Y32.68246
G01 X-0.55123 Y32.72447
G01 X-0.55883 Y32.76590
G01 X-0.55946 Y32.76978
G01 X-0.56126 Y32.78165
G01 X-0.56180 Y32.78551
G01 X-0.56736 Y32.83125
G01 X-0.57460 Y32.85719
G01 X-0.59347 Y32.89912
G01 X-0.59505 Y32.90275
G01 X-0.59964 Y32.91385
G01 X-0.60109 Y32.91749
G01 X-0.61745 Y32.96059
G01 X-0.63063 Y32.98398
G01 X-0.65903 Y33.02020
G01 X-0.66147 Y33.02343
G01 X-0.66858 Y33.03311
G01 X-0.67081 Y33.03623
G01 X-0.69472 Y33.07088
G01 X-0.72621 Y33.09877
G01 X-0.72916 Y33.10146
G01 X-0.73790 Y33.10969
G01 X-0.74069 Y33.11238
G01 X-4.46146 Y36.83315
G01 X-4.46428 Y36.83610
G01 X-4.47251 Y36.84486
G01 X-4.47505 Y36.84763
G01 X-4.50294 Y36.87912
G01 X-4.53761 Y36.90300
G01 X-4.54094 Y36.90539
G01 X-4.55061 Y36.91252
G01 X-4.55361 Y36.91481
G01 X-4.58998 Y36.94328
G01 X-4.61343 Y36.95649
G01 X-4.65635 Y36.97277
G01 X-4.65988 Y36.97417
G01 X-4.67096 Y36.97874
G01 X-4.67472 Y36.98037
G01 X-4.71665 Y36.99924
G01 X-4.74274 Y37.00650
G01 X-4.78828 Y37.01204
G01 X-4.79219 Y37.01258
G01 X-4.80405 Y37.01438
G01 X-4.80794 Y37.01501
G01 X-4.84939 Y37.02261
G01 X-4.89143 Y37.02009
G01 X-4.89511 Y37.01992
G01 X-4.90713 Y37.01953
G01 X-4.91127 Y37.01946
G01 X-11.87242 Y37.01946
G01 X-11.87641 Y37.01953
G01 X-11.88880 Y37.01992
G01 X-11.90536 Y37.02149
G01 X-11.92159 Y37.02517
G01 X-12.00653 Y37.05024
G01 X-12.02469 Y37.05710
G01 X-12.04161 Y37.06660
G01 X-12.05695 Y37.07851
G01 X-12.12263 Y37.13792
G01 X-12.13289 Y37.14831
G01 X-12.14191 Y37.15977
G01 X-12.15045 Y37.17196
G01 X-12.28908 Y37.31062
G01 X-12.44968 Y37.42306
G01 X-12.62738 Y37.50592
G01 X-12.81674 Y37.55667
G01 X-13.01209 Y37.57376
G01 X-13.20739 Y37.55667
G01 X-13.39677 Y37.50592
G01 X-13.57447 Y37.42306
G01 X-13.73508 Y37.31062
G01 X-13.87371 Y37.17196
G01 X-13.98615 Y37.01138
G01 X-14.06903 Y36.83366
G01 X-14.11976 Y36.64428
G01 X-14.13685 Y36.44897
G01 X-14.11976 Y36.25367
G01 X-14.06903 Y36.06429
G01 X-13.98615 Y35.88657
G01 X-13.87371 Y35.72599
G01 X-13.73508 Y35.58733
G01 X-13.57447 Y35.47488
G01 X-13.39677 Y35.39203
G01 X-13.20734 Y35.34128
G01 X-13.01206 Y35.32419
G01 X-12.81674 Y35.34128
G01 X-12.62738 Y35.39203
G01 X-12.44968 Y35.47488
G01 X-12.28908 Y35.58733
G01 X-12.15045 Y35.72599
G01 X-12.14191 Y35.73818
G01 X-12.13945 Y35.74158
G01 X-12.13201 Y35.75152
G01 X-12.12129 Y35.76409
G01 X-12.10904 Y35.77519
G01 X-12.03980 Y35.83041
G01 X-12.02375 Y35.84136
G01 X-12.00625 Y35.84979
G01 X-11.98768 Y35.85550
G01 X-11.90135 Y35.87521
G01 X-11.88697 Y35.87765
G01 X-11.87242 Y35.87849
G01 X-5.25668 Y35.87849
G01 X-5.23489 Y35.87664
G01 X-5.16915 Y35.86546
G01 X-5.14457 Y35.85875
G01 X-5.12176 Y35.84738
G01 X-5.04678 Y35.80026
G01 X-5.03489 Y35.79183
G01 X-5.02402 Y35.78212
G01 X-1.79172 Y32.54985
G01 X-1.77759 Y32.53311
G01 X-1.73904 Y32.47873
G01 X-1.72641 Y32.45660
G01 X-1.71836 Y32.43247
G01 X-1.69865 Y32.34614
G01 X-1.69621 Y32.33176
G01 X-1.69537 Y32.31721
G01 X-1.69537 Y-22.65500
G01 X-1.69545 Y-22.65883
G01 X-1.69581 Y-22.67085
G01 X-1.69598 Y-22.67486
G01 X-1.69852 Y-22.71687
G01 X-1.69093 Y-22.75827
G01 X-1.69022 Y-22.76241
G01 X-1.68844 Y-22.77422
G01 X-1.68796 Y-22.77788
G01 X-1.68239 Y-22.82363
G01 X-1.67518 Y-22.84951
G01 X-1.65626 Y-22.89155
G01 X-1.65466 Y-22.89515
G01 X-1.65006 Y-22.90625
G01 X-1.64864 Y-22.90989
G01 X-1.63233 Y-22.95291
G01 X-1.61905 Y-22.97643
G01 X-1.59073 Y-23.01260
G01 X-1.58836 Y-23.01573
G01 X-1.58128 Y-23.02535
G01 X-1.57897 Y-23.02861
G01 X-1.55504 Y-23.06328
G01 X-1.52352 Y-23.09119
G01 X-1.52060 Y-23.09386
G01 X-1.51188 Y-23.10206
G01 X-1.50906 Y-23.10478
G01 X0.83383 Y-25.44773
G01 X1.52585 Y-26.13978
G01 X1.52855 Y-26.14254
G01 X1.53680 Y-26.15131
G01 X1.53947 Y-26.15423
G01 X1.56738 Y-26.18572
G01 X1.60203 Y-26.20963
G01 X1.60528 Y-26.21199
G01 X1.61501 Y-26.21912
G01 X1.61798 Y-26.22139
G01 X1.65428 Y-26.24983
G01 X1.67780 Y-26.26307
G01 X1.72070 Y-26.27932
G01 X1.72441 Y-26.28080
G01 X1.73551 Y-26.28539
G01 X1.73914 Y-26.28697
G01 X1.78107 Y-26.30584
G01 X1.80713 Y-26.31310
G01 X1.85268 Y-26.31864
G01 X1.85659 Y-26.31918
G01 X1.86845 Y-26.32098
G01 X1.87234 Y-26.32161
G01 X1.91376 Y-26.32921
G01 X1.95575 Y-26.32667
G01 X1.95979 Y-26.32649
G01 X1.97180 Y-26.32613
G01 X1.97566 Y-26.32606
G01 X3.79501 Y-26.32606
G01 X3.79900 Y-26.32613
G01 X3.81140 Y-26.32652
G01 X3.82796 Y-26.32809
G01 X3.84419 Y-26.33175
G01 X3.92913 Y-26.35684
G01 X3.94729 Y-26.36370
G01 X3.96420 Y-26.37320
G01 X3.97954 Y-26.38509
G01 X4.04523 Y-26.44452
G01 X4.05552 Y-26.45494
G01 X4.06458 Y-26.46647
G01 X4.06776 Y-26.47099
G01 X4.20489 Y-26.60810
G01 X4.36390 Y-26.71948
G01 X4.38564 Y-26.72966
G01 X4.39974 Y-26.73736
G01 X4.41277 Y-26.74673
G01 X4.48132 Y-26.80279
G01 X4.49542 Y-26.81620
G01 X4.50736 Y-26.83154
G01 X4.51686 Y-26.84851
G01 X4.55427 Y-26.92878
G01 X4.56115 Y-26.94694
G01 X4.56524 Y-26.96594
G01 X4.56644 Y-26.98532
G01 X4.56535 Y-27.07389
G01 X4.56367 Y-27.09324
G01 X4.55910 Y-27.11214
G01 X4.55178 Y-27.13015
G01 X4.51236 Y-27.20945
G01 X4.50243 Y-27.22613
G01 X4.49014 Y-27.24117
G01 X4.47573 Y-27.25420
G01 X4.40581 Y-27.30856
G01 X4.39379 Y-27.31686
G01 X4.38094 Y-27.32375
G01 X4.36380 Y-27.33175
G01 X4.20489 Y-27.44302
G01 X4.06776 Y-27.58016
G01 X4.06458 Y-27.58468
G01 X4.06204 Y-27.58818
G01 X4.05460 Y-27.59812
G01 X4.04388 Y-27.61069
G01 X4.03164 Y-27.62179
G01 X3.96240 Y-27.67701
G01 X3.94635 Y-27.68796
G01 X3.92885 Y-27.69639
G01 X3.91028 Y-27.70210
G01 X3.82394 Y-27.72181
G01 X3.80957 Y-27.72425
G01 X3.79501 Y-27.72509
G01 X1.33048 Y-27.72509
G01 X1.30868 Y-27.72324
G01 X1.24295 Y-27.71206
G01 X1.21836 Y-27.70535
G01 X1.19555 Y-27.69398
G01 X1.12057 Y-27.64686
G01 X1.10868 Y-27.63843
G01 X1.09781 Y-27.62872
G01 X-2.66781 Y-23.86305
G01 X-2.68191 Y-23.84633
G01 X-2.72049 Y-23.79195
G01 X-2.73312 Y-23.76983
G01 X-2.74119 Y-23.74567
G01 X-2.76090 Y-23.65934
G01 X-2.76334 Y-23.64496
G01 X-2.76418 Y-23.63041
G01 X-2.76418 Y19.04820
G01 X-2.76410 Y19.05203
G01 X-2.76375 Y19.06405
G01 X-2.76357 Y19.06806
G01 X-2.76103 Y19.11007
G01 X-2.76863 Y19.15150
G01 X-2.76926 Y19.15538
G01 X-2.77106 Y19.16725
G01 X-2.77160 Y19.17111
G01 X-2.77716 Y19.21685
G01 X-2.78440 Y19.24279
G01 X-2.80327 Y19.28472
G01 X-2.80485 Y19.28835
G01 X-2.80944 Y19.29945
G01 X-2.81089 Y19.30309
G01 X-2.82725 Y19.34619
G01 X-2.84043 Y19.36958
G01 X-2.86883 Y19.40580
G01 X-2.87127 Y19.40903
G01 X-2.87838 Y19.41871
G01 X-2.88061 Y19.42183
G01 X-2.90452 Y19.45648
G01 X-2.93601 Y19.48437
G01 X-2.93896 Y19.48706
G01 X-2.94770 Y19.49529
G01 X-2.95049 Y19.49798
G01 X-7.63646 Y24.18395
G01 X-7.63915 Y24.18674
G01 X-7.64738 Y24.19548
G01 X-7.65007 Y24.19843
G01 X-7.67799 Y24.22995
G01 X-7.71263 Y24.25385
G01 X-7.71576 Y24.25609
G01 X-7.72544 Y24.26320
G01 X-7.72861 Y24.26561
G01 X-7.76493 Y24.29403
G01 X-7.78843 Y24.30729
G01 X-7.83135 Y24.32357
G01 X-7.83488 Y24.32497
G01 X-7.84596 Y24.32954
G01 X-7.84972 Y24.33117
G01 X-7.89165 Y24.35004
G01 X-7.91774 Y24.35730
G01 X-7.96328 Y24.36284
G01 X-7.96719 Y24.36338
G01 X-7.97905 Y24.36518
G01 X-7.98294 Y24.36581
G01 X-8.02439 Y24.37341
G01 X-8.06643 Y24.37089
G01 X-8.07011 Y24.37072
G01 X-8.08213 Y24.37033
G01 X-8.08627 Y24.37026
G01 X-11.87242 Y24.37026
G01 X-11.87641 Y24.37033
G01 X-11.88880 Y24.37072
G01 X-11.90536 Y24.37229
G01 X-11.92159 Y24.37597
G01 X-12.00653 Y24.40104
G01 X-12.02469 Y24.40790
G01 X-12.04161 Y24.41740
G01 X-12.05695 Y24.42931
G01 X-12.12263 Y24.48872
G01 X-12.13289 Y24.49911
G01 X-12.14191 Y24.51057
G01 X-12.15045 Y24.52276
G01 X-12.28908 Y24.66142
G01 X-12.44968 Y24.77386
G01 X-12.62738 Y24.85672
G01 X-12.81674 Y24.90747
G01 X-13.01209 Y24.92456
G01 X-13.20739 Y24.90747
G01 X-13.39677 Y24.85672
G01 X-13.57447 Y24.77386
G01 X-13.73508 Y24.66142
G01 X-13.87371 Y24.52276
G01 X-13.98615 Y24.36218
G01 X-14.06903 Y24.18446
G01 X-14.11976 Y23.99508
G01 X-14.13685 Y23.79977
G01 X-14.11976 Y23.60447
G01 X-14.06903 Y23.41509
G01 X-13.98615 Y23.23737
G01 X-13.87371 Y23.07679
G01 X-13.73508 Y22.93813
G01 X-13.56977 Y22.82241
G01 X-13.56716 Y22.82088
G01 X-13.54859 Y22.80788
G01 X-13.53309 Y22.79236
G01 X-13.49164 Y22.75845
G01 X-13.47757 Y22.74507
G01 X-13.46563 Y22.72972
G01 X-13.45613 Y22.71278
G01 X-13.41869 Y22.63252
G01 X-13.41181 Y22.61433
G01 X-13.40772 Y22.59533
G01 X-13.40653 Y22.57593
G01 X-13.40764 Y22.48736
G01 X-13.40935 Y22.46800
G01 X-13.41389 Y22.44913
G01 X-13.42121 Y22.43112
G01 X-13.46063 Y22.35182
G01 X-13.47056 Y22.33513
G01 X-13.48285 Y22.32010
G01 X-13.49726 Y22.30707
G01 X-13.56716 Y22.25271
G01 X-13.57917 Y22.24441
G01 X-13.59207 Y22.23750
G01 X-13.59990 Y22.23384
G01 X-13.76048 Y22.12142
G01 X-13.89911 Y21.98276
G01 X-14.01155 Y21.82218
G01 X-14.09443 Y21.64446
G01 X-14.14516 Y21.45508
G01 X-14.16225 Y21.25977
G01 X-14.14516 Y21.06447
G01 X-14.09443 Y20.87509
G01 X-14.01155 Y20.69737
G01 X-13.89911 Y20.53679
G01 X-13.76048 Y20.39813
G01 X-13.59987 Y20.28568
G01 X-13.42217 Y20.20283
G01 X-13.23274 Y20.15208
G01 X-13.03746 Y20.13499
G01 X-12.84214 Y20.15208
G01 X-12.65278 Y20.20283
G01 X-12.47508 Y20.28568
G01 X-12.31448 Y20.39813
G01 X-12.17585 Y20.53679
G01 X-12.16731 Y20.54898
G01 X-12.16485 Y20.55238
G01 X-12.15741 Y20.56232
G01 X-12.14669 Y20.57489
G01 X-12.13444 Y20.58599
G01 X-12.06520 Y20.64121
G01 X-12.04915 Y20.65216
G01 X-12.03165 Y20.66059
G01 X-12.01308 Y20.66630
G01 X-11.92675 Y20.68601
G01 X-11.91237 Y20.68845
G01 X-11.89782 Y20.68929
G01 X-8.68568 Y20.68929
G01 X-8.66389 Y20.68744
G01 X-8.59815 Y20.67626
G01 X-8.57357 Y20.66955
G01 X-8.55076 Y20.65818
G01 X-8.47578 Y20.61106
G01 X-8.46389 Y20.60263
G01 X-8.45302 Y20.59292
G01 X-6.23672 Y18.37665
G01 X-6.22259 Y18.35991
G01 X-6.18404 Y18.30553
G01 X-6.17141 Y18.28340
G01 X-6.16336 Y18.25927
G01 X-6.14365 Y18.17294
G01 X-6.14121 Y18.15856
G01 X-6.14037 Y18.14401
G01 X-6.14037 Y-25.57600
G01 X-6.14045 Y-25.57983
G01 X-6.14081 Y-25.59182
G01 X-6.14098 Y-25.59586
G01 X-6.14352 Y-25.63790
G01 X-6.13593 Y-25.67930
G01 X-6.13529 Y-25.68318
G01 X-6.13349 Y-25.69500
G01 X-6.13296 Y-25.69891
G01 X-6.12739 Y-25.74463
G01 X-6.12018 Y-25.77054
G01 X-6.10126 Y-25.81257
G01 X-6.09978 Y-25.81598
G01 X-6.09519 Y-25.82702
G01 X-6.09366 Y-25.83089
G01 X-6.07733 Y-25.87394
G01 X-6.06410 Y-25.89743
G01 X-6.03573 Y-25.93358
G01 X-6.03336 Y-25.93673
G01 X-6.02628 Y-25.94633
G01 X-6.02397 Y-25.94961
G01 X-6.00004 Y-25.98428
G01 X-5.96852 Y-26.01219
G01 X-5.96560 Y-26.01486
G01 X-5.95688 Y-26.02304
G01 X-5.95406 Y-26.02578
G01 X-0.76007 Y-31.21977
G01 X-0.75735 Y-31.22259
G01 X-0.74915 Y-31.23131
G01 X-0.74651 Y-31.23420
G01 X-0.71857 Y-31.26572
G01 X-0.68390 Y-31.28965
G01 X-0.68067 Y-31.29196
G01 X-0.67104 Y-31.29905
G01 X-0.66794 Y-31.30139
G01 X-0.63155 Y-31.32991
G01 X-0.60825 Y-31.34304
G01 X-0.56520 Y-31.35937
G01 X-0.56167 Y-31.36077
G01 X-0.55060 Y-31.36534
G01 X-0.54684 Y-31.36697
G01 X-0.50490 Y-31.38584
G01 X-0.47882 Y-31.39310
G01 X-0.43327 Y-31.39864
G01 X-0.42936 Y-31.39918
G01 X-0.41750 Y-31.40098
G01 X-0.41361 Y-31.40161
G01 X-0.37219 Y-31.40921
G01 X-0.33020 Y-31.40667
G01 X-0.32616 Y-31.40649
G01 X-0.31415 Y-31.40613
G01 X-0.31031 Y-31.40606
G01 X3.79501 Y-31.40606
G01 X3.79900 Y-31.40613
G01 X3.81140 Y-31.40652
G01 X3.82796 Y-31.40809
G01 X3.84419 Y-31.41177
G01 X3.92913 Y-31.43684
G01 X3.94729 Y-31.44370
G01 X3.96420 Y-31.45320
G01 X3.97954 Y-31.46511
G01 X4.04523 Y-31.52452
G01 X4.05552 Y-31.53494
G01 X4.06458 Y-31.54647
G01 X4.06776 Y-31.55099
G01 X4.20489 Y-31.68813
G01 X4.36390 Y-31.79948
G01 X4.38564 Y-31.80966
G01 X4.39974 Y-31.81736
G01 X4.41277 Y-31.82673
G01 X4.48132 Y-31.88279
G01 X4.49542 Y-31.89620
G01 X4.50736 Y-31.91154
G01 X4.51686 Y-31.92851
G01 X4.55427 Y-32.00878
G01 X4.56115 Y-32.02694
G01 X4.56524 Y-32.04594
G01 X4.56644 Y-32.06532
G01 X4.56535 Y-32.15389
G01 X4.56367 Y-32.17324
G01 X4.55910 Y-32.19214
G01 X4.55178 Y-32.21015
G01 X4.51236 Y-32.28945
G01 X4.50243 Y-32.30613
G01 X4.49014 Y-32.32117
G01 X4.47573 Y-32.33420
G01 X4.40581 Y-32.38856
G01 X4.39379 Y-32.39686
G01 X4.38094 Y-32.40375
G01 X4.36380 Y-32.41175
G01 X4.20489 Y-32.52302
G01 X4.06776 Y-32.66016
G01 X4.06458 Y-32.66468
G01 X4.06204 Y-32.66818
G01 X4.05460 Y-32.67812
G01 X4.04388 Y-32.69069
G01 X4.03164 Y-32.70179
G01 X3.96240 Y-32.75701
G01 X3.94635 Y-32.76796
G01 X3.92885 Y-32.77639
G01 X3.91028 Y-32.78210
G01 X3.82394 Y-32.80181
G01 X3.80957 Y-32.80425
G01 X3.79501 Y-32.80509
G01 X-1.64125 Y-32.80509
G01 X-1.66307 Y-32.80324
G01 X-1.72880 Y-32.79206
G01 X-1.75339 Y-32.78535
G01 X-1.77620 Y-32.77398
G01 X-1.85118 Y-32.72686
G01 X-1.86306 Y-32.71843
G01 X-1.87394 Y-32.70872
G01 X-6.98581 Y-27.59685
G01 X-6.99991 Y-27.58013
G01 X-7.03849 Y-27.52575
G01 X-7.05112 Y-27.50363
G01 X-7.05919 Y-27.47947
G01 X-7.07890 Y-27.39314
G01 X-7.08134 Y-27.37876
G01 X-7.08218 Y-27.36421
G01 X-7.08218 Y-2.26238
G01 X-7.08210 Y-2.25852
G01 X-7.08175 Y-2.24650
G01 X-7.08157 Y-2.24249
G01 X-7.07903 Y-2.20048
G01 X-7.08663 Y-2.15905
G01 X-7.08726 Y-2.15516
G01 X-7.08906 Y-2.14330
G01 X-7.08960 Y-2.13944
G01 X-7.09516 Y-2.09370
G01 X-7.10240 Y-2.06776
G01 X-7.12127 Y-2.02583
G01 X-7.12285 Y-2.02220
G01 X-7.12744 Y-2.01110
G01 X-7.12889 Y-2.00746
G01 X-7.14525 Y-1.96433
G01 X-7.15841 Y-1.94102
G01 X-7.18683 Y-1.90470
G01 X-7.18901 Y-1.90185
G01 X-7.19615 Y-1.89220
G01 X-7.19864 Y-1.88872
G01 X-7.22252 Y-1.85407
G01 X-7.25401 Y-1.82618
G01 X-7.25696 Y-1.82349
G01 X-7.26570 Y-1.81526
G01 X-7.26849 Y-1.81257
G01 X-8.19526 Y-0.88580
G01 X-8.19795 Y-0.88301
G01 X-8.20621 Y-0.87424
G01 X-8.20887 Y-0.87132
G01 X-8.23679 Y-0.83980
G01 X-8.27146 Y-0.81585
G01 X-8.27456 Y-0.81366
G01 X-8.28424 Y-0.80653
G01 X-8.28741 Y-0.80414
G01 X-8.32373 Y-0.77569
G01 X-8.34718 Y-0.76248
G01 X-8.39015 Y-0.74618
G01 X-8.39391 Y-0.74468
G01 X-8.40499 Y-0.74008
G01 X-8.40847 Y-0.73858
G01 X-8.45053 Y-0.71966
G01 X-8.47649 Y-0.71244
G01 X-8.52208 Y-0.70691
G01 X-8.52594 Y-0.70640
G01 X-8.53783 Y-0.70460
G01 X-8.54179 Y-0.70394
G01 X-8.58317 Y-0.69634
G01 X-8.62477 Y-0.69886
G01 X-8.62866 Y-0.69903
G01 X-8.64108 Y-0.69941
G01 X-8.64507 Y-0.69949
G01 X-8.97999 Y-0.69949
G01 X-8.98398 Y-0.69941
G01 X-8.99638 Y-0.69903
G01 X-9.01294 Y-0.69746
G01 X-9.02917 Y-0.69378
G01 X-9.11413 Y-0.66871
G01 X-9.13229 Y-0.66185
G01 X-9.14923 Y-0.65235
G01 X-9.16455 Y-0.64044
G01 X-9.23021 Y-0.58102
G01 X-9.24047 Y-0.57064
G01 X-9.24949 Y-0.55918
G01 X-9.27565 Y-0.52182
G01 X-9.41911 Y-0.37836
G01 X-9.57461 Y-0.26947
G01 X-9.58106 Y-0.26464
G01 X-9.60044 Y-0.24920
G01 X-9.61415 Y-0.23658
G01 X-9.62591 Y-0.22210
G01 X-9.67671 Y-0.14956
G01 X-9.68665 Y-0.13287
G01 X-9.69396 Y-0.11486
G01 X-9.69851 Y-0.09599
G01 X-9.71281 Y-0.00859
G01 X-9.71451 Y0.01077
G01 X-9.71329 Y0.03018
G01 X-9.70920 Y0.04917
G01 X-9.68413 Y0.13411
G01 X-9.67727 Y0.15227
G01 X-9.66777 Y0.16921
G01 X-9.65586 Y0.18453
G01 X-9.59645 Y0.25019
G01 X-9.58606 Y0.26045
G01 X-9.57461 Y0.26947
G01 X-9.41911 Y0.37836
G01 X-9.27565 Y0.52182
G01 X-9.15929 Y0.68801
G01 X-9.07354 Y0.87191
G01 X-9.02101 Y1.06787
G01 X-9.00333 Y1.26997
G01 X-9.02101 Y1.47208
G01 X-9.07354 Y1.66804
G01 X-9.15929 Y1.85194
G01 X-9.27565 Y2.01813
G01 X-9.41911 Y2.16159
G01 X-9.57461 Y2.27048
G01 X-9.58106 Y2.27531
G01 X-9.60044 Y2.29075
G01 X-9.61415 Y2.30337
G01 X-9.62591 Y2.31785
G01 X-9.67671 Y2.39039
G01 X-9.68665 Y2.40708
G01 X-9.69396 Y2.42509
G01 X-9.69851 Y2.44396
G01 X-9.71281 Y2.53139
G01 X-9.71451 Y2.55077
G01 X-9.71329 Y2.57018
G01 X-9.70920 Y2.58917
G01 X-9.68413 Y2.67411
G01 X-9.67727 Y2.69227
G01 X-9.66777 Y2.70921
G01 X-9.65586 Y2.72453
G01 X-9.59645 Y2.79019
G01 X-9.58606 Y2.80045
G01 X-9.57461 Y2.80947
G01 X-9.41911 Y2.91836
G01 X-9.27565 Y3.06182
G01 X-9.15929 Y3.22801
G01 X-9.07354 Y3.41191
G01 X-9.02101 Y3.60787
G01 X-9.00333 Y3.80997
G01 X-9.02101 Y4.01208
G01 X-9.07354 Y4.20804
G01 X-9.15929 Y4.39194
G01 X-9.27565 Y4.55813
G01 X-9.41911 Y4.70159
G01 X-9.57461 Y4.81048
G01 X-9.58106 Y4.81531
G01 X-9.60044 Y4.83075
G01 X-9.61415 Y4.84337
G01 X-9.62591 Y4.85785
G01 X-9.67671 Y4.93039
G01 X-9.68665 Y4.94708
G01 X-9.69396 Y4.96509
G01 X-9.69851 Y4.98396
G01 X-9.71281 Y5.07139
G01 X-9.71451 Y5.09077
G01 X-9.71329 Y5.11018
G01 X-9.70920 Y5.12917
G01 X-9.68413 Y5.21411
G01 X-9.67727 Y5.23227
G01 X-9.66777 Y5.24921
G01 X-9.65586 Y5.26453
G01 X-9.59645 Y5.33019
G01 X-9.58606 Y5.34045
G01 X-9.57461 Y5.34947
G01 X-9.41911 Y5.45836
G01 X-9.27565 Y5.60182
G01 X-9.15929 Y5.76801
G01 X-9.07354 Y5.95191
G01 X-9.02101 Y6.14787
G01 X-9.00333 Y6.34997
G01 X-9.02101 Y6.55208
G01 X-9.07354 Y6.74804
G01 X-9.15929 Y6.93194
G01 X-9.27565 Y7.09813
G01 X-9.41911 Y7.24159
G01 X-9.58530 Y7.35797
G01 X-9.76920 Y7.44372
G01 X-9.96516 Y7.49623
G01 X-10.16726 Y7.51390
G01 X-10.36937 Y7.49623
G01 X-10.56536 Y7.44372
G01 X-10.74923 Y7.35797
G01 X-10.91542 Y7.24159
G01 X-11.05891 Y7.09813
G01 X-11.17526 Y6.93194
G01 X-11.26101 Y6.74804
G01 X-11.31352 Y6.55208
G01 X-11.33122 Y6.34997
G01 X-11.31352 Y6.14787
G01 X-11.26101 Y5.95191
G01 X-11.17526 Y5.76801
G01 X-11.05891 Y5.60182
G01 X-10.91545 Y5.45836
G01 X-10.75995 Y5.34947
G01 X-10.75350 Y5.34464
G01 X-10.73412 Y5.32920
G01 X-10.72040 Y5.31658
G01 X-10.70864 Y5.30210
G01 X-10.65784 Y5.22956
G01 X-10.64791 Y5.21287
G01 X-10.64059 Y5.19486
G01 X-10.63605 Y5.17599
G01 X-10.62175 Y5.08856
G01 X-10.62004 Y5.06921
G01 X-10.62124 Y5.04980
G01 X-10.62533 Y5.03080
G01 X-10.65037 Y4.94586
G01 X-10.65726 Y4.92768
G01 X-10.66676 Y4.91073
G01 X-10.67869 Y4.89539
G01 X-10.73813 Y4.82973
G01 X-10.74849 Y4.81950
G01 X-10.75992 Y4.81048
G01 X-10.91542 Y4.70159
G01 X-11.05891 Y4.55813
G01 X-11.17526 Y4.39194
G01 X-11.26101 Y4.20804
G01 X-11.31352 Y4.01208
G01 X-11.33122 Y3.80997
G01 X-11.31352 Y3.60787
G01 X-11.26101 Y3.41191
G01 X-11.17526 Y3.22801
G01 X-11.05891 Y3.06182
G01 X-10.91545 Y2.91836
G01 X-10.75995 Y2.80947
G01 X-10.75350 Y2.80464
G01 X-10.73412 Y2.78920
G01 X-10.72040 Y2.77658
G01 X-10.70864 Y2.76210
G01 X-10.65784 Y2.68956
G01 X-10.64791 Y2.67287
G01 X-10.64059 Y2.65486
G01 X-10.63605 Y2.63599
G01 X-10.62175 Y2.54856
G01 X-10.62004 Y2.52920
G01 X-10.62124 Y2.50980
G01 X-10.62533 Y2.49080
G01 X-10.65037 Y2.40586
G01 X-10.65726 Y2.38768
G01 X-10.66676 Y2.37073
G01 X-10.67869 Y2.35539
G01 X-10.73813 Y2.28973
G01 X-10.74849 Y2.27950
G01 X-10.75992 Y2.27048
G01 X-10.91542 Y2.16159
G01 X-11.05891 Y2.01813
G01 X-11.17526 Y1.85194
G01 X-11.26101 Y1.66804
G01 X-11.31352 Y1.47208
G01 X-11.33122 Y1.26997
G01 X-11.31352 Y1.06787
G01 X-11.26101 Y0.87191
G01 X-11.17526 Y0.68801
G01 X-11.05891 Y0.52182
G01 X-10.91545 Y0.37836
G01 X-10.75995 Y0.26947
G01 X-10.75350 Y0.26464
G01 X-10.73412 Y0.24920
G01 X-10.72040 Y0.23658
G01 X-10.70864 Y0.22210
G01 X-10.65784 Y0.14956
G01 X-10.64791 Y0.13287
G01 X-10.64059 Y0.11486
G01 X-10.63605 Y0.09599
G01 X-10.62175 Y0.00859
G01 X-10.62004 Y-0.01074
G01 X-10.62124 Y-0.03015
G01 X-10.62533 Y-0.04915
G01 X-10.65037 Y-0.13409
G01 X-10.65726 Y-0.15227
G01 X-10.66676 Y-0.16921
G01 X-10.67869 Y-0.18456
G01 X-10.73813 Y-0.25022
G01 X-10.74849 Y-0.26045
G01 X-10.75995 Y-0.26947
G01 X-10.91545 Y-0.37836
G01 X-11.05891 Y-0.52182
G01 X-11.17526 Y-0.68801
G01 X-11.26101 Y-0.87191
G01 X-11.31352 Y-1.06787
G01 X-11.33122 Y-1.26997
G01 X-11.31352 Y-1.47208
G01 X-11.26101 Y-1.66804
G01 X-11.17526 Y-1.85194
G01 X-11.05891 Y-2.01813
G01 X-10.91542 Y-2.16159
G01 X-10.75992 Y-2.27048
G01 X-10.75350 Y-2.27531
G01 X-10.73412 Y-2.29075
G01 X-10.72040 Y-2.30337
G01 X-10.70864 Y-2.31785
G01 X-10.65784 Y-2.39039
G01 X-10.64791 Y-2.40708
G01 X-10.64059 Y-2.42509
G01 X-10.63605 Y-2.44396
G01 X-10.62175 Y-2.53139
G01 X-10.62004 Y-2.55074
G01 X-10.62124 Y-2.57015
G01 X-10.62533 Y-2.58915
G01 X-10.65037 Y-2.67409
G01 X-10.65726 Y-2.69227
G01 X-10.66676 Y-2.70921
G01 X-10.67869 Y-2.72456
G01 X-10.73813 Y-2.79022
G01 X-10.74849 Y-2.80045
G01 X-10.75995 Y-2.80947
G01 X-10.91545 Y-2.91836
G01 X-11.05891 Y-3.06182
G01 X-11.17526 Y-3.22801
G01 X-11.26101 Y-3.41191
G01 X-11.31352 Y-3.60787
G01 X-11.33122 Y-3.80997
G01 X-11.31352 Y-4.01208
G01 X-11.26101 Y-4.20804
G01 X-11.17526 Y-4.39194
G01 X-11.05891 Y-4.55813
G01 X-10.91542 Y-4.70159
G01 X-10.75992 Y-4.81048
G01 X-10.75350 Y-4.81531
G01 X-10.73412 Y-4.83075
G01 X-10.72040 Y-4.84337
G01 X-10.70864 Y-4.85785
G01 X-10.65784 Y-4.93039
G01 X-10.64791 Y-4.94708
G01 X-10.64059 Y-4.96509
G01 X-10.63605 Y-4.98396
G01 X-10.62175 Y-5.07139
G01 X-10.62004 Y-5.09074
G01 X-10.62124 Y-5.11015
G01 X-10.62533 Y-5.12915
G01 X-10.65037 Y-5.21409
G01 X-10.65726 Y-5.23227
G01 X-10.66676 Y-5.24921
G01 X-10.67869 Y-5.26456
G01 X-10.73813 Y-5.33022
G01 X-10.74849 Y-5.34045
G01 X-10.75995 Y-5.34947
G01 X-10.91545 Y-5.45836
G01 X-11.05891 Y-5.60182
G01 X-11.17526 Y-5.76801
G01 X-11.26101 Y-5.95191
G01 X-11.31352 Y-6.14787
G01 X-11.33122 Y-6.34997
G01 X-11.31352 Y-6.55208
G01 X-11.26101 Y-6.74804
G01 X-11.17526 Y-6.93194
G01 X-11.05891 Y-7.09813
G01 X-10.91542 Y-7.24159
G01 X-10.74923 Y-7.35797
G01 X-10.56536 Y-7.44372
G01 X-10.36937 Y-7.49623
G01 X-10.16726 Y-7.51390
G01 X-9.96516 Y-7.49623
G01 X-9.76920 Y-7.44372
G01 X-9.58530 Y-7.35797
G01 X-9.41911 Y-7.24159
G01 X-9.27565 Y-7.09813
G01 X-9.15929 Y-6.93194
G01 X-9.07354 Y-6.74804
G01 X-9.02101 Y-6.55208
G01 X-9.00333 Y-6.34997
G01 X-9.02101 Y-6.14787
G01 X-9.07354 Y-5.95191
G01 X-9.15929 Y-5.76801
G01 X-9.27565 Y-5.60182
G01 X-9.41911 Y-5.45836
G01 X-9.57461 Y-5.34947
G01 X-9.58106 Y-5.34464
G01 X-9.60044 Y-5.32920
G01 X-9.61415 Y-5.31658
G01 X-9.62591 Y-5.30210
G01 X-9.67671 Y-5.22956
G01 X-9.68665 Y-5.21287
G01 X-9.69396 Y-5.19486
G01 X-9.69851 Y-5.17599
G01 X-9.71281 Y-5.08856
G01 X-9.71451 Y-5.06918
G01 X-9.71329 Y-5.04977
G01 X-9.70920 Y-5.03077
G01 X-9.68413 Y-4.94584
G01 X-9.67727 Y-4.92768
G01 X-9.66777 Y-4.91073
G01 X-9.65586 Y-4.89542
G01 X-9.59645 Y-4.82976
G01 X-9.58606 Y-4.81950
G01 X-9.57461 Y-4.81048
G01 X-9.41911 Y-4.70159
G01 X-9.27565 Y-4.55813
G01 X-9.15929 Y-4.39194
G01 X-9.07354 Y-4.20804
G01 X-9.02101 Y-4.01208
G01 X-9.00333 Y-3.80997
G01 X-9.02101 Y-3.60787
G01 X-9.07354 Y-3.41191
G01 X-9.15929 Y-3.22801
G01 X-9.27565 Y-3.06182
G01 X-9.41911 Y-2.91836
G01 X-9.57461 Y-2.80947
G01 X-9.58106 Y-2.80464
G01 X-9.60044 Y-2.78920
G01 X-9.61415 Y-2.77658
G01 X-9.62591 Y-2.76210
G01 X-9.67671 Y-2.68956
G01 X-9.68665 Y-2.67287
G01 X-9.69396 Y-2.65486
G01 X-9.69851 Y-2.63599
G01 X-9.71281 Y-2.54856
G01 X-9.71451 Y-2.52918
G01 X-9.71329 Y-2.50977
G01 X-9.70920 Y-2.49077
G01 X-9.68413 Y-2.40584
G01 X-9.67727 Y-2.38768
G01 X-9.66777 Y-2.37073
G01 X-9.65586 Y-2.35542
G01 X-9.59645 Y-2.28976
G01 X-9.58606 Y-2.27950
G01 X-9.57461 Y-2.27048
G01 X-9.41911 Y-2.16159
G01 X-9.27565 Y-2.01813
G01 X-9.25380 Y-1.98694
G01 X-9.24585 Y-1.97670
G01 X-9.23691 Y-1.96731
G01 X-9.17976 Y-1.91295
G01 X-9.16562 Y-1.90127
G01 X-9.14997 Y-1.89172
G01 X-9.13310 Y-1.88445
G01 X-9.04951 Y-1.85519
G01 X-9.03077 Y-1.85016
G01 X-9.01144 Y-1.84798
G01 X-8.99203 Y-1.84871
G01 X-8.90402 Y-1.85862
G01 X-8.88492 Y-1.86223
G01 X-8.86658 Y-1.86863
G01 X-8.84939 Y-1.87772
G01 X-8.77440 Y-1.92484
G01 X-8.76252 Y-1.93327
G01 X-8.75165 Y-1.94297
G01 X-8.31952 Y-2.37510
G01 X-8.30539 Y-2.39184
G01 X-8.26684 Y-2.44622
G01 X-8.25421 Y-2.46835
G01 X-8.24616 Y-2.49248
G01 X-8.22645 Y-2.57881
G01 X-8.22401 Y-2.59319
G01 X-8.22317 Y-2.60777
G01 X-8.22317 Y-27.70962
G01 X-8.22325 Y-27.71346
G01 X-8.22361 Y-27.72547
G01 X-8.22378 Y-27.72943
G01 X-8.22630 Y-27.77150
G01 X-8.21873 Y-27.81295
G01 X-8.21809 Y-27.81678
G01 X-8.21629 Y-27.82865
G01 X-8.21576 Y-27.83251
G01 X-8.21019 Y-27.87823
G01 X-8.20298 Y-27.90411
G01 X-8.18406 Y-27.94615
G01 X-8.18256 Y-27.94965
G01 X-8.17796 Y-27.96073
G01 X-8.17646 Y-27.96449
G01 X-8.16013 Y-28.00754
G01 X-8.14690 Y-28.03103
G01 X-8.11853 Y-28.06720
G01 X-8.11619 Y-28.07028
G01 X-8.10908 Y-28.07993
G01 X-8.10671 Y-28.08323
G01 X-8.08284 Y-28.11788
G01 X-8.05134 Y-28.14577
G01 X-8.04840 Y-28.14846
G01 X-8.03966 Y-28.15669
G01 X-8.03686 Y-28.15938
G01 X-2.43647 Y-33.75977
G01 X-2.43375 Y-33.76259
G01 X-2.42555 Y-33.77131
G01 X-2.42291 Y-33.77420
G01 X-2.39497 Y-33.80572
G01 X-2.36029 Y-33.82965
G01 X-2.35707 Y-33.83196
G01 X-2.34744 Y-33.83905
G01 X-2.34434 Y-33.84139
G01 X-2.30795 Y-33.86991
G01 X-2.28465 Y-33.88304
G01 X-2.24160 Y-33.89937
G01 X-2.23807 Y-33.90077
G01 X-2.22700 Y-33.90534
G01 X-2.22324 Y-33.90697
G01 X-2.18130 Y-33.92584
G01 X-2.15522 Y-33.93310
G01 X-2.10967 Y-33.93864
G01 X-2.10576 Y-33.93918
G01 X-2.09390 Y-33.94098
G01 X-2.09001 Y-33.94161
G01 X-2.04859 Y-33.94921
G01 X-2.00660 Y-33.94667
G01 X-2.00256 Y-33.94649
G01 X-1.99055 Y-33.94613
G01 X-1.98671 Y-33.94606
G01 X3.79501 Y-33.94606
G01 X3.79900 Y-33.94613
G01 X3.81140 Y-33.94652
G01 X3.82796 Y-33.94809
G01 X3.84419 Y-33.95177
G01 X3.92913 Y-33.97684
G01 X3.94729 Y-33.98370
G01 X3.96420 Y-33.99320
G01 X3.97954 Y-34.00511
G01 X4.04523 Y-34.06452
G01 X4.05552 Y-34.07494
G01 X4.06458 Y-34.08647
G01 X4.06776 Y-34.09099
G01 X4.20489 Y-34.22813
G01 X4.36390 Y-34.33948
G01 X4.38564 Y-34.34966
G01 X4.39974 Y-34.35736
G01 X4.41277 Y-34.36673
G01 X4.48132 Y-34.42279
G01 X4.49542 Y-34.43620
G01 X4.50736 Y-34.45154
G01 X4.51686 Y-34.46851
G01 X4.55427 Y-34.54878
G01 X4.56115 Y-34.56694
G01 X4.56524 Y-34.58594
G01 X4.56644 Y-34.60532
G01 X4.56535 Y-34.69389
G01 X4.56367 Y-34.71324
G01 X4.55910 Y-34.73214
G01 X4.55178 Y-34.75015
G01 X4.51236 Y-34.82945
G01 X4.50243 Y-34.84613
G01 X4.49014 Y-34.86117
G01 X4.47573 Y-34.87420
G01 X4.40581 Y-34.92856
G01 X4.39379 Y-34.93686
G01 X4.38094 Y-34.94375
G01 X4.36380 Y-34.95175
G01 X4.20489 Y-35.06302
G01 X4.06771 Y-35.20018
G01 X3.95646 Y-35.35909
G01 X3.87444 Y-35.53493
G01 X3.82425 Y-35.72231
G01 X3.80733 Y-35.91557
G01 X3.82425 Y-36.10884
G01 X3.87444 Y-36.29622
G01 X3.95646 Y-36.47206
G01 X4.06771 Y-36.63097
G01 X4.20489 Y-36.76813
G01 X4.36390 Y-36.87948
G01 X4.38564 Y-36.88966
G01 X4.39974 Y-36.89736
G01 X4.41277 Y-36.90673
G01 X4.48132 Y-36.96279
G01 X4.49542 Y-36.97620
G01 X4.50736 Y-36.99154
G01 X4.51686 Y-37.00851
G01 X4.55427 Y-37.08878
G01 X4.56115 Y-37.10694
G01 X4.56524 Y-37.12594
G01 X4.56644 Y-37.14532
G01 X4.56535 Y-37.23389
G01 X4.56367 Y-37.25324
G01 X4.55910 Y-37.27214
G01 X4.55178 Y-37.29015
G01 X4.51236 Y-37.36945
G01 X4.50243 Y-37.38613
G01 X4.49014 Y-37.40117
G01 X4.47573 Y-37.41420
G01 X4.40581 Y-37.46856
G01 X4.39379 Y-37.47686
G01 X4.38094 Y-37.48375
G01 X4.36380 Y-37.49175
G01 X4.20489 Y-37.60302
G01 X4.06771 Y-37.74018
G01 X3.95646 Y-37.89909
G01 X3.87444 Y-38.07493
G01 X3.82425 Y-38.26231
G01 X3.80733 Y-38.45557
G01 X3.82425 Y-38.64884
G01 X3.87444 Y-38.83622
G01 X3.95646 Y-39.01206
G01 X4.06771 Y-39.17097
G01 X4.20489 Y-39.30813
G01 X4.36390 Y-39.41948
G01 X4.38564 Y-39.42966
G01 X4.39974 Y-39.43736
G01 X4.41277 Y-39.44673
G01 X4.48132 Y-39.50279
G01 X4.49542 Y-39.51620
G01 X4.50736 Y-39.53154
G01 X4.51686 Y-39.54851
G01 X4.55427 Y-39.62878
G01 X4.56115 Y-39.64694
G01 X4.56524 Y-39.66594
G01 X4.56644 Y-39.68532
G01 X4.56535 Y-39.77389
G01 X4.56367 Y-39.79324
G01 X4.55910 Y-39.81214
G01 X4.55178 Y-39.83015
G01 X4.51236 Y-39.90945
G01 X4.50243 Y-39.92613
G01 X4.49014 Y-39.94117
G01 X4.47573 Y-39.95420
G01 X4.40581 Y-40.00856
G01 X4.39379 Y-40.01686
G01 X4.38094 Y-40.02375
G01 X4.36380 Y-40.03175
G01 X4.20489 Y-40.14302
G01 X4.06771 Y-40.28018
G01 X3.95646 Y-40.43909
G01 X3.87444 Y-40.61493
G01 X3.82425 Y-40.80231
G01 X3.80733 Y-40.99557
G01 X3.82425 Y-41.18884
G01 X3.87444 Y-41.37622
G01 X3.95646 Y-41.55206
G01 X4.06771 Y-41.71097
G01 X4.20489 Y-41.84813
G01 X4.36390 Y-41.95948
G01 X4.38564 Y-41.96966
G01 X4.39974 Y-41.97736
G01 X4.41277 Y-41.98673
G01 X4.48132 Y-42.04279
G01 X4.49542 Y-42.05620
G01 X4.50736 Y-42.07154
G01 X4.51686 Y-42.08851
G01 X4.55427 Y-42.16878
G01 X4.56115 Y-42.18694
G01 X4.56524 Y-42.20594
G01 X4.56644 Y-42.22532
G01 X4.56535 Y-42.31389
G01 X4.56367 Y-42.33324
G01 X4.55910 Y-42.35214
G01 X4.55178 Y-42.37015
G01 X4.51236 Y-42.44945
G01 X4.50243 Y-42.46613
G01 X4.49014 Y-42.48117
G01 X4.47573 Y-42.49420
G01 X4.40581 Y-42.54856
G01 X4.39379 Y-42.55686
G01 X4.38094 Y-42.56375
G01 X4.36380 Y-42.57175
G01 X4.20489 Y-42.68302
G01 X4.06771 Y-42.82018
G01 X3.95646 Y-42.97909
G01 X3.87444 Y-43.15493
G01 X3.82425 Y-43.34231
G01 X3.80733 Y-43.53557
G01 X3.82425 Y-43.72884
G01 X3.87444 Y-43.91622
G01 X3.95646 Y-44.09206
G01 X4.06771 Y-44.25097
G01 X4.20489 Y-44.38813
G01 X4.36380 Y-44.49940
G01 X4.49664 Y-44.56135
G01 X4.50207 Y-44.56405
G01 X4.51820 Y-44.57250
G01 X4.53311 Y-44.58165
G01 X4.54665 Y-44.59270
G01 X4.61132 Y-44.65320
G01 X4.62448 Y-44.66750
G01 X4.63537 Y-44.68360
G01 X4.64373 Y-44.70116
G01 X4.67573 Y-44.78376
G01 X4.68137 Y-44.80237
G01 X4.68419 Y-44.82160
G01 X4.68412 Y-44.84103
G01 X4.67711 Y-44.92930
G01 X4.67411 Y-44.94850
G01 X4.66829 Y-44.96704
G01 X4.65978 Y-44.98449
G01 X4.62994 Y-45.03570
G01 X4.72247 Y-45.12823
G01 X4.73141 Y-45.12600
G01 X4.74401 Y-45.12412
G01 X4.90753 Y-45.10801
G01 X4.93304 Y-45.10801
G01 X5.09656 Y-45.12412
G01 X5.11792 Y-45.12838
G01 X5.20863 Y-45.03768
G01 X5.20802 Y-45.03659
G01 X5.17058 Y-44.95632
G01 X5.16369 Y-44.93814
G01 X5.15960 Y-44.91914
G01 X5.15841 Y-44.89973
G01 X5.15953 Y-44.81119
G01 X5.16123 Y-44.79183
G01 X5.16578 Y-44.77296
G01 X5.17309 Y-44.75498
G01 X5.21251 Y-44.67565
G01 X5.22244 Y-44.65894
G01 X5.23476 Y-44.64388
G01 X5.24916 Y-44.63085
G01 X5.31909 Y-44.57652
G01 X5.33108 Y-44.56824
G01 X5.34391 Y-44.56135
G01 X5.47672 Y-44.49940
G01 X5.63565 Y-44.38813
G01 X5.77284 Y-44.25097
G01 X5.88411 Y-44.09206
G01 X5.96610 Y-43.91624
G01 X6.01629 Y-43.72882
G01 X6.03321 Y-43.53557
G01 X6.01629 Y-43.34233
G01 X5.96610 Y-43.15490
G01 X5.88411 Y-42.97909
G01 X5.77284 Y-42.82018
G01 X5.63565 Y-42.68302
G01 X5.47665 Y-42.57167
G01 X5.45490 Y-42.56148
G01 X5.44081 Y-42.55379
G01 X5.42775 Y-42.54439
G01 X5.35922 Y-42.48833
G01 X5.34515 Y-42.47495
G01 X5.33321 Y-42.45961
G01 X5.32371 Y-42.44266
G01 X5.28627 Y-42.36237
G01 X5.27939 Y-42.34419
G01 X5.27530 Y-42.32519
G01 X5.27411 Y-42.30578
G01 X5.27522 Y-42.21724
G01 X5.27690 Y-42.19788
G01 X5.28147 Y-42.17901
G01 X5.28879 Y-42.16103
G01 X5.32818 Y-42.08173
G01 X5.33811 Y-42.06502
G01 X5.35041 Y-42.04998
G01 X5.36481 Y-42.03695
G01 X5.43474 Y-41.98259
G01 X5.44675 Y-41.97429
G01 X5.45960 Y-41.96740
G01 X5.47675 Y-41.95940
G01 X5.63565 Y-41.84813
G01 X5.77284 Y-41.71097
G01 X5.88411 Y-41.55206
G01 X5.96610 Y-41.37624
G01 X6.01629 Y-41.18882
G01 X6.03321 Y-40.99557
G01 X6.01629 Y-40.80233
G01 X5.96610 Y-40.61490
G01 X5.88411 Y-40.43909
G01 X5.77284 Y-40.28018
G01 X5.63565 Y-40.14302
G01 X5.47665 Y-40.03167
G01 X5.45490 Y-40.02148
G01 X5.44081 Y-40.01379
G01 X5.42775 Y-40.00439
G01 X5.35922 Y-39.94833
G01 X5.34515 Y-39.93495
G01 X5.33321 Y-39.91961
G01 X5.32371 Y-39.90266
G01 X5.28627 Y-39.82237
G01 X5.27939 Y-39.80419
G01 X5.27530 Y-39.78519
G01 X5.27411 Y-39.76578
G01 X5.27522 Y-39.67724
G01 X5.27690 Y-39.65788
G01 X5.28147 Y-39.63901
G01 X5.28879 Y-39.62103
G01 X5.32818 Y-39.54173
G01 X5.33811 Y-39.52502
G01 X5.35041 Y-39.50998
G01 X5.36481 Y-39.49695
G01 X5.43474 Y-39.44259
G01 X5.44675 Y-39.43429
G01 X5.45960 Y-39.42740
G01 X5.47675 Y-39.41940
G01 X5.63568 Y-39.30810
G01 X5.65724 Y-39.28656
G01 X5.66804 Y-39.27691
G01 X5.70286 Y-39.24912
G01 X5.72105 Y-39.23698
G01 X5.74101 Y-39.22804
G01 X5.82460 Y-39.19878
G01 X5.84337 Y-39.19375
G01 X5.86270 Y-39.19156
G01 X5.88211 Y-39.19230
G01 X5.97012 Y-39.20223
G01 X5.98922 Y-39.20584
G01 X6.00753 Y-39.21224
G01 X6.02470 Y-39.22133
G01 X6.09971 Y-39.26845
G01 X6.11162 Y-39.27688
G01 X6.12249 Y-39.28661
G01 X6.17847 Y-39.34262
G01 X6.33908 Y-39.45506
G01 X6.51678 Y-39.53792
G01 X6.70616 Y-39.58867
G01 X6.90148 Y-39.60576
G01 X7.09679 Y-39.58867
G01 X7.28617 Y-39.53792
G01 X7.46387 Y-39.45506
G01 X7.62447 Y-39.34262
G01 X7.76310 Y-39.20396
G01 X7.87555 Y-39.04338
G01 X7.95843 Y-38.86566
G01 X8.00918 Y-38.67628
G01 X8.02625 Y-38.48097
G01 X8.00918 Y-38.28567
G01 X7.95843 Y-38.09629
G01 X7.87555 Y-37.91857
G01 X7.79828 Y-37.80820
G01 X7.76310 Y-37.75799
G01 X7.62447 Y-37.61933
G01 X7.46387 Y-37.50688
G01 X7.28617 Y-37.42403
G01 X7.09679 Y-37.37328
G01 X6.90148 Y-37.35619
G01 X6.70616 Y-37.37328
G01 X6.51678 Y-37.42403
G01 X6.33908 Y-37.50688
G01 X6.17850 Y-37.61933
G01 X6.14792 Y-37.64991
G01 X6.13700 Y-37.65967
G01 X6.10215 Y-37.68745
G01 X6.08399 Y-37.69959
G01 X6.06405 Y-37.70851
G01 X5.98046 Y-37.73777
G01 X5.96168 Y-37.74280
G01 X5.94236 Y-37.74498
G01 X5.92295 Y-37.74425
G01 X5.83494 Y-37.73432
G01 X5.81584 Y-37.73071
G01 X5.79750 Y-37.72428
G01 X5.78033 Y-37.71522
G01 X5.70535 Y-37.66810
G01 X5.69349 Y-37.65967
G01 X5.68262 Y-37.64996
G01 X5.63565 Y-37.60302
G01 X5.47665 Y-37.49167
G01 X5.45490 Y-37.48148
G01 X5.44081 Y-37.47379
G01 X5.42775 Y-37.46439
G01 X5.35922 Y-37.40833
G01 X5.34515 Y-37.39495
G01 X5.33321 Y-37.37961
G01 X5.32371 Y-37.36266
G01 X5.28627 Y-37.28237
G01 X5.27939 Y-37.26419
G01 X5.27530 Y-37.24519
G01 X5.27411 Y-37.22578
G01 X5.27522 Y-37.13724
G01 X5.27690 Y-37.11788
G01 X5.28147 Y-37.09901
G01 X5.28879 Y-37.08103
G01 X5.32818 Y-37.00173
G01 X5.33811 Y-36.98502
G01 X5.35041 Y-36.96998
G01 X5.36481 Y-36.95695
G01 X5.43474 Y-36.90259
G01 X5.44675 Y-36.89429
G01 X5.45960 Y-36.88740
G01 X5.47675 Y-36.87940
G01 X5.63565 Y-36.76813
G01 X5.77284 Y-36.63097
G01 X5.88411 Y-36.47206
G01 X5.96610 Y-36.29624
G01 X6.01629 Y-36.10882
G01 X6.03321 Y-35.91557
G01 X6.01629 Y-35.72233
G01 X5.96610 Y-35.53490
G01 X5.88411 Y-35.35909
G01 X5.77284 Y-35.20018
G01 X5.63565 Y-35.06302
G01 X5.47665 Y-34.95167
G01 X5.45490 Y-34.94148
G01 X5.44081 Y-34.93379
G01 X5.42775 Y-34.92439
G01 X5.35922 Y-34.86833
G01 X5.34515 Y-34.85495
G01 X5.33321 Y-34.83961
G01 X5.32371 Y-34.82266
G01 X5.28627 Y-34.74237
G01 X5.27939 Y-34.72419
G01 X5.27530 Y-34.70519
G01 X5.27411 Y-34.68578
G01 X5.27522 Y-34.59724
G01 X5.27690 Y-34.57788
G01 X5.28147 Y-34.55901
G01 X5.28879 Y-34.54103
G01 X5.32818 Y-34.46173
G01 X5.33811 Y-34.44502
G01 X5.35041 Y-34.42998
G01 X5.36481 Y-34.41695
G01 X5.43474 Y-34.36259
G01 X5.44675 Y-34.35429
G01 X5.45960 Y-34.34740
G01 X5.47675 Y-34.33940
G01 X5.63565 Y-34.22813
G01 X5.77284 Y-34.09097
G01 X5.88411 Y-33.93206
G01 X5.96610 Y-33.75624
G01 X6.01629 Y-33.56882
G01 X6.03321 Y-33.37557
G01 X6.01629 Y-33.18233
G01 X5.96610 Y-32.99490
G01 X5.88411 Y-32.81909
G01 X5.77284 Y-32.66018
G01 X5.63565 Y-32.52302
G01 X5.47665 Y-32.41167
G01 X5.45490 Y-32.40148
G01 X5.44081 Y-32.39379
G01 X5.42775 Y-32.38439
G01 X5.35922 Y-32.32833
G01 X5.34515 Y-32.31495
G01 X5.33321 Y-32.29961
G01 X5.32371 Y-32.28266
G01 X5.28627 Y-32.20237
G01 X5.27939 Y-32.18419
G01 X5.27530 Y-32.16519
G01 X5.27411 Y-32.14578
G01 X5.27522 Y-32.05724
G01 X5.27690 Y-32.03788
G01 X5.28147 Y-32.01901
G01 X5.28879 Y-32.00103
G01 X5.32818 Y-31.92173
G01 X5.33811 Y-31.90502
G01 X5.35041 Y-31.88998
G01 X5.36481 Y-31.87695
G01 X5.43474 Y-31.82259
G01 X5.44675 Y-31.81429
G01 X5.45960 Y-31.80740
G01 X5.47675 Y-31.79940
G01 X5.63565 Y-31.68813
G01 X5.77284 Y-31.55097
G01 X5.88411 Y-31.39206
G01 X5.96610 Y-31.21624
G01 X6.01629 Y-31.02882
G01 X6.03321 Y-30.83557
G01 X6.01629 Y-30.64233
G01 X5.96610 Y-30.45490
G01 X5.88411 Y-30.27909
G01 X5.77284 Y-30.12018
G01 X5.63565 Y-29.98302
G01 X5.47665 Y-29.87167
G01 X5.45490 Y-29.86148
G01 X5.44081 Y-29.85379
G01 X5.42775 Y-29.84439
G01 X5.35922 Y-29.78833
G01 X5.34515 Y-29.77495
G01 X5.33321 Y-29.75961
G01 X5.32371 Y-29.74266
G01 X5.28627 Y-29.66237
G01 X5.27939 Y-29.64419
G01 X5.27530 Y-29.62519
G01 X5.27411 Y-29.60578
G01 X5.27522 Y-29.51724
G01 X5.27690 Y-29.49788
G01 X5.28147 Y-29.47901
G01 X5.28879 Y-29.46103
G01 X5.32818 Y-29.38173
G01 X5.33811 Y-29.36502
G01 X5.35041 Y-29.34998
G01 X5.36481 Y-29.33695
G01 X5.43474 Y-29.28259
G01 X5.44675 Y-29.27429
G01 X5.45960 Y-29.26740
G01 X5.47675 Y-29.25940
G01 X5.63565 Y-29.14813
G01 X5.77284 Y-29.01097
G01 X5.88411 Y-28.85206
G01 X5.96610 Y-28.67624
G01 X6.01629 Y-28.48882
G01 X6.03321 Y-28.29557
G01 X6.01629 Y-28.10233
G01 X5.96610 Y-27.91490
G01 X5.88411 Y-27.73909
G01 X5.77284 Y-27.58018
G01 X5.63565 Y-27.44302
G01 X5.47665 Y-27.33167
G01 X5.45490 Y-27.32148
G01 X5.44081 Y-27.31379
G01 X5.42775 Y-27.30439
G01 X5.35922 Y-27.24833
G01 X5.34515 Y-27.23495
G01 X5.33321 Y-27.21961
G01 X5.32371 Y-27.20266
G01 X5.28627 Y-27.12237
G01 X5.27939 Y-27.10419
G01 X5.27530 Y-27.08519
G01 X5.27411 Y-27.06578
G01 X5.27522 Y-26.97724
G01 X5.27690 Y-26.95788
G01 X5.28147 Y-26.93901
G01 X5.28879 Y-26.92103
G01 X5.32818 Y-26.84173
G01 X5.33811 Y-26.82502
G01 X5.35041 Y-26.80998
G01 X5.36481 Y-26.79695
G01 X5.43474 Y-26.74259
G01 X5.44675 Y-26.73429
G01 X5.45960 Y-26.72740
G01 X5.47675 Y-26.71940
G01 X5.63565 Y-26.60810
G01 X5.77284 Y-26.47097
G01 X5.88411 Y-26.31206
G01 X5.96610 Y-26.13624
G01 X6.01629 Y-25.94879
G01 X6.03321 Y-25.75557
G01 X6.01629 Y-25.56233
G01 X5.96610 Y-25.37490
G01 X5.88411 Y-25.19909
G01 X5.77284 Y-25.04018
G01 X5.63565 Y-24.90302
G01 X5.47665 Y-24.79167
G01 X5.45490 Y-24.78148
G01 X5.44081 Y-24.77379
G01 X5.42775 Y-24.76439
G01 X5.35922 Y-24.70833
G01 X5.34515 Y-24.69495
G01 X5.33321 Y-24.67961
G01 X5.32371 Y-24.66266
G01 X5.28627 Y-24.58237
G01 X5.27939 Y-24.56419
G01 X5.27530 Y-24.54519
G01 X5.27411 Y-24.52578
G01 X5.27522 Y-24.43724
G01 X5.27690 Y-24.41788
G01 X5.28147 Y-24.39901
G01 X5.28879 Y-24.38103
G01 X5.32818 Y-24.30173
G01 X5.33811 Y-24.28502
G01 X5.35041 Y-24.26998
G01 X5.36481 Y-24.25695
G01 X5.43474 Y-24.20259
G01 X5.44675 Y-24.19429
G01 X5.45960 Y-24.18740
G01 X5.47675 Y-24.17940
G01 X5.63565 Y-24.06813
G01 X5.77284 Y-23.93097
G01 X5.88411 Y-23.77206
G01 X5.96610 Y-23.59624
G01 X6.01629 Y-23.40882
G01 X6.03321 Y-23.21557
G01 X6.01629 Y-23.02233
G01 X5.96610 Y-22.83490
G01 X5.88411 Y-22.65909
G01 X5.77284 Y-22.50018
G01 X5.63565 Y-22.36302
G01 X5.47665 Y-22.25167
G01 X5.45490 Y-22.24148
G01 X5.44081 Y-22.23379
G01 X5.42775 Y-22.22439
G01 X5.35922 Y-22.16833
G01 X5.34515 Y-22.15495
G01 X5.33321 Y-22.13961
G01 X5.32371 Y-22.12266
G01 X5.28627 Y-22.04237
G01 X5.27939 Y-22.02419
G01 X5.27530 Y-22.00519
G01 X5.27411 Y-21.98578
G01 X5.27522 Y-21.89724
G01 X5.27690 Y-21.87788
G01 X5.28147 Y-21.85901
G01 X5.28879 Y-21.84103
G01 X5.32818 Y-21.76173
G01 X5.33811 Y-21.74502
G01 X5.35041 Y-21.72998
G01 X5.36481 Y-21.71695
G01 X5.43474 Y-21.66259
G01 X5.44675 Y-21.65429
G01 X5.45960 Y-21.64740
G01 X5.47675 Y-21.63940
G01 X5.63565 Y-21.52813
G01 X5.77284 Y-21.39097
G01 X5.88411 Y-21.23206
G01 X5.96610 Y-21.05624
G01 X6.01629 Y-20.86882
G01 X6.03321 Y-20.67557
G01 X6.01629 Y-20.48231
G01 X5.97682 Y-20.33494
G01 X5.96610 Y-20.29493
G01 X5.88411 Y-20.11909
G01 X5.77284 Y-19.96018
G01 X5.63565 Y-19.82302
G01 X5.47665 Y-19.71167
G01 X5.45490 Y-19.70148
G01 X5.44081 Y-19.69379
G01 X5.42775 Y-19.68439
G01 X5.35922 Y-19.62833
G01 X5.34515 Y-19.61495
G01 X5.33321 Y-19.59961
G01 X5.32371 Y-19.58266
G01 X5.28627 Y-19.50237
G01 X5.27939 Y-19.48419
G01 X5.27530 Y-19.46519
G01 X5.27411 Y-19.44578
G01 X5.27522 Y-19.35724
G01 X5.27690 Y-19.33788
G01 X5.28147 Y-19.31901
G01 X5.28879 Y-19.30103
G01 X5.32818 Y-19.22173
G01 X5.33811 Y-19.20502
G01 X5.35041 Y-19.18998
G01 X5.36481 Y-19.17695
G01 X5.43474 Y-19.12259
G01 X5.44675 Y-19.11429
G01 X5.45960 Y-19.10740
G01 X5.47675 Y-19.09940
G01 X5.63565 Y-18.98813
G01 X5.77278 Y-18.85099
G01 X5.77596 Y-18.84647
G01 X5.77850 Y-18.84296
G01 X5.78594 Y-18.83303
G01 X5.79666 Y-18.82046
G01 X5.80890 Y-18.80936
G01 X5.87814 Y-18.75414
G01 X5.89420 Y-18.74319
G01 X5.91170 Y-18.73476
G01 X5.93026 Y-18.72905
G01 X6.01660 Y-18.70934
G01 X6.03098 Y-18.70690
G01 X6.04556 Y-18.70606
G01 X6.54667 Y-18.70606
G01 X6.56847 Y-18.70791
G01 X6.63420 Y-18.71909
G01 X6.65879 Y-18.72579
G01 X6.68160 Y-18.73717
G01 X6.75658 Y-18.78429
G01 X6.76846 Y-18.79272
G01 X6.77934 Y-18.80243
G01 X6.80905 Y-18.83214
G01 X6.81175 Y-18.83494
G01 X6.82000 Y-18.84370
G01 X6.82267 Y-18.84662
G01 X6.85058 Y-18.87814
G01 X6.88525 Y-18.90207
G01 X6.88835 Y-18.90428
G01 X6.89803 Y-18.91139
G01 X6.90121 Y-18.91381
G01 X6.93753 Y-18.94225
G01 X6.96090 Y-18.95544
G01 X7.00395 Y-18.97177
G01 X7.00761 Y-18.97322
G01 X7.01871 Y-18.97781
G01 X7.02231 Y-18.97936
G01 X7.06438 Y-18.99831
G01 X7.09016 Y-19.00547
G01 X7.13588 Y-19.01104
G01 X7.13979 Y-19.01157
G01 X7.15165 Y-19.01337
G01 X7.15554 Y-19.01401
G01 X7.19699 Y-19.02160
G01 X7.23903 Y-19.01909
G01 X7.24271 Y-19.01891
G01 X7.25472 Y-19.01853
G01 X7.25886 Y-19.01845
G01 X7.78878 Y-19.01845
G01 X7.80336 Y-19.01929
G01 X7.84766 Y-19.02430
G01 X7.86907 Y-19.02856
G01 X7.88949 Y-19.03633
G01 X7.96928 Y-19.07476
G01 X7.98609 Y-19.08449
G01 X8.00128 Y-19.09661
G01 X8.01449 Y-19.11083
G01 X8.06971 Y-19.18007
G01 X8.08065 Y-19.19613
G01 X8.08909 Y-19.21363
G01 X8.09480 Y-19.23219
G01 X8.11451 Y-19.31853
G01 X8.11695 Y-19.33291
G01 X8.11754 Y-19.34312
G01 X8.12782 Y-19.40801
G01 X8.16671 Y-19.48437
G01 X8.22729 Y-19.54494
G01 X8.31058 Y-19.58736
G01 X8.31568 Y-19.59011
G01 X8.33123 Y-19.59892
G01 X8.34586 Y-19.60857
G01 X8.35904 Y-19.62010
G01 X8.42165 Y-19.68274
G01 X8.43432 Y-19.69747
G01 X8.44464 Y-19.71391
G01 X8.45241 Y-19.73171
G01 X8.48167 Y-19.81530
G01 X8.48670 Y-19.83405
G01 X8.48888 Y-19.85338
G01 X8.48815 Y-19.87278
G01 X8.47824 Y-19.96079
G01 X8.47463 Y-19.97989
G01 X8.46823 Y-19.99823
G01 X8.45914 Y-20.01543
G01 X8.41202 Y-20.09041
G01 X8.40359 Y-20.10230
G01 X8.39389 Y-20.11317
G01 X8.37664 Y-20.13039
G01 X8.26419 Y-20.29097
G01 X8.18131 Y-20.46869
G01 X8.13059 Y-20.65807
G01 X8.11350 Y-20.85337
G01 X8.13059 Y-21.04868
G01 X8.18131 Y-21.23806
G01 X8.26419 Y-21.41578
G01 X8.37664 Y-21.57636
G01 X8.51527 Y-21.71502
G01 X8.67588 Y-21.82746
G01 X8.78454 Y-21.87814
G01 X8.78992 Y-21.88078
G01 X8.80608 Y-21.88924
G01 X8.82101 Y-21.89841
G01 X8.83460 Y-21.90951
G01 X8.89925 Y-21.97001
G01 X8.91240 Y-21.98431
G01 X8.92327 Y-22.00039
G01 X8.93163 Y-22.01794
G01 X8.96363 Y-22.10051
G01 X8.96927 Y-22.11911
G01 X8.97209 Y-22.13831
G01 X8.97202 Y-22.15774
G01 X8.96503 Y-22.24603
G01 X8.96203 Y-22.26523
G01 X8.95624 Y-22.28378
G01 X8.94773 Y-22.30125
G01 X8.90313 Y-22.37776
G01 X8.89213 Y-22.39376
G01 X8.87885 Y-22.40796
G01 X8.86361 Y-22.42000
G01 X8.82363 Y-22.44702
G01 X8.80905 Y-22.45992
G01 X8.78972 Y-22.47176
G01 X8.78683 Y-22.47321
G01 X8.62096 Y-22.57590
G01 X8.48126 Y-22.70326
G01 X8.36734 Y-22.85411
G01 X8.36272 Y-22.86335
G01 X8.41502 Y-22.86335
G01 X8.41690 Y-22.85987
G01 X8.43105 Y-22.83869
G01 X8.53676 Y-22.70989
G01 X8.54532 Y-22.70041
G01 X8.55477 Y-22.69185
G01 X8.68357 Y-22.58614
G01 X8.70478 Y-22.57199
G01 X8.85172 Y-22.49345
G01 X8.87527 Y-22.48370
G01 X9.03473 Y-22.43531
G01 X9.04710 Y-22.43221
G01 X9.05972 Y-22.43033
G01 X9.22553 Y-22.41400
G01 X9.25104 Y-22.41400
G01 X9.41685 Y-22.43033
G01 X9.42947 Y-22.43221
G01 X9.44184 Y-22.43531
G01 X9.60130 Y-22.48370
G01 X9.62485 Y-22.49345
G01 X9.77181 Y-22.57199
G01 X9.78273 Y-22.57854
G01 X9.79300 Y-22.58614
G01 X9.92180 Y-22.69185
G01 X9.93125 Y-22.70041
G01 X9.93981 Y-22.70989
G01 X10.04552 Y-22.83869
G01 X10.05970 Y-22.85987
G01 X10.06155 Y-22.86335
G01 X10.11382 Y-22.86335
G01 X10.10920 Y-22.85411
G01 X9.99531 Y-22.70326
G01 X9.85561 Y-22.57590
G01 X9.69053 Y-22.47369
G01 X9.67463 Y-22.46541
G01 X9.66015 Y-22.45515
G01 X9.59160 Y-22.39907
G01 X9.57753 Y-22.38568
G01 X9.56559 Y-22.37034
G01 X9.55609 Y-22.35340
G01 X9.51865 Y-22.27313
G01 X9.51177 Y-22.25495
G01 X9.50768 Y-22.23595
G01 X9.50648 Y-22.21654
G01 X9.50760 Y-22.12797
G01 X9.50930 Y-22.10862
G01 X9.51385 Y-22.08974
G01 X9.52116 Y-22.07174
G01 X9.56059 Y-21.99244
G01 X9.57052 Y-21.97575
G01 X9.58281 Y-21.96071
G01 X9.59721 Y-21.94768
G01 X9.66714 Y-21.89333
G01 X9.67915 Y-21.88502
G01 X9.69200 Y-21.87814
G01 X9.80067 Y-21.82746
G01 X9.96127 Y-21.71502
G01 X10.08144 Y-21.59483
G01 X10.09813 Y-21.58075
G01 X10.15248 Y-21.54217
G01 X10.16696 Y-21.53326
G01 X10.18250 Y-21.52630
G01 X10.19881 Y-21.52145
G01 X10.28517 Y-21.50173
G01 X10.29952 Y-21.49930
G01 X10.31410 Y-21.49846
G01 X10.70580 Y-21.49846
G01 X10.72037 Y-21.49930
G01 X10.76465 Y-21.50430
G01 X10.78606 Y-21.50857
G01 X10.80648 Y-21.51634
G01 X10.88626 Y-21.55477
G01 X10.90308 Y-21.56450
G01 X10.91827 Y-21.57661
G01 X10.93147 Y-21.59084
G01 X10.98669 Y-21.66008
G01 X10.99764 Y-21.67613
G01 X11.00607 Y-21.69363
G01 X11.01179 Y-21.71220
G01 X11.03150 Y-21.79853
G01 X11.03394 Y-21.81291
G01 X11.03478 Y-21.82749
G01 X11.03478 Y-45.47715
G01 X11.03292 Y-45.49889
G01 X11.02177 Y-45.56460
G01 X11.01783 Y-45.58114
G01 X11.01179 Y-45.59704
G01 X11.00369 Y-45.61202
G01 X10.95657 Y-45.68701
G01 X10.94814 Y-45.69889
G01 X10.93843 Y-45.70976
G01 X6.20547 Y-50.44272
G01 X6.18876 Y-50.45682
G01 X6.13438 Y-50.49540
G01 X6.11226 Y-50.50803
G01 X6.08810 Y-50.51610
G01 X6.00177 Y-50.53581
G01 X5.98739 Y-50.53825
G01 X5.97284 Y-50.53909
G01 X3.66453 Y-50.53909
G01 X3.64274 Y-50.53724
G01 X3.57701 Y-50.52606
G01 X3.55242 Y-50.51936
G01 X3.52961 Y-50.50798
G01 X3.45463 Y-50.46086
G01 X3.44274 Y-50.45243
G01 X3.43187 Y-50.44272
G01 X-6.57695 Y-40.43385
G01 X-6.58259 Y-40.42783
G01 X-6.59925 Y-40.40891
G01 X-6.60448 Y-40.40254
G01 X-6.61210 Y-40.39273
G01 X-6.64461 Y-40.36482
G01 X-6.64842 Y-40.36139
G01 X-6.65952 Y-40.35110
G01 X-6.66293 Y-40.34782
G01 X-6.69333 Y-40.31742
G01 X-6.70375 Y-40.31056
G01 X-6.71043 Y-40.30586
G01 X-6.73054 Y-40.29070
G01 X-6.73694 Y-40.28554
G01 X-6.74642 Y-40.27741
G01 X-6.78396 Y-40.25656
G01 X-6.78815 Y-40.25412
G01 X-6.80108 Y-40.24630
G01 X-6.80530 Y-40.24366
G01 X-6.84116 Y-40.22001
G01 X-6.85274 Y-40.21539
G01 X-6.86026 Y-40.21211
G01 X-6.88299 Y-40.20132
G01 X-6.89036 Y-40.19753
G01 X-6.90121 Y-40.19149
G01 X-6.94212 Y-40.17866
G01 X-6.94690 Y-40.17706
G01 X-6.96115 Y-40.17198
G01 X-6.96575 Y-40.17025
G01 X-7.00555 Y-40.15435
G01 X-7.01779 Y-40.15217
G01 X-7.02584 Y-40.15047
G01 X-7.05030 Y-40.14447
G01 X-7.05833 Y-40.14221
G01 X-7.07019 Y-40.13848
G01 X-7.11286 Y-40.13413
G01 X-7.11761 Y-40.13357
G01 X-7.13257 Y-40.13149
G01 X-7.13758 Y-40.13068
G01 X-7.17989 Y-40.12311
G01 X-7.25828 Y-40.12504
G01 X-7.26150 Y-40.12509
G01 X-9.52619 Y-40.12509
G01 X-9.53673 Y-40.12466
G01 X-9.56884 Y-40.12204
G01 X-9.58840 Y-40.11892
G01 X-9.60727 Y-40.11287
G01 X-9.68931 Y-40.07950
G01 X-9.70250 Y-40.07325
G01 X-9.71489 Y-40.06558
G01 X-9.76330 Y-40.03167
G01 X-9.78505 Y-40.02148
G01 X-9.79914 Y-40.01379
G01 X-9.81220 Y-40.00439
G01 X-9.88073 Y-39.94833
G01 X-9.89480 Y-39.93495
G01 X-9.90674 Y-39.91961
G01 X-9.91624 Y-39.90266
G01 X-9.95368 Y-39.82240
G01 X-9.96056 Y-39.80421
G01 X-9.96465 Y-39.78521
G01 X-9.96584 Y-39.76581
G01 X-9.96472 Y-39.67724
G01 X-9.96305 Y-39.65788
G01 X-9.95848 Y-39.63901
G01 X-9.95116 Y-39.62103
G01 X-9.91177 Y-39.54173
G01 X-9.90183 Y-39.52502
G01 X-9.88954 Y-39.50998
G01 X-9.87514 Y-39.49695
G01 X-9.80521 Y-39.44259
G01 X-9.79320 Y-39.43429
G01 X-9.78035 Y-39.42740
G01 X-9.76320 Y-39.41940
G01 X-9.60430 Y-39.30813
G01 X-9.46711 Y-39.17097
G01 X-9.35584 Y-39.01206
G01 X-9.27384 Y-38.83622
G01 X-9.22365 Y-38.64884
G01 X-9.20674 Y-38.45560
G01 X-9.22365 Y-38.26233
G01 X-9.27384 Y-38.07490
G01 X-9.35584 Y-37.89909
G01 X-9.46711 Y-37.74018
G01 X-9.60430 Y-37.60302
G01 X-9.76330 Y-37.49167
G01 X-9.78505 Y-37.48148
G01 X-9.79914 Y-37.47379
G01 X-9.81220 Y-37.46439
G01 X-9.88073 Y-37.40833
G01 X-9.89480 Y-37.39495
G01 X-9.90674 Y-37.37961
G01 X-9.91624 Y-37.36266
G01 X-9.95368 Y-37.28240
G01 X-9.96056 Y-37.26421
G01 X-9.96465 Y-37.24521
G01 X-9.96584 Y-37.22581
G01 X-9.96472 Y-37.13724
G01 X-9.96305 Y-37.11788
G01 X-9.95848 Y-37.09901
G01 X-9.95116 Y-37.08103
G01 X-9.91177 Y-37.00173
G01 X-9.90183 Y-36.98502
G01 X-9.88954 Y-36.96998
G01 X-9.87514 Y-36.95695
G01 X-9.80521 Y-36.90259
G01 X-9.79320 Y-36.89429
G01 X-9.78035 Y-36.88740
G01 X-9.76320 Y-36.87940
G01 X-9.60430 Y-36.76813
G01 X-9.46711 Y-36.63097
G01 X-9.35584 Y-36.47206
G01 X-9.27384 Y-36.29622
G01 X-9.22365 Y-36.10884
G01 X-9.20674 Y-35.91557
G01 X-9.22365 Y-35.72231
G01 X-9.27384 Y-35.53490
G01 X-9.35584 Y-35.35909
G01 X-9.46711 Y-35.20018
G01 X-9.60430 Y-35.06302
G01 X-9.76330 Y-34.95167
G01 X-9.78505 Y-34.94148
G01 X-9.79914 Y-34.93379
G01 X-9.81220 Y-34.92439
G01 X-9.88073 Y-34.86833
G01 X-9.89480 Y-34.85495
G01 X-9.90674 Y-34.83961
G01 X-9.91624 Y-34.82266
G01 X-9.95368 Y-34.74240
G01 X-9.96056 Y-34.72421
G01 X-9.96465 Y-34.70521
G01 X-9.96584 Y-34.68581
G01 X-9.96472 Y-34.59724
G01 X-9.96305 Y-34.57788
G01 X-9.95848 Y-34.55901
G01 X-9.95116 Y-34.54103
G01 X-9.91177 Y-34.46173
G01 X-9.90183 Y-34.44502
G01 X-9.88954 Y-34.42998
G01 X-9.87514 Y-34.41695
G01 X-9.80521 Y-34.36259
G01 X-9.79320 Y-34.35429
G01 X-9.78035 Y-34.34740
G01 X-9.76320 Y-34.33940
G01 X-9.60430 Y-34.22813
G01 X-9.46711 Y-34.09097
G01 X-9.35584 Y-33.93206
G01 X-9.27384 Y-33.75622
G01 X-9.22365 Y-33.56884
G01 X-9.20674 Y-33.37557
G01 X-9.22365 Y-33.18231
G01 X-9.27384 Y-32.99490
G01 X-9.35584 Y-32.81909
G01 X-9.46711 Y-32.66018
G01 X-9.60430 Y-32.52302
G01 X-9.76330 Y-32.41167
G01 X-9.78505 Y-32.40148
G01 X-9.79914 Y-32.39379
G01 X-9.81220 Y-32.38439
G01 X-9.88073 Y-32.32833
G01 X-9.89480 Y-32.31495
G01 X-9.90674 Y-32.29961
G01 X-9.91624 Y-32.28266
G01 X-9.95368 Y-32.20240
G01 X-9.96056 Y-32.18421
G01 X-9.96465 Y-32.16521
G01 X-9.96584 Y-32.14581
G01 X-9.96472 Y-32.05724
G01 X-9.96305 Y-32.03788
G01 X-9.95848 Y-32.01901
G01 X-9.95116 Y-32.00103
G01 X-9.91177 Y-31.92173
G01 X-9.90183 Y-31.90502
G01 X-9.88954 Y-31.88998
G01 X-9.87514 Y-31.87695
G01 X-9.80521 Y-31.82259
G01 X-9.79320 Y-31.81429
G01 X-9.78035 Y-31.80740
G01 X-9.76320 Y-31.79940
G01 X-9.60430 Y-31.68813
G01 X-9.46711 Y-31.55097
G01 X-9.35584 Y-31.39206
G01 X-9.27384 Y-31.21622
G01 X-9.22365 Y-31.02884
G01 X-9.20674 Y-30.83557
G01 X-9.22365 Y-30.64231
G01 X-9.27384 Y-30.45490
G01 X-9.35584 Y-30.27909
G01 X-9.46711 Y-30.12018
G01 X-9.60430 Y-29.98302
G01 X-9.76330 Y-29.87167
G01 X-9.78505 Y-29.86148
G01 X-9.79914 Y-29.85379
G01 X-9.81220 Y-29.84439
G01 X-9.88073 Y-29.78833
G01 X-9.89480 Y-29.77495
G01 X-9.90674 Y-29.75961
G01 X-9.91624 Y-29.74266
G01 X-9.95368 Y-29.66240
G01 X-9.96056 Y-29.64421
G01 X-9.96465 Y-29.62521
G01 X-9.96584 Y-29.60581
G01 X-9.96472 Y-29.51724
G01 X-9.96305 Y-29.49788
G01 X-9.95848 Y-29.47901
G01 X-9.95116 Y-29.46103
G01 X-9.91177 Y-29.38173
G01 X-9.90183 Y-29.36502
G01 X-9.88954 Y-29.34998
G01 X-9.87514 Y-29.33695
G01 X-9.80521 Y-29.28259
G01 X-9.79320 Y-29.27429
G01 X-9.78035 Y-29.26740
G01 X-9.76320 Y-29.25940
G01 X-9.60430 Y-29.14813
G01 X-9.46711 Y-29.01097
G01 X-9.35584 Y-28.85206
G01 X-9.27384 Y-28.67622
G01 X-9.22365 Y-28.48884
G01 X-9.20674 Y-28.29560
G01 X-9.22365 Y-28.10233
G01 X-9.27384 Y-27.91490
G01 X-9.35584 Y-27.73909
G01 X-9.46711 Y-27.58018
G01 X-9.60430 Y-27.44302
G01 X-9.76330 Y-27.33167
G01 X-9.78505 Y-27.32148
G01 X-9.79914 Y-27.31379
G01 X-9.81220 Y-27.30439
G01 X-9.88073 Y-27.24833
G01 X-9.89480 Y-27.23495
G01 X-9.90674 Y-27.21961
G01 X-9.91624 Y-27.20266
G01 X-9.95368 Y-27.12240
G01 X-9.96056 Y-27.10421
G01 X-9.96465 Y-27.08521
G01 X-9.96584 Y-27.06581
G01 X-9.96472 Y-26.97724
G01 X-9.96305 Y-26.95788
G01 X-9.95848 Y-26.93901
G01 X-9.95116 Y-26.92103
G01 X-9.91177 Y-26.84173
G01 X-9.90183 Y-26.82502
G01 X-9.88954 Y-26.80998
G01 X-9.87514 Y-26.79695
G01 X-9.80521 Y-26.74259
G01 X-9.79320 Y-26.73429
G01 X-9.78035 Y-26.72740
G01 X-9.76320 Y-26.71940
G01 X-9.60430 Y-26.60810
G01 X-9.46711 Y-26.47097
G01 X-9.35584 Y-26.31206
G01 X-9.27384 Y-26.13622
G01 X-9.22365 Y-25.94884
G01 X-9.20674 Y-25.75560
G01 X-9.22365 Y-25.56233
G01 X-9.27384 Y-25.37490
G01 X-9.35584 Y-25.19909
G01 X-9.46711 Y-25.04018
G01 X-9.60430 Y-24.90302
G01 X-9.76330 Y-24.79167
G01 X-9.78505 Y-24.78148
G01 X-9.79914 Y-24.77379
G01 X-9.81220 Y-24.76439
G01 X-9.88073 Y-24.70833
G01 X-9.89480 Y-24.69495
G01 X-9.90674 Y-24.67961
G01 X-9.91624 Y-24.66266
G01 X-9.95368 Y-24.58240
G01 X-9.96056 Y-24.56421
G01 X-9.96465 Y-24.54521
G01 X-9.96584 Y-24.52581
G01 X-9.96472 Y-24.43724
G01 X-9.96305 Y-24.41788
G01 X-9.95848 Y-24.39901
G01 X-9.95116 Y-24.38103
G01 X-9.91177 Y-24.30173
G01 X-9.90183 Y-24.28502
G01 X-9.88954 Y-24.26998
G01 X-9.87514 Y-24.25695
G01 X-9.80521 Y-24.20259
G01 X-9.79320 Y-24.19429
G01 X-9.78035 Y-24.18740
G01 X-9.76320 Y-24.17940
G01 X-9.60430 Y-24.06813
G01 X-9.46711 Y-23.93097
G01 X-9.35584 Y-23.77206
G01 X-9.27384 Y-23.59622
G01 X-9.22365 Y-23.40884
G01 X-9.20674 Y-23.21560
G01 X-9.22365 Y-23.02233
G01 X-9.27384 Y-22.83490
G01 X-9.35584 Y-22.65909
G01 X-9.46711 Y-22.50018
G01 X-9.60430 Y-22.36302
G01 X-9.76330 Y-22.25167
G01 X-9.78505 Y-22.24148
G01 X-9.79914 Y-22.23379
G01 X-9.81220 Y-22.22439
G01 X-9.88073 Y-22.16833
G01 X-9.89480 Y-22.15495
G01 X-9.90674 Y-22.13961
G01 X-9.91624 Y-22.12266
G01 X-9.95368 Y-22.04240
G01 X-9.96056 Y-22.02421
G01 X-9.96465 Y-22.00521
G01 X-9.96584 Y-21.98581
G01 X-9.96472 Y-21.89724
G01 X-9.96305 Y-21.87788
G01 X-9.95848 Y-21.85901
G01 X-9.95116 Y-21.84103
G01 X-9.91177 Y-21.76173
G01 X-9.90183 Y-21.74502
G01 X-9.88954 Y-21.72998
G01 X-9.87514 Y-21.71695
G01 X-9.80521 Y-21.66259
G01 X-9.79320 Y-21.65429
G01 X-9.78035 Y-21.64740
G01 X-9.76320 Y-21.63940
G01 X-9.60430 Y-21.52813
G01 X-9.46711 Y-21.39097
G01 X-9.35584 Y-21.23206
G01 X-9.27384 Y-21.05622
G01 X-9.22365 Y-20.86884
G01 X-9.20674 Y-20.67560
G01 X-9.22365 Y-20.48233
G01 X-9.27384 Y-20.29490
G01 X-9.35584 Y-20.11909
G01 X-9.46711 Y-19.96018
G01 X-9.60430 Y-19.82302
G01 X-9.76330 Y-19.71167
G01 X-9.78505 Y-19.70148
G01 X-9.79914 Y-19.69379
G01 X-9.81220 Y-19.68439
G01 X-9.88073 Y-19.62833
G01 X-9.89480 Y-19.61495
G01 X-9.90674 Y-19.59961
G01 X-9.91624 Y-19.58266
G01 X-9.95368 Y-19.50240
G01 X-9.96056 Y-19.48421
G01 X-9.96465 Y-19.46521
G01 X-9.96584 Y-19.44581
G01 X-9.96472 Y-19.35724
G01 X-9.96305 Y-19.33788
G01 X-9.95848 Y-19.31901
G01 X-9.95116 Y-19.30103
G01 X-9.91177 Y-19.22173
G01 X-9.90183 Y-19.20502
G01 X-9.88954 Y-19.18998
G01 X-9.87514 Y-19.17695
G01 X-9.80521 Y-19.12259
G01 X-9.79320 Y-19.11429
G01 X-9.78035 Y-19.10740
G01 X-9.76320 Y-19.09940
G01 X-9.60430 Y-18.98813
G01 X-9.46711 Y-18.85097
G01 X-9.35584 Y-18.69206
G01 X-9.27384 Y-18.51622
G01 X-9.22365 Y-18.32884
G01 X-9.20674 Y-18.13560
G01 X-9.22365 Y-17.94233
G01 X-9.27384 Y-17.75490
G01 X-9.35584 Y-17.57909
G01 X-9.46711 Y-17.42018
G01 X-9.60430 Y-17.28302
G01 X-9.76330 Y-17.17167
G01 X-9.78505 Y-17.16148
G01 X-9.79914 Y-17.15379
G01 X-9.81220 Y-17.14439
G01 X-9.88073 Y-17.08833
G01 X-9.89480 Y-17.07495
G01 X-9.90674 Y-17.05961
G01 X-9.91624 Y-17.04266
G01 X-9.95368 Y-16.96240
G01 X-9.96056 Y-16.94421
G01 X-9.96465 Y-16.92521
G01 X-9.96584 Y-16.90581
G01 X-9.96472 Y-16.81724
G01 X-9.96305 Y-16.79788
G01 X-9.95848 Y-16.77901
G01 X-9.95116 Y-16.76103
G01 X-9.91177 Y-16.68173
G01 X-9.90183 Y-16.66502
G01 X-9.88954 Y-16.64998
G01 X-9.87514 Y-16.63695
G01 X-9.80521 Y-16.58259
G01 X-9.79320 Y-16.57429
G01 X-9.78035 Y-16.56740
G01 X-9.76320 Y-16.55940
G01 X-9.60430 Y-16.44813
G01 X-9.46711 Y-16.31097
G01 X-9.35584 Y-16.15206
G01 X-9.27384 Y-15.97622
G01 X-9.22365 Y-15.78884
G01 X-9.20674 Y-15.59560
G01 X-9.22365 Y-15.40233
G01 X-9.27384 Y-15.21490
G01 X-9.35584 Y-15.03909
G01 X-9.46711 Y-14.88018
G01 X-9.60430 Y-14.74302
G01 X-9.76320 Y-14.63175
G01 X-9.93905 Y-14.54975
G01 X-10.12642 Y-14.49954
G01 X-10.31969 Y-14.48262
G01 X-10.51293 Y-14.49954
G01 X-10.70031 Y-14.54975
G01 X-10.87615 Y-14.63175
G01 X-11.03506 Y-14.74300
G01 X-11.13279 Y-14.84076
G01 X-11.14364 Y-14.85044
G01 X-11.17846 Y-14.87823
G01 X-11.19665 Y-14.89037
G01 X-11.21661 Y-14.89931
G01 X-11.30021 Y-14.92857
G01 X-11.31898 Y-14.93360
G01 X-11.33831 Y-14.93578
G01 X-11.35771 Y-14.93505
G01 X-11.44572 Y-14.92512
G01 X-11.46482 Y-14.92151
G01 X-11.48316 Y-14.91508
G01 X-11.50033 Y-14.90602
G01 X-11.57531 Y-14.85890
G01 X-11.58720 Y-14.85047
G01 X-11.59807 Y-14.84076
G01 X-11.73028 Y-14.70853
G01 X-11.89088 Y-14.59608
G01 X-12.06858 Y-14.51323
G01 X-12.25796 Y-14.46248
G01 X-12.45326 Y-14.44539
G01 X-12.64856 Y-14.46248
G01 X-12.83797 Y-14.51323
G01 X-13.01567 Y-14.59608
G01 X-13.17625 Y-14.70853
G01 X-13.31491 Y-14.84719
G01 X-13.42735 Y-15.00777
G01 X-13.51023 Y-15.18549
G01 X-13.56096 Y-15.37487
G01 X-13.57805 Y-15.57017
G01 X-13.56096 Y-15.76548
G01 X-13.51023 Y-15.95486
G01 X-13.42735 Y-16.13258
G01 X-13.31491 Y-16.29316
G01 X-13.17625 Y-16.43182
G01 X-13.01422 Y-16.54528
G01 X-13.00777 Y-16.55011
G01 X-12.98839 Y-16.56555
G01 X-12.97468 Y-16.57817
G01 X-12.96292 Y-16.59265
G01 X-12.91212 Y-16.66519
G01 X-12.90216 Y-16.68188
G01 X-12.89487 Y-16.69989
G01 X-12.89032 Y-16.71876
G01 X-12.87602 Y-16.80619
G01 X-12.87429 Y-16.82557
G01 X-12.87554 Y-16.84498
G01 X-12.87960 Y-16.86397
G01 X-12.90470 Y-16.94891
G01 X-12.91156 Y-16.96707
G01 X-12.92106 Y-16.98401
G01 X-12.93294 Y-16.99933
G01 X-12.99238 Y-17.06499
G01 X-13.00277 Y-17.07525
G01 X-13.01422 Y-17.08427
G01 X-13.17625 Y-17.19773
G01 X-13.31491 Y-17.33639
G01 X-13.42735 Y-17.49697
G01 X-13.51023 Y-17.67469
G01 X-13.56096 Y-17.86407
G01 X-13.57805 Y-18.05937
G01 X-13.56096 Y-18.25468
G01 X-13.51023 Y-18.44406
G01 X-13.42735 Y-18.62178
G01 X-13.31491 Y-18.78236
G01 X-13.17625 Y-18.92102
G01 X-13.01557 Y-19.03352
G01 X-12.98862 Y-19.04614
G01 X-12.97452 Y-19.05386
G01 X-12.96147 Y-19.06323
G01 X-12.89291 Y-19.11929
G01 X-12.87882 Y-19.13270
G01 X-12.86685 Y-19.14807
G01 X-12.85733 Y-19.16504
G01 X-12.81994 Y-19.24533
G01 X-12.81308 Y-19.26349
G01 X-12.80899 Y-19.28246
G01 X-12.80780 Y-19.30184
G01 X-12.80889 Y-19.39039
G01 X-12.81057 Y-19.40974
G01 X-12.81514 Y-19.42864
G01 X-12.82243 Y-19.44665
G01 X-12.86185 Y-19.52595
G01 X-12.87181 Y-19.54263
G01 X-12.88410 Y-19.55767
G01 X-12.89850 Y-19.57070
G01 X-12.96843 Y-19.62506
G01 X-12.98042 Y-19.63336
G01 X-12.99329 Y-19.64025
G01 X-13.01567 Y-19.65068
G01 X-13.17625 Y-19.76313
G01 X-13.31491 Y-19.90179
G01 X-13.42735 Y-20.06237
G01 X-13.51023 Y-20.24009
G01 X-13.56096 Y-20.42947
G01 X-13.57805 Y-20.62477
G01 X-13.56096 Y-20.82008
G01 X-13.51023 Y-21.00946
G01 X-13.42735 Y-21.18718
G01 X-13.31491 Y-21.34776
G01 X-13.17625 Y-21.48642
G01 X-13.01557 Y-21.59892
G01 X-12.98862 Y-21.61154
G01 X-12.97452 Y-21.61926
G01 X-12.96147 Y-21.62863
G01 X-12.89291 Y-21.68469
G01 X-12.87882 Y-21.69810
G01 X-12.86685 Y-21.71347
G01 X-12.85733 Y-21.73044
G01 X-12.81994 Y-21.81073
G01 X-12.81308 Y-21.82889
G01 X-12.80899 Y-21.84786
G01 X-12.80780 Y-21.86724
G01 X-12.80889 Y-21.95579
G01 X-12.81057 Y-21.97514
G01 X-12.81514 Y-21.99404
G01 X-12.82243 Y-22.01205
G01 X-12.86185 Y-22.09135
G01 X-12.87181 Y-22.10803
G01 X-12.88410 Y-22.12307
G01 X-12.89850 Y-22.13610
G01 X-12.96843 Y-22.19046
G01 X-12.98042 Y-22.19876
G01 X-12.99329 Y-22.20565
G01 X-13.01567 Y-22.21608
G01 X-13.17625 Y-22.32853
G01 X-13.31491 Y-22.46719
G01 X-13.42735 Y-22.62777
G01 X-13.51023 Y-22.80549
G01 X-13.56096 Y-22.99487
G01 X-13.57805 Y-23.19017
G01 X-13.56096 Y-23.38548
G01 X-13.51023 Y-23.57486
G01 X-13.42735 Y-23.75258
G01 X-13.31491 Y-23.91316
G01 X-13.17625 Y-24.05182
G01 X-13.01567 Y-24.16426
G01 X-12.83797 Y-24.24712
G01 X-12.64859 Y-24.29787
G01 X-12.45329 Y-24.31496
G01 X-12.25796 Y-24.29787
G01 X-12.06858 Y-24.24712
G01 X-11.89088 Y-24.16426
G01 X-11.73028 Y-24.05182
G01 X-11.62347 Y-23.94499
G01 X-11.61263 Y-23.93531
G01 X-11.57780 Y-23.90752
G01 X-11.55962 Y-23.89538
G01 X-11.53965 Y-23.88644
G01 X-11.45606 Y-23.85718
G01 X-11.43729 Y-23.85215
G01 X-11.41796 Y-23.84996
G01 X-11.39855 Y-23.85070
G01 X-11.31054 Y-23.86063
G01 X-11.29144 Y-23.86424
G01 X-11.27313 Y-23.87064
G01 X-11.25596 Y-23.87973
G01 X-11.18095 Y-23.92685
G01 X-11.16907 Y-23.93528
G01 X-11.15817 Y-23.94499
G01 X-11.03506 Y-24.06813
G01 X-10.87605 Y-24.17948
G01 X-10.85431 Y-24.18966
G01 X-10.84021 Y-24.19736
G01 X-10.82718 Y-24.20673
G01 X-10.75863 Y-24.26279
G01 X-10.74453 Y-24.27620
G01 X-10.73259 Y-24.29157
G01 X-10.72307 Y-24.30854
G01 X-10.68565 Y-24.38883
G01 X-10.67879 Y-24.40699
G01 X-10.67471 Y-24.42596
G01 X-10.67351 Y-24.44534
G01 X-10.67460 Y-24.53389
G01 X-10.67628 Y-24.55324
G01 X-10.68085 Y-24.57214
G01 X-10.68817 Y-24.59015
G01 X-10.72759 Y-24.66945
G01 X-10.73752 Y-24.68613
G01 X-10.74981 Y-24.70117
G01 X-10.76422 Y-24.71420
G01 X-10.83414 Y-24.76856
G01 X-10.84616 Y-24.77686
G01 X-10.85901 Y-24.78375
G01 X-10.87615 Y-24.79175
G01 X-11.03506 Y-24.90302
G01 X-11.17224 Y-25.04018
G01 X-11.28349 Y-25.19909
G01 X-11.36551 Y-25.37493
G01 X-11.41570 Y-25.56233
G01 X-11.43262 Y-25.75557
G01 X-11.41570 Y-25.94879
G01 X-11.36551 Y-26.13622
G01 X-11.28349 Y-26.31206
G01 X-11.17224 Y-26.47097
G01 X-11.03506 Y-26.60810
G01 X-10.87605 Y-26.71948
G01 X-10.85431 Y-26.72966
G01 X-10.84021 Y-26.73736
G01 X-10.82718 Y-26.74673
G01 X-10.75863 Y-26.80279
G01 X-10.74453 Y-26.81620
G01 X-10.73259 Y-26.83157
G01 X-10.72307 Y-26.84854
G01 X-10.68565 Y-26.92883
G01 X-10.67879 Y-26.94699
G01 X-10.67471 Y-26.96596
G01 X-10.67351 Y-26.98534
G01 X-10.67460 Y-27.07389
G01 X-10.67628 Y-27.09324
G01 X-10.68085 Y-27.11214
G01 X-10.68817 Y-27.13015
G01 X-10.72759 Y-27.20945
G01 X-10.73752 Y-27.22613
G01 X-10.74981 Y-27.24117
G01 X-10.76422 Y-27.25420
G01 X-10.83414 Y-27.30856
G01 X-10.84616 Y-27.31686
G01 X-10.85901 Y-27.32375
G01 X-10.87615 Y-27.33175
G01 X-11.03506 Y-27.44302
G01 X-11.17224 Y-27.58018
G01 X-11.28349 Y-27.73909
G01 X-11.36551 Y-27.91493
G01 X-11.41570 Y-28.10233
G01 X-11.43262 Y-28.29557
G01 X-11.41570 Y-28.48882
G01 X-11.36551 Y-28.67622
G01 X-11.28349 Y-28.85206
G01 X-11.17224 Y-29.01097
G01 X-11.03506 Y-29.14813
G01 X-10.87605 Y-29.25948
G01 X-10.85431 Y-29.26966
G01 X-10.84021 Y-29.27736
G01 X-10.82718 Y-29.28673
G01 X-10.75863 Y-29.34279
G01 X-10.74453 Y-29.35620
G01 X-10.73259 Y-29.37157
G01 X-10.72307 Y-29.38854
G01 X-10.68565 Y-29.46883
G01 X-10.67879 Y-29.48699
G01 X-10.67471 Y-29.50596
G01 X-10.67351 Y-29.52534
G01 X-10.67460 Y-29.61389
G01 X-10.67628 Y-29.63324
G01 X-10.68085 Y-29.65214
G01 X-10.68817 Y-29.67015
G01 X-10.72759 Y-29.74945
G01 X-10.73752 Y-29.76613
G01 X-10.74981 Y-29.78117
G01 X-10.76422 Y-29.79420
G01 X-10.83414 Y-29.84856
G01 X-10.84616 Y-29.85686
G01 X-10.85901 Y-29.86375
G01 X-10.87615 Y-29.87175
G01 X-11.03506 Y-29.98302
G01 X-11.17224 Y-30.12018
G01 X-11.28349 Y-30.27909
G01 X-11.36551 Y-30.45493
G01 X-11.41570 Y-30.64233
G01 X-11.43262 Y-30.83557
G01 X-11.41570 Y-31.02882
G01 X-11.36551 Y-31.21622
G01 X-11.28349 Y-31.39206
G01 X-11.17224 Y-31.55097
G01 X-11.03506 Y-31.68813
G01 X-10.87605 Y-31.79948
G01 X-10.85431 Y-31.80966
G01 X-10.84021 Y-31.81736
G01 X-10.82718 Y-31.82673
G01 X-10.75863 Y-31.88279
G01 X-10.74453 Y-31.89620
G01 X-10.73259 Y-31.91157
G01 X-10.72307 Y-31.92854
G01 X-10.68565 Y-32.00883
G01 X-10.67879 Y-32.02699
G01 X-10.67471 Y-32.04596
G01 X-10.67351 Y-32.06534
G01 X-10.67460 Y-32.15389
G01 X-10.67628 Y-32.17324
G01 X-10.68085 Y-32.19214
G01 X-10.68817 Y-32.21015
G01 X-10.72759 Y-32.28945
G01 X-10.73752 Y-32.30613
G01 X-10.74981 Y-32.32117
G01 X-10.76422 Y-32.33420
G01 X-10.83414 Y-32.38856
G01 X-10.84616 Y-32.39686
G01 X-10.85901 Y-32.40375
G01 X-10.87615 Y-32.41175
G01 X-11.03506 Y-32.52302
G01 X-11.17224 Y-32.66018
G01 X-11.28349 Y-32.81909
G01 X-11.36551 Y-32.99493
G01 X-11.41570 Y-33.18233
G01 X-11.43262 Y-33.37557
G01 X-11.41570 Y-33.56882
G01 X-11.36551 Y-33.75622
G01 X-11.28349 Y-33.93206
G01 X-11.17224 Y-34.09097
G01 X-11.03506 Y-34.22813
G01 X-10.87605 Y-34.33948
G01 X-10.85431 Y-34.34966
G01 X-10.84021 Y-34.35736
G01 X-10.82718 Y-34.36673
G01 X-10.75863 Y-34.42279
G01 X-10.74453 Y-34.43620
G01 X-10.73259 Y-34.45157
G01 X-10.72307 Y-34.46854
G01 X-10.68565 Y-34.54883
G01 X-10.67879 Y-34.56699
G01 X-10.67471 Y-34.58596
G01 X-10.67351 Y-34.60534
G01 X-10.67460 Y-34.69389
G01 X-10.67628 Y-34.71324
G01 X-10.68085 Y-34.73214
G01 X-10.68817 Y-34.75015
G01 X-10.72759 Y-34.82945
G01 X-10.73752 Y-34.84613
G01 X-10.74981 Y-34.86117
G01 X-10.76422 Y-34.87420
G01 X-10.83414 Y-34.92856
G01 X-10.84616 Y-34.93686
G01 X-10.85901 Y-34.94375
G01 X-10.87615 Y-34.95175
G01 X-11.03506 Y-35.06302
G01 X-11.17224 Y-35.20018
G01 X-11.28349 Y-35.35909
G01 X-11.36551 Y-35.53493
G01 X-11.41570 Y-35.72233
G01 X-11.43262 Y-35.91557
G01 X-11.41570 Y-36.10882
G01 X-11.36551 Y-36.29622
G01 X-11.28349 Y-36.47206
G01 X-11.17224 Y-36.63097
G01 X-11.03506 Y-36.76813
G01 X-10.87605 Y-36.87948
G01 X-10.85431 Y-36.88966
G01 X-10.84021 Y-36.89736
G01 X-10.82718 Y-36.90673
G01 X-10.75863 Y-36.96279
G01 X-10.74453 Y-36.97620
G01 X-10.73259 Y-36.99157
G01 X-10.72307 Y-37.00854
G01 X-10.68565 Y-37.08883
G01 X-10.67879 Y-37.10699
G01 X-10.67471 Y-37.12596
G01 X-10.67351 Y-37.14534
G01 X-10.67460 Y-37.23389
G01 X-10.67628 Y-37.25324
G01 X-10.68085 Y-37.27214
G01 X-10.68817 Y-37.29015
G01 X-10.72759 Y-37.36945
G01 X-10.73752 Y-37.38613
G01 X-10.74981 Y-37.40117
G01 X-10.76422 Y-37.41420
G01 X-10.83414 Y-37.46856
G01 X-10.84616 Y-37.47686
G01 X-10.85901 Y-37.48375
G01 X-10.87615 Y-37.49175
G01 X-11.03506 Y-37.60302
G01 X-11.17224 Y-37.74018
G01 X-11.28349 Y-37.89909
G01 X-11.36551 Y-38.07493
G01 X-11.41570 Y-38.26233
G01 X-11.43262 Y-38.45557
G01 X-11.41570 Y-38.64882
G01 X-11.36551 Y-38.83622
G01 X-11.28349 Y-39.01206
G01 X-11.17224 Y-39.17097
G01 X-11.03506 Y-39.30813
G01 X-10.87605 Y-39.41948
G01 X-10.85431 Y-39.42966
G01 X-10.84021 Y-39.43736
G01 X-10.82718 Y-39.44673
G01 X-10.75863 Y-39.50279
G01 X-10.74453 Y-39.51620
G01 X-10.73259 Y-39.53157
G01 X-10.72307 Y-39.54854
G01 X-10.68565 Y-39.62883
G01 X-10.67879 Y-39.64699
G01 X-10.67471 Y-39.66596
G01 X-10.67351 Y-39.68534
G01 X-10.67460 Y-39.77389
G01 X-10.67628 Y-39.79324
G01 X-10.68085 Y-39.81214
G01 X-10.68817 Y-39.83015
G01 X-10.72759 Y-39.90945
G01 X-10.73752 Y-39.92613
G01 X-10.74981 Y-39.94117
G01 X-10.76422 Y-39.95420
G01 X-10.83414 Y-40.00856
G01 X-10.84616 Y-40.01686
G01 X-10.85901 Y-40.02375
G01 X-10.87615 Y-40.03175
G01 X-11.03506 Y-40.14302
G01 X-11.17224 Y-40.28018
G01 X-11.28349 Y-40.43909
G01 X-11.36551 Y-40.61493
G01 X-11.41570 Y-40.80233
G01 X-11.43262 Y-40.99557
G01 X-11.41570 Y-41.18882
G01 X-11.36551 Y-41.37622
G01 X-11.28349 Y-41.55206
G01 X-11.17224 Y-41.71097
G01 X-11.03506 Y-41.84813
G01 X-10.87605 Y-41.95948
G01 X-10.85431 Y-41.96966
G01 X-10.84021 Y-41.97736
G01 X-10.82718 Y-41.98673
G01 X-10.75863 Y-42.04279
