( pcb2gcode 2.5.0 )
( Software-independent Gcode )

( This file uses only one drill bit. Forced by 'onedrill' option )

G94       (Millimeters per minute feed rate.)
G21       (Units == Millimeters.)
G90       (Absolute coordinates.)
G00 S12000     (RPM spindle speed.)

G00 Z20.00000 (Retract)
T1
M5      (Spindle stop.)
G04 P1.00000
(MSG, Change tool bit to drill size 0.8mm)
M6      (Tool change.)
M0      (Temporary machine stop.)
M3      (Spindle on clockwise.)
G0 Z5.00000
G04 P1.00000

G1 F500.00000
G0 X-2.84000 Y-4.47500
G1 Z-1.36000
G1 Z5.00000
G0 X-2.84000 Y-6.47500
G1 Z-1.36000
G1 Z5.00000
G0 X-2.84000 Y-8.47500
G1 Z-1.36000
G1 Z5.00000
G0 X-2.84000 Y-10.47500
G1 Z-1.36000
G1 Z5.00000
G0 X-6.47500 Y-11.59100
G1 Z-1.36000
G1 Z5.00000
G0 X-11.37700 Y-11.66700
G1 Z-1.36000
G1 Z5.00000
G0 X-14.14600 Y-11.59100
G1 Z-1.36000
G1 Z5.00000
G0 X-13.98800 Y-3.89300
G1 Z-1.36000
G1 Z5.00000
G0 X-2.84000 Y7.23400
G1 Z-1.36000
G1 Z5.00000
G0 X-2.84000 Y9.23400
G1 Z-1.36000
G1 Z5.00000
G0 X-2.84000 Y11.23400
G1 Z-1.36000
G1 Z5.00000
G0 X-2.84000 Y13.23400
G1 Z-1.36000
G1 Z5.00000
G0 X-6.47500 Y6.11800
G1 Z-1.36000
G1 Z5.00000
G0 X-11.37700 Y6.04100
G1 Z-1.36000
G1 Z5.00000
G0 X-14.14600 Y6.11800
G1 Z-1.36000
G1 Z5.00000
G0 X-13.98800 Y13.81600
G1 Z-1.36000
G1 Z5.00000
G0 X-11.37700 Y23.75000
G1 Z-1.36000
G1 Z5.00000
G0 X-14.14600 Y23.82600
G1 Z-1.36000
G1 Z5.00000
G0 X-13.98800 Y31.52400
G1 Z-1.36000
G1 Z5.00000
G0 X-6.47500 Y23.82600
G1 Z-1.36000
G1 Z5.00000
G0 X-2.84000 Y24.94300
G1 Z-1.36000
G1 Z5.00000
G0 X-2.84000 Y26.94300
G1 Z-1.36000
G1 Z5.00000
G0 X-2.84000 Y28.94300
G1 Z-1.36000
G1 Z5.00000
G0 X-2.84000 Y30.94300
G1 Z-1.36000
G1 Z5.00000
G0 X-11.37700 Y41.45900
G1 Z-1.36000
G1 Z5.00000
G0 X-14.14600 Y41.53500
G1 Z-1.36000
G1 Z5.00000
G0 X-13.98800 Y49.23300
G1 Z-1.36000
G1 Z5.00000
G0 X-6.47500 Y41.53500
G1 Z-1.36000
G1 Z5.00000
G0 X-2.84000 Y42.65100
G1 Z-1.36000
G1 Z5.00000
G0 X-2.84000 Y44.65100
G1 Z-1.36000
G1 Z5.00000
G0 X-2.84000 Y46.65100
G1 Z-1.36000
G1 Z5.00000
G0 X-2.84000 Y48.65100
G1 Z-1.36000
G1 Z5.00000
G0 X14.85900 Y48.88900
G1 Z-1.36000
G1 Z5.00000
G0 X21.86900 Y48.66300
G1 Z-1.36000
G1 Z5.00000
G0 X21.92200 Y45.62400
G1 Z-1.36000
G1 Z5.00000
G0 X21.92200 Y43.08400
G1 Z-1.36000
G1 Z5.00000
G0 X30.02200 Y44.26700
G1 Z-1.36000
G1 Z5.00000
G0 X14.85900 Y31.18100
G1 Z-1.36000
G1 Z5.00000
G0 X21.86900 Y30.95400
G1 Z-1.36000
G1 Z5.00000
G0 X21.92200 Y27.91600
G1 Z-1.36000
G1 Z5.00000
G0 X21.92200 Y25.37600
G1 Z-1.36000
G1 Z5.00000
G0 X30.02200 Y26.55800
G1 Z-1.36000
G1 Z5.00000
G0 X14.85900 Y13.47200
G1 Z-1.36000
G1 Z5.00000
G0 X21.86900 Y13.24600
G1 Z-1.36000
G1 Z5.00000
G0 X21.92200 Y10.20700
G1 Z-1.36000
G1 Z5.00000
G0 X21.92200 Y7.66700
G1 Z-1.36000
G1 Z5.00000
G0 X30.02200 Y8.84900
G1 Z-1.36000
G1 Z5.00000
G0 X14.85900 Y-4.23700
G1 Z-1.36000
G1 Z5.00000
G0 X21.86900 Y-4.46300
G1 Z-1.36000
G1 Z5.00000
G0 X21.92200 Y-7.50200
G1 Z-1.36000
G1 Z5.00000
G0 X21.92200 Y-10.04200
G1 Z-1.36000
G1 Z5.00000
G0 X30.02200 Y-8.85900
G1 Z-1.36000
G1 Z5.00000
G0 X14.85900 Y-21.94500
G1 Z-1.36000
G1 Z5.00000
G0 X21.86900 Y-22.17200
G1 Z-1.36000
G1 Z5.00000
G0 X21.92200 Y-25.21000
G1 Z-1.36000
G1 Z5.00000
G0 X21.92200 Y-27.75000
G1 Z-1.36000
G1 Z5.00000
G0 X30.02200 Y-26.56800
G1 Z-1.36000
G1 Z5.00000
G0 X30.02200 Y-44.27700
G1 Z-1.36000
G1 Z5.00000
G0 X21.92200 Y-45.45900
G1 Z-1.36000
G1 Z5.00000
G0 X21.92200 Y-42.91900
G1 Z-1.36000
G1 Z5.00000
G0 X21.86900 Y-39.88000
G1 Z-1.36000
G1 Z5.00000
G0 X14.85900 Y-39.65400
G1 Z-1.36000
G1 Z5.00000
G0 X-2.84000 Y-22.18300
G1 Z-1.36000
G1 Z5.00000
G0 X-2.84000 Y-24.18300
G1 Z-1.36000
G1 Z5.00000
G0 X-2.84000 Y-26.18300
G1 Z-1.36000
G1 Z5.00000
G0 X-2.84000 Y-28.18300
G1 Z-1.36000
G1 Z5.00000
G0 X-13.98800 Y-21.60200
G1 Z-1.36000
G1 Z5.00000
G0 X-14.14600 Y-29.30000
G1 Z-1.36000
G1 Z5.00000
G0 X-11.37700 Y-29.37600
G1 Z-1.36000
G1 Z5.00000
G0 X-6.47500 Y-29.30000
G1 Z-1.36000
G1 Z5.00000
G0 X-13.98800 Y-39.31000
G1 Z-1.36000
G1 Z5.00000
G0 X-14.14600 Y-47.00800
G1 Z-1.36000
G1 Z5.00000
G0 X-11.37700 Y-47.08500
G1 Z-1.36000
G1 Z5.00000
G0 X-6.47500 Y-47.00800
G1 Z-1.36000
G1 Z5.00000
G0 X-2.84000 Y-45.89200
G1 Z-1.36000
G1 Z5.00000
G0 X-2.84000 Y-43.89200
G1 Z-1.36000
G1 Z5.00000
G0 X-2.84000 Y-41.89200
G1 Z-1.36000
G1 Z5.00000
G0 X-2.84000 Y-39.89200
G1 Z-1.36000
G1 Z5.00000

G00 Z20.000 ( All done -- retract )

M5      (Spindle off.)
G04 P1.000000
M9      (Coolant off.)
M2      (Program end.)

