( pcb2gcode 2.5.0 )
( Software-independent Gcode )

( This file uses only one drill bit. Forced by 'onedrill' option )

G94       (Millimeters per minute feed rate.)
G21       (Units == Millimeters.)
G90       (Absolute coordinates.)
G00 S12000     (RPM spindle speed.)

G00 Z20.00000 (Retract)
T1
M5      (Spindle stop.)
G04 P1.00000
(MSG, Change tool bit to drill size 1mm)
M6      (Tool change.)
M0      (Temporary machine stop.)
M3      (Spindle on clockwise.)
G0 Z5.00000
G04 P1.00000

G1 F500.00000
G0 X7.61300 Y3.81000
G1 Z-1.30000
G1 Z5.00000
G0 X7.61300 Y6.35000
G1 Z-1.30000
G1 Z5.00000
G0 X12.60700 Y18.69100
G1 Z-1.30000
G1 Z5.00000
G0 X12.84500 Y23.85100
G1 Z-1.30000
G1 Z5.00000
G0 X12.73400 Y36.52200
G1 Z-1.30000
G1 Z5.00000
G0 X12.75900 Y46.63100
G1 Z-1.30000
G1 Z5.00000
G0 X0.07500 Y55.14700
G1 Z-1.30000
G1 Z5.00000
G0 X-12.97100 Y49.14600
G1 Z-1.30000
G1 Z5.00000
G0 X-13.04700 Y44.16700
G1 Z-1.30000
G1 Z5.00000
G0 X-13.01200 Y36.44900
G1 Z-1.30000
G1 Z5.00000
G0 X-13.01200 Y23.80000
G1 Z-1.30000
G1 Z5.00000
G0 X-13.03700 Y21.26000
G1 Z-1.30000
G1 Z5.00000
G0 X-13.04700 Y18.69100
G1 Z-1.30000
G1 Z5.00000
G0 X-10.16700 Y6.35000
G1 Z-1.30000
G1 Z5.00000
G0 X-10.16700 Y3.81000
G1 Z-1.30000
G1 Z5.00000
G0 X-10.16700 Y1.27000
G1 Z-1.30000
G1 Z5.00000
G0 X-10.16700 Y-1.27000
G1 Z-1.30000
G1 Z5.00000
G0 X-10.16700 Y-3.81000
G1 Z-1.30000
G1 Z5.00000
G0 X-10.16700 Y-6.35000
G1 Z-1.30000
G1 Z5.00000
G0 X-12.45300 Y-15.57000
G1 Z-1.30000
G1 Z5.00000
G0 X-10.32000 Y-15.59600
G1 Z-1.30000
G1 Z5.00000
G0 X-12.45300 Y-18.05900
G1 Z-1.30000
G1 Z5.00000
G0 X-10.32000 Y-18.13600
G1 Z-1.30000
G1 Z5.00000
G0 X-12.45300 Y-20.62500
G1 Z-1.30000
G1 Z5.00000
G0 X-10.32000 Y-20.67600
G1 Z-1.30000
G1 Z5.00000
G0 X-12.45300 Y-23.19000
G1 Z-1.30000
G1 Z5.00000
G0 X-10.32000 Y-23.21600
G1 Z-1.30000
G1 Z5.00000
G0 X-10.32000 Y-25.75600
G1 Z-1.30000
G1 Z5.00000
G0 X-10.32000 Y-28.29600
G1 Z-1.30000
G1 Z5.00000
G0 X-10.32000 Y-30.83600
G1 Z-1.30000
G1 Z5.00000
G0 X-10.32000 Y-33.37600
G1 Z-1.30000
G1 Z5.00000
G0 X-10.32000 Y-35.91600
G1 Z-1.30000
G1 Z5.00000
G0 X-10.42500 Y-54.85300
G1 Z-1.30000
G1 Z5.00000
G0 X-10.32000 Y-48.61600
G1 Z-1.30000
G1 Z5.00000
G0 X-10.32000 Y-46.07600
G1 Z-1.30000
G1 Z5.00000
G0 X-10.32000 Y-43.53600
G1 Z-1.30000
G1 Z5.00000
G0 X-10.32000 Y-40.99600
G1 Z-1.30000
G1 Z5.00000
G0 X-10.32000 Y-38.45600
G1 Z-1.30000
G1 Z5.00000
G0 X4.92000 Y-20.67600
G1 Z-1.30000
G1 Z5.00000
G0 X4.92000 Y-18.13600
G1 Z-1.30000
G1 Z5.00000
G0 X4.92000 Y-15.59600
G1 Z-1.30000
G1 Z5.00000
G0 X7.61300 Y-6.35000
G1 Z-1.30000
G1 Z5.00000
G0 X7.61300 Y-3.81000
G1 Z-1.30000
G1 Z5.00000
G0 X7.61300 Y-1.27000
G1 Z-1.30000
G1 Z5.00000
G0 X7.61300 Y1.27000
G1 Z-1.30000
G1 Z5.00000
G0 X9.23800 Y-15.77300
G1 Z-1.30000
G1 Z5.00000
G0 X9.23800 Y-18.47300
G1 Z-1.30000
G1 Z5.00000
G0 X9.23800 Y-20.85300
G1 Z-1.30000
G1 Z5.00000
G0 X9.23800 Y-23.39300
G1 Z-1.30000
G1 Z5.00000
G0 X4.92000 Y-23.21600
G1 Z-1.30000
G1 Z5.00000
G0 X4.92000 Y-25.75600
G1 Z-1.30000
G1 Z5.00000
G0 X4.92000 Y-28.29600
G1 Z-1.30000
G1 Z5.00000
G0 X4.92000 Y-30.83600
G1 Z-1.30000
G1 Z5.00000
G0 X4.92000 Y-33.37600
G1 Z-1.30000
G1 Z5.00000
G0 X4.92000 Y-35.91600
G1 Z-1.30000
G1 Z5.00000
G0 X4.92000 Y-38.45600
G1 Z-1.30000
G1 Z5.00000
G0 X6.90100 Y-38.48100
G1 Z-1.30000
G1 Z5.00000
G0 X4.92000 Y-40.99600
G1 Z-1.30000
G1 Z5.00000
G0 X4.92000 Y-43.53600
G1 Z-1.30000
G1 Z5.00000
G0 X4.92000 Y-46.07600
G1 Z-1.30000
G1 Z5.00000
G0 X4.92000 Y-48.61600
G1 Z-1.30000
G1 Z5.00000
G0 X10.57500 Y-54.85300
G1 Z-1.30000
G1 Z5.00000

G00 Z20.000 ( All done -- retract )

M5      (Spindle off.)
G04 P1.000000
M9      (Coolant off.)
M2      (Program end.)

