( pcb2gcode 2.5.0 )
( Software-independent Gcode )

G94 ( Millimeters per minute feed rate. )
G21 ( Units == Millimeters. )

G90 ( Absolute coordinates. )
G00 S12000 ( RPM spindle speed. )
G01 F600.00000 ( Feedrate. )


G00 Z20.00000 (Retract to tool change height)
T1
M5      (Spindle stop.)
G04 P1.00000 (Wait for spindle to stop)
(MSG, Change tool bit to mill diameter 0.26000mm)
M6      (Tool change.)
M0      (Temporary machine stop.)
M3 ( Spindle on clockwise. )
G04 P1.00000 (Wait for spindle to get up to speed)
G04 P0 ( dwell for no time -- G64 should not smooth over this point )
G00 Z5.00000 ( retract )

G00 X6.18127 Y-13.91920 ( rapid move to begin. )
G01 F300.00000
( Mill infeed pass 1/1 )
G01 Z-0.05000
G04 P0 ( dwell for no time -- G64 should not smooth over this point )
G01 F600.00000
G01 X6.18127 Y-13.91920
G01 X6.18127 Y25.19680
G01 X6.18167 Y25.20699
G01 X6.18538 Y25.25392
G01 X6.18856 Y25.27407
G01 X6.19956 Y25.31984
G01 X6.20585 Y25.33924
G01 X6.22386 Y25.38273
G01 X6.23313 Y25.40089
G01 X6.25772 Y25.44105
G01 X6.26971 Y25.45756
G01 X6.30029 Y25.49335
G01 X6.30723 Y25.50084
G01 X7.47232 Y26.66594
G01 X7.48177 Y26.67452
G01 X7.52724 Y26.71181
G01 X7.54842 Y26.72598
G01 X7.60029 Y26.75369
G01 X7.61182 Y26.75915
G01 X7.62384 Y26.76345
G01 X7.68012 Y26.78052
G01 X7.70512 Y26.78549
G01 X7.76364 Y26.79126
G01 X7.77639 Y26.79189
G01 X10.55510 Y26.79189
G01 X10.55510 Y27.11188
G01 X10.55759 Y27.13726
G01 X10.56498 Y27.16164
G01 X10.57699 Y27.18412
G01 X10.59317 Y27.20381
G01 X10.61286 Y27.21999
G01 X10.63534 Y27.23200
G01 X10.65972 Y27.23939
G01 X10.68509 Y27.24188
G01 X13.08509 Y27.24188
G01 X13.11044 Y27.23939
G01 X13.13485 Y27.23200
G01 X13.15730 Y27.21999
G01 X13.17701 Y27.20381
G01 X13.19317 Y27.18412
G01 X13.20518 Y27.16164
G01 X13.21260 Y27.13726
G01 X13.21509 Y27.11188
G01 X13.21509 Y25.61189
G01 X13.21260 Y25.58654
G01 X13.20518 Y25.56213
G01 X13.19317 Y25.53965
G01 X13.17701 Y25.51996
G01 X13.15730 Y25.50378
G01 X13.13485 Y25.49180
G01 X13.11044 Y25.48438
G01 X13.08509 Y25.48186
G01 X10.68509 Y25.48186
G01 X10.65972 Y25.48438
G01 X10.63534 Y25.49180
G01 X10.61286 Y25.50378
G01 X10.59317 Y25.51996
G01 X10.57699 Y25.53965
G01 X10.56498 Y25.56213
G01 X10.55759 Y25.58654
G01 X10.55510 Y25.61189
G01 X10.55510 Y25.93188
G01 X7.95449 Y25.93188
G01 X7.04129 Y25.01867
G01 X7.04129 Y-13.74107
G01 X8.46579 Y-15.16558
G01 X9.45627 Y-15.16558
G01 X9.50811 Y-15.06863
G01 X9.52226 Y-15.04744
G01 X9.62650 Y-14.92042
G01 X9.63506 Y-14.91097
G01 X9.64451 Y-14.90241
G01 X9.77153 Y-14.79817
G01 X9.79272 Y-14.78399
G01 X9.93765 Y-14.70655
G01 X9.94918 Y-14.70109
G01 X9.96119 Y-14.69680
G01 X10.11842 Y-14.64909
G01 X10.14341 Y-14.64412
G01 X10.30694 Y-14.62801
G01 X10.31969 Y-14.62738
G01 X10.33244 Y-14.62801
G01 X10.49597 Y-14.64412
G01 X10.52096 Y-14.64909
G01 X10.67819 Y-14.69680
G01 X10.69020 Y-14.70109
G01 X10.70173 Y-14.70655
G01 X10.84664 Y-14.78399
G01 X10.86785 Y-14.79817
G01 X10.99485 Y-14.90241
G01 X11.00430 Y-14.91097
G01 X11.01288 Y-14.92042
G01 X11.11712 Y-15.04744
G01 X11.13127 Y-15.06863
G01 X11.16952 Y-15.14018
G01 X11.57656 Y-15.14018
G01 X11.63188 Y-15.03667
G01 X11.64605 Y-15.01549
G01 X11.75177 Y-14.88669
G01 X11.76033 Y-14.87721
G01 X11.76978 Y-14.86865
G01 X11.89858 Y-14.76294
G01 X11.90884 Y-14.75534
G01 X11.91976 Y-14.74879
G01 X12.06673 Y-14.67025
G01 X12.09027 Y-14.66050
G01 X12.24973 Y-14.61211
G01 X12.26210 Y-14.60901
G01 X12.27473 Y-14.60713
G01 X12.44054 Y-14.59080
G01 X12.46604 Y-14.59080
G01 X12.63185 Y-14.60713
G01 X12.64448 Y-14.60901
G01 X12.65685 Y-14.61211
G01 X12.81631 Y-14.66050
G01 X12.83985 Y-14.67025
G01 X12.98679 Y-14.74879
G01 X13.00798 Y-14.76294
G01 X13.13680 Y-14.86865
G01 X13.14623 Y-14.87721
G01 X13.15481 Y-14.88669
G01 X13.26053 Y-15.01549
G01 X13.27468 Y-15.03667
G01 X13.35324 Y-15.18364
G01 X13.35870 Y-15.19517
G01 X13.36299 Y-15.20716
G01 X13.41135 Y-15.36662
G01 X13.41633 Y-15.39161
G01 X13.43266 Y-15.55745
G01 X13.43266 Y-15.58293
G01 X13.41633 Y-15.74876
G01 X13.41135 Y-15.77376
G01 X13.36299 Y-15.93322
G01 X13.35870 Y-15.94521
G01 X13.35324 Y-15.95674
G01 X13.27468 Y-16.10370
G01 X13.26053 Y-16.12489
G01 X13.15481 Y-16.25369
G01 X13.14623 Y-16.26316
G01 X13.13680 Y-16.27172
G01 X13.00798 Y-16.37744
G01 X12.98679 Y-16.39159
G01 X12.83985 Y-16.47012
G01 X12.81631 Y-16.47988
G01 X12.65685 Y-16.52826
G01 X12.64448 Y-16.53136
G01 X12.63185 Y-16.53324
G01 X12.46604 Y-16.54957
G01 X12.44054 Y-16.54957
G01 X12.27473 Y-16.53324
G01 X12.26210 Y-16.53136
G01 X12.24973 Y-16.52826
G01 X12.09027 Y-16.47988
G01 X12.06673 Y-16.47012
G01 X11.91976 Y-16.39159
G01 X11.90884 Y-16.38503
G01 X11.89858 Y-16.37744
G01 X11.76978 Y-16.27172
G01 X11.76033 Y-16.26316
G01 X11.75177 Y-16.25369
G01 X11.64605 Y-16.12489
G01 X11.63188 Y-16.10370
G01 X11.57656 Y-16.00020
G01 X11.19668 Y-16.00020
G01 X11.13127 Y-16.12255
G01 X11.11712 Y-16.14373
G01 X11.01288 Y-16.27076
G01 X11.00430 Y-16.28021
G01 X10.99485 Y-16.28877
G01 X10.86785 Y-16.39301
G01 X10.84664 Y-16.40718
G01 X10.70173 Y-16.48463
G01 X10.69020 Y-16.49009
G01 X10.67819 Y-16.49438
G01 X10.52096 Y-16.54208
G01 X10.49597 Y-16.54706
G01 X10.33244 Y-16.56316
G01 X10.31969 Y-16.56380
G01 X10.30694 Y-16.56316
G01 X10.14341 Y-16.54706
G01 X10.11842 Y-16.54208
G01 X9.96119 Y-16.49438
G01 X9.94918 Y-16.49009
G01 X9.93765 Y-16.48463
G01 X9.79272 Y-16.40718
G01 X9.77153 Y-16.39301
G01 X9.64451 Y-16.28877
G01 X9.63506 Y-16.28021
G01 X9.62650 Y-16.27076
G01 X9.52226 Y-16.14373
G01 X9.50811 Y-16.12255
G01 X9.45627 Y-16.02560
G01 X8.28769 Y-16.02560
G01 X8.27748 Y-16.02519
G01 X8.23054 Y-16.02148
G01 X8.21040 Y-16.01831
G01 X8.16463 Y-16.00731
G01 X8.14522 Y-16.00101
G01 X8.10174 Y-15.98300
G01 X8.08355 Y-15.97373
G01 X8.04342 Y-15.94914
G01 X8.02691 Y-15.93715
G01 X7.99112 Y-15.90657
G01 X7.98363 Y-15.89964
G01 X6.30723 Y-14.22324
G01 X6.29864 Y-14.21379
G01 X6.26135 Y-14.16832
G01 X6.24718 Y-14.14714
G01 X6.21947 Y-14.09527
G01 X6.21401 Y-14.08374
G01 X6.20972 Y-14.07173
G01 X6.19265 Y-14.01544
G01 X6.18767 Y-13.99045
G01 X6.18190 Y-13.93193
G01 X6.18127 Y-13.91920
G01 X6.05127 Y-13.91920
G01 X6.05127 Y25.19680
G01 X6.05208 Y25.21720
G01 X6.05577 Y25.26411
G01 X6.06214 Y25.30442
G01 X6.07314 Y25.35019
G01 X6.08576 Y25.38900
G01 X6.10377 Y25.43249
G01 X6.12229 Y25.46883
G01 X6.14688 Y25.50894
G01 X6.17085 Y25.54199
G01 X6.20144 Y25.57777
G01 X6.21530 Y25.59276
G01 X7.38040 Y26.75786
G01 X7.39930 Y26.77500
G01 X7.44477 Y26.81232
G01 X7.48713 Y26.84064
G01 X7.53900 Y26.86835
G01 X7.56206 Y26.87925
G01 X7.58609 Y26.88786
G01 X7.64238 Y26.90492
G01 X7.69236 Y26.91488
G01 X7.75089 Y26.92062
G01 X7.77639 Y26.92189
G01 X10.42510 Y26.92189
G01 X10.46145 Y26.88476
G01 X10.42510 Y26.92189
G01 X10.42510 Y27.11188
G01 X10.43008 Y27.16261
G01 X10.44489 Y27.21138
G01 X10.46891 Y27.25633
G01 X10.50125 Y27.29573
G01 X10.54064 Y27.32806
G01 X10.58558 Y27.35209
G01 X10.63437 Y27.36690
G01 X10.68509 Y27.37188
G01 X13.08509 Y27.37188
G01 X13.13581 Y27.36690
G01 X13.18458 Y27.35209
G01 X13.22954 Y27.32806
G01 X13.26891 Y27.29573
G01 X13.30127 Y27.25633
G01 X13.32530 Y27.21138
G01 X13.34008 Y27.16261
G01 X13.34508 Y27.11188
G01 X13.34508 Y25.61189
G01 X13.34008 Y25.56116
G01 X13.32530 Y25.51237
G01 X13.30127 Y25.46744
G01 X13.26891 Y25.42804
G01 X13.22954 Y25.39571
G01 X13.18458 Y25.37168
G01 X13.13581 Y25.35687
G01 X13.08509 Y25.35189
G01 X10.68509 Y25.35189
G01 X10.63437 Y25.35687
G01 X10.58558 Y25.37168
G01 X10.54064 Y25.39571
G01 X10.50125 Y25.42804
G01 X10.46891 Y25.46744
G01 X10.44489 Y25.51237
G01 X10.43008 Y25.56116
G01 X10.42510 Y25.61189
G01 X10.42510 Y25.80188
G01 X10.46145 Y25.83901
G01 X10.42510 Y25.80188
G01 X8.00834 Y25.80188
G01 X8.00423 Y25.81176
G01 X8.00834 Y25.80188
G01 X7.17128 Y24.96482
G01 X7.16138 Y24.96894
G01 X7.17128 Y24.96482
G01 X7.17128 Y-13.68722
G01 X7.16138 Y-13.69134
G01 X7.17128 Y-13.68722
G01 X8.51964 Y-15.03558
G01 X8.51553 Y-15.04549
G01 X8.51964 Y-15.03558
G01 X9.37837 Y-15.03558
G01 X9.38505 Y-15.04912
G01 X9.37837 Y-15.03558
G01 X9.39345 Y-15.00734
G01 X9.42177 Y-14.96497
G01 X9.52602 Y-14.83794
G01 X9.54314 Y-14.81905
G01 X9.56206 Y-14.80190
G01 X9.68906 Y-14.69766
G01 X9.70956 Y-14.68247
G01 X9.73145 Y-14.66934
G01 X9.87636 Y-14.59189
G01 X9.89942 Y-14.58097
G01 X9.92345 Y-14.57239
G01 X10.08070 Y-14.52469
G01 X10.13069 Y-14.51475
G01 X10.29421 Y-14.49865
G01 X10.31969 Y-14.49738
G01 X10.34517 Y-14.49865
G01 X10.50869 Y-14.51475
G01 X10.55868 Y-14.52469
G01 X10.71593 Y-14.57239
G01 X10.73996 Y-14.58097
G01 X10.76302 Y-14.59189
G01 X10.90793 Y-14.66934
G01 X10.92982 Y-14.68247
G01 X10.95032 Y-14.69766
G01 X11.07732 Y-14.80190
G01 X11.11336 Y-14.83794
G01 X11.21761 Y-14.96497
G01 X11.23282 Y-14.98547
G01 X11.24593 Y-15.00734
G01 X11.24745 Y-15.01018
G01 X11.24100 Y-15.02339
G01 X11.24745 Y-15.01018
G01 X11.49863 Y-15.01018
G01 X11.50544 Y-15.02382
G01 X11.49863 Y-15.01018
G01 X11.51725 Y-14.97538
G01 X11.54554 Y-14.93302
G01 X11.65126 Y-14.80421
G01 X11.66840 Y-14.78529
G01 X11.68730 Y-14.76817
G01 X11.81611 Y-14.66245
G01 X11.83660 Y-14.64727
G01 X11.85850 Y-14.63413
G01 X12.00544 Y-14.55560
G01 X12.05253 Y-14.53609
G01 X12.21199 Y-14.48770
G01 X12.26198 Y-14.47777
G01 X12.42781 Y-14.46144
G01 X12.45329 Y-14.46019
G01 X12.47877 Y-14.46144
G01 X12.64460 Y-14.47777
G01 X12.69459 Y-14.48770
G01 X12.85405 Y-14.53609
G01 X12.90114 Y-14.55560
G01 X13.04808 Y-14.63413
G01 X13.06995 Y-14.64727
G01 X13.09045 Y-14.66245
G01 X13.21928 Y-14.76817
G01 X13.23818 Y-14.78529
G01 X13.25529 Y-14.80421
G01 X13.36101 Y-14.93302
G01 X13.38933 Y-14.97538
G01 X13.46789 Y-15.12235
G01 X13.47879 Y-15.14541
G01 X13.48740 Y-15.16944
G01 X13.53576 Y-15.32887
G01 X13.54569 Y-15.37889
G01 X13.56203 Y-15.54470
G01 X13.56330 Y-15.57020
G01 X13.56203 Y-15.59568
G01 X13.54569 Y-15.76149
G01 X13.53576 Y-15.81150
G01 X13.48740 Y-15.97094
G01 X13.47879 Y-15.99496
G01 X13.46789 Y-16.01803
G01 X13.38933 Y-16.16499
G01 X13.36101 Y-16.20736
G01 X13.25529 Y-16.33616
G01 X13.23818 Y-16.35509
G01 X13.21928 Y-16.37221
G01 X13.09045 Y-16.47792
G01 X13.06995 Y-16.49311
G01 X13.04808 Y-16.50624
G01 X12.90114 Y-16.58478
G01 X12.85405 Y-16.60428
G01 X12.69459 Y-16.65267
G01 X12.64460 Y-16.66260
G01 X12.47877 Y-16.67894
G01 X12.45329 Y-16.68018
G01 X12.42781 Y-16.67894
G01 X12.26198 Y-16.66260
G01 X12.21199 Y-16.65267
G01 X12.05253 Y-16.60428
G01 X12.00544 Y-16.58478
G01 X11.85850 Y-16.50624
G01 X11.83660 Y-16.49311
G01 X11.81611 Y-16.47792
G01 X11.68730 Y-16.37221
G01 X11.66840 Y-16.35509
G01 X11.65126 Y-16.33616
G01 X11.54554 Y-16.20736
G01 X11.51725 Y-16.16499
G01 X11.49863 Y-16.13019
G01 X11.50803 Y-16.11351
G01 X11.49863 Y-16.13019
G01 X11.27460 Y-16.13019
G01 X11.26490 Y-16.11315
G01 X11.27460 Y-16.13019
G01 X11.24593 Y-16.18384
G01 X11.23282 Y-16.20571
G01 X11.21761 Y-16.22621
G01 X11.11336 Y-16.35323
G01 X11.07732 Y-16.38927
G01 X10.95032 Y-16.49352
G01 X10.92982 Y-16.50870
G01 X10.90793 Y-16.52184
G01 X10.76302 Y-16.59928
G01 X10.73996 Y-16.61020
G01 X10.71593 Y-16.61879
G01 X10.55868 Y-16.66649
G01 X10.50869 Y-16.67642
G01 X10.34517 Y-16.69252
G01 X10.31969 Y-16.69379
G01 X10.29421 Y-16.69252
G01 X10.13069 Y-16.67642
G01 X10.08070 Y-16.66649
G01 X9.92345 Y-16.61879
G01 X9.89942 Y-16.61020
G01 X9.87636 Y-16.59928
G01 X9.73145 Y-16.52184
G01 X9.70956 Y-16.50870
G01 X9.68906 Y-16.49352
G01 X9.56206 Y-16.38927
G01 X9.52602 Y-16.35323
G01 X9.42177 Y-16.22621
G01 X9.40656 Y-16.20571
G01 X9.39345 Y-16.18384
G01 X9.37837 Y-16.15559
G01 X9.38525 Y-16.14180
G01 X9.37837 Y-16.15559
G01 X8.28769 Y-16.15559
G01 X8.26727 Y-16.15478
G01 X8.22035 Y-16.15110
G01 X8.18004 Y-16.14472
G01 X8.13427 Y-16.13372
G01 X8.09546 Y-16.12110
G01 X8.05198 Y-16.10309
G01 X8.01563 Y-16.08458
G01 X7.97550 Y-16.05999
G01 X7.94248 Y-16.03601
G01 X7.90669 Y-16.00543
G01 X7.89170 Y-15.99156
G01 X6.21530 Y-14.31516
G01 X6.19816 Y-14.29626
G01 X6.16085 Y-14.25080
G01 X6.13253 Y-14.20843
G01 X6.10481 Y-14.15656
G01 X6.09392 Y-14.13350
G01 X6.08531 Y-14.10947
G01 X6.06824 Y-14.05318
G01 X6.05828 Y-14.00320
G01 X6.05254 Y-13.94468
G01 X6.05127 Y-13.91920
G01 X5.92127 Y-13.91920
G01 X5.79128 Y-13.91920
G01 X5.66128 Y-13.91920
G01 X5.59676 Y-13.91839
G01 X5.59676 Y25.19614
G01 X5.59796 Y25.25639
G01 X5.59973 Y25.30152
G01 X5.60929 Y25.42243
G01 X5.61457 Y25.46698
G01 X5.63420 Y25.59083
G01 X5.64325 Y25.63630
G01 X5.64909 Y25.66393
G01 X5.69354 Y25.72352
G01 X5.72155 Y25.75903
G01 X5.80314 Y25.85461
G01 X5.83382 Y25.88778
G01 X5.87662 Y25.93228
G01 X7.04073 Y27.09639
G01 X7.09684 Y27.14981
G01 X7.13870 Y27.18775
G01 X7.26082 Y27.28791
G01 X7.30601 Y27.32141
G01 X7.36356 Y27.35984
G01 X7.43514 Y27.38547
G01 X7.49143 Y27.40254
G01 X7.64139 Y27.43236
G01 X7.69993 Y27.43812
G01 X7.77639 Y27.44188
G01 X9.98131 Y27.44188
G01 X9.99114 Y27.42481
G01 X9.98131 Y27.44188
G01 X10.03653 Y27.54523
G01 X10.05431 Y27.56687
G01 X10.22167 Y27.56687
G01 X10.05431 Y27.56687
G01 X7.77687 Y27.56687
G01 X7.73331 Y27.56621
G01 X7.71007 Y27.55552
G01 X7.65531 Y27.52961
G01 X7.49351 Y27.44325
G01 X7.44428 Y27.41374
G01 X7.36356 Y27.35984
G01 X7.44428 Y27.41374
G01 X7.49351 Y27.44325
G01 X7.65531 Y27.52961
G01 X7.71007 Y27.55552
G01 X7.73331 Y27.56621
G01 X7.77687 Y27.56687
G01 X10.05431 Y27.56687
G01 X10.22167 Y27.56687
G01 X10.43851 Y27.56687
G01 X13.33167 Y27.56687
G01 X13.37399 Y27.54424
G01 X13.45278 Y27.47957
G01 X13.51745 Y27.40078
G01 X13.56550 Y27.31089
G01 X13.59510 Y27.21333
G01 X13.60508 Y27.11188
G01 X13.60508 Y25.61189
G01 X13.59510 Y25.51044
G01 X13.56550 Y25.41290
G01 X13.51745 Y25.32299
G01 X13.45278 Y25.24420
G01 X13.42847 Y25.22423
G01 X13.50249 Y25.23698
G01 X13.63566 Y25.26970
G01 X13.65509 Y25.27447
G01 X13.80808 Y25.32121
G01 X13.87767 Y25.34247
G01 X13.95860 Y25.37170
G01 X14.10670 Y25.42520
G01 X14.18979 Y25.45519
G01 X14.50878 Y25.58291
G01 X14.51239 Y25.58448
G01 X14.64508 Y25.64234
G01 X14.64508 Y27.11188
G01 X14.61511 Y27.41623
G01 X14.56941 Y27.56687
G01 X14.61511 Y27.41623
G01 X14.64508 Y27.11188
G01 X14.64508 Y25.64234
G01 X14.51239 Y25.58448
G01 X14.51508 Y25.61189
G01 X14.51508 Y27.11188
G01 X14.48760 Y27.39088
G01 X14.43421 Y27.56687
G01 X14.29903 Y27.56687
G01 X14.36012 Y27.36550
G01 X14.38509 Y27.11188
G01 X14.38509 Y25.61189
G01 X14.37703 Y25.53017
G01 X14.18979 Y25.45519
G01 X14.24170 Y25.47600
G01 X14.25509 Y25.61189
G01 X14.25509 Y27.11188
G01 X14.23261 Y27.34015
G01 X14.16604 Y27.55963
G01 X14.16215 Y27.56687
G01 X14.01547 Y27.56687
G01 X14.04592 Y27.50988
G01 X14.10510 Y27.31478
G01 X14.12509 Y27.11188
G01 X14.12509 Y25.61189
G01 X14.10670 Y25.42520
G01 X13.95860 Y25.37170
G01 X13.97759 Y25.43434
G01 X13.99510 Y25.61189
G01 X13.99510 Y27.11188
G01 X13.97759 Y27.28943
G01 X13.92583 Y27.46012
G01 X13.86876 Y27.56687
G01 X13.71587 Y27.56687
G01 X13.73363 Y27.54523
G01 X13.80571 Y27.41038
G01 X13.85011 Y27.26406
G01 X13.86510 Y27.11188
G01 X13.86510 Y25.61189
G01 X13.85011 Y25.45972
G01 X13.80808 Y25.32121
G01 X13.65509 Y25.27447
G01 X13.63566 Y25.26970
G01 X13.68562 Y25.36314
G01 X13.72260 Y25.48509
G01 X13.73508 Y25.61189
G01 X13.73508 Y27.11188
G01 X13.72260 Y27.23871
G01 X13.68562 Y27.36063
G01 X13.62555 Y27.47300
G01 X13.54851 Y27.56687
G01 X13.33167 Y27.56687
G01 X13.54851 Y27.56687
G01 X13.71587 Y27.56687
G01 X13.86876 Y27.56687
G01 X14.01547 Y27.56687
G01 X14.16215 Y27.56687
G01 X14.29903 Y27.56687
G01 X14.43421 Y27.56687
G01 X14.56941 Y27.56687
G01 X14.70462 Y27.56687
G01 X14.74262 Y27.44160
G01 X14.77508 Y27.11188
G01 X14.77508 Y25.69634
G01 X14.90508 Y25.74745
G01 X14.90508 Y27.11188
G01 X14.87013 Y27.46695
G01 X14.83980 Y27.56687
G01 X14.70462 Y27.56687
G01 X14.83980 Y27.56687
G01 X14.92446 Y27.56687
G01 X14.92448 Y25.75507
G01 X14.90508 Y25.74745
G01 X14.77508 Y25.69634
G01 X14.71407 Y25.67236
G01 X14.71186 Y25.67142
G01 X14.51239 Y25.58448
G01 X14.50878 Y25.58291
G01 X14.18979 Y25.45519
G01 X14.10670 Y25.42520
G01 X13.95860 Y25.37170
G01 X13.87767 Y25.34247
G01 X13.80808 Y25.32121
G01 X13.65509 Y25.27447
G01 X13.63566 Y25.26970
G01 X13.50249 Y25.23698
G01 X13.42847 Y25.22423
G01 X13.32349 Y25.20617
G01 X13.22311 Y25.19665
G01 X13.08590 Y25.19345
G01 X13.06253 Y25.19459
G01 X13.05933 Y25.19467
G01 X12.96482 Y25.19467
G01 X12.96162 Y25.19459
G01 X12.79497 Y25.18656
G01 X12.79180 Y25.18616
G01 X12.69472 Y25.17658
G01 X12.69157 Y25.17620
G01 X12.56134 Y25.15687
G01 X10.43856 Y25.15687
G01 X10.22170 Y25.15687
G01 X10.14463 Y25.25078
G01 X10.08456 Y25.36314
G01 X10.06978 Y25.41186
G01 X10.08281 Y25.43228
G01 X10.06978 Y25.41186
G01 X8.16988 Y25.41186
G01 X8.16577 Y25.42179
G01 X8.16988 Y25.41186
G01 X7.56128 Y24.80328
G01 X7.55137 Y24.80739
G01 X7.56128 Y24.80328
G01 X7.56128 Y-13.52568
G01 X7.55137 Y-13.52979
G01 X7.56128 Y-13.52568
G01 X8.68119 Y-14.64559
G01 X8.67707 Y-14.65550
G01 X8.68119 Y-14.64559
G01 X9.17936 Y-14.64559
G01 X9.18479 Y-14.65743
G01 X9.17936 Y-14.64559
G01 X9.22454 Y-14.59055
G01 X9.26737 Y-14.54328
G01 X9.31464 Y-14.50043
G01 X9.44166 Y-14.39619
G01 X9.54761 Y-14.32540
G01 X9.69251 Y-14.24795
G01 X9.75017 Y-14.22067
G01 X9.81024 Y-14.19918
G01 X9.96747 Y-14.15148
G01 X10.09246 Y-14.12662
G01 X10.25599 Y-14.11051
G01 X10.31969 Y-14.10739
G01 X10.38339 Y-14.11051
G01 X10.54692 Y-14.12662
G01 X10.67189 Y-14.15148
G01 X10.82914 Y-14.19918
G01 X10.88921 Y-14.22067
G01 X10.94687 Y-14.24795
G01 X11.09177 Y-14.32540
G01 X11.19772 Y-14.39619
G01 X11.32474 Y-14.50043
G01 X11.36653 Y-14.53832
G01 X11.36739 Y-14.57574
G01 X11.36653 Y-14.53832
G01 X11.39264 Y-14.50952
G01 X11.43988 Y-14.46670
G01 X11.56871 Y-14.36098
G01 X11.61994 Y-14.32298
G01 X11.67465 Y-14.29019
G01 X11.82159 Y-14.21163
G01 X11.93932 Y-14.16289
G01 X12.09878 Y-14.11450
G01 X12.16066 Y-14.09901
G01 X12.22375 Y-14.08966
G01 X12.38959 Y-14.07333
G01 X12.45329 Y-14.07018
G01 X12.51699 Y-14.07333
G01 X12.68283 Y-14.08966
G01 X12.74592 Y-14.09901
G01 X12.80780 Y-14.11450
G01 X12.96726 Y-14.16289
G01 X13.08499 Y-14.21163
G01 X13.23193 Y-14.29019
G01 X13.28664 Y-14.32298
G01 X13.33787 Y-14.36098
G01 X13.46667 Y-14.46670
G01 X13.51394 Y-14.50952
G01 X13.55679 Y-14.55679
G01 X13.66248 Y-14.68559
G01 X13.73330 Y-14.79154
G01 X13.81183 Y-14.93850
G01 X13.83911 Y-14.99616
G01 X13.86060 Y-15.05623
G01 X13.90896 Y-15.21567
G01 X13.93383 Y-15.34066
G01 X13.95016 Y-15.50647
G01 X13.95329 Y-15.57020
G01 X13.95016 Y-15.63390
G01 X13.93383 Y-15.79971
G01 X13.90896 Y-15.92471
G01 X13.86060 Y-16.08414
G01 X13.83911 Y-16.14421
G01 X13.81183 Y-16.20187
G01 X13.73330 Y-16.34884
G01 X13.66248 Y-16.45478
G01 X13.55679 Y-16.58358
G01 X13.51394 Y-16.63085
G01 X13.46667 Y-16.67368
G01 X13.37396 Y-16.74978
G01 X13.57607 Y-16.74978
G01 X13.60587 Y-16.72278
G01 X13.65728 Y-16.66606
G01 X13.76299 Y-16.53725
G01 X13.84793 Y-16.41010
G01 X13.92649 Y-16.26316
G01 X13.95921 Y-16.19397
G01 X13.98499 Y-16.12189
G01 X14.03337 Y-15.96243
G01 X14.06319 Y-15.81247
G01 X14.07952 Y-15.64663
G01 X14.08328 Y-15.57020
G01 X14.07952 Y-15.49375
G01 X14.06319 Y-15.32791
G01 X14.03337 Y-15.17795
G01 X13.98499 Y-15.01849
G01 X13.95921 Y-14.94640
G01 X13.92649 Y-14.87721
G01 X13.84793 Y-14.73027
G01 X13.76299 Y-14.60312
G01 X13.65728 Y-14.47432
G01 X13.60587 Y-14.41760
G01 X13.54915 Y-14.36619
G01 X13.42034 Y-14.26050
G01 X13.35888 Y-14.21488
G01 X13.29322 Y-14.17554
G01 X13.14623 Y-14.09700
G01 X13.00498 Y-14.03848
G01 X12.84554 Y-13.99012
G01 X12.77127 Y-13.97150
G01 X12.69556 Y-13.96027
G01 X12.52974 Y-13.94394
G01 X12.45329 Y-13.94018
G01 X12.37684 Y-13.94394
G01 X12.21100 Y-13.96027
G01 X12.13528 Y-13.97150
G01 X12.06104 Y-13.99012
G01 X11.90158 Y-14.03848
G01 X11.76033 Y-14.09700
G01 X11.61336 Y-14.17554
G01 X11.54770 Y-14.21488
G01 X11.48624 Y-14.26050
G01 X11.36175 Y-14.36263
G01 X11.36246 Y-14.39596
G01 X11.36175 Y-14.36263
G01 X11.28019 Y-14.29570
G01 X11.15306 Y-14.21074
G01 X11.00813 Y-14.13330
G01 X10.93894 Y-14.10056
G01 X10.86688 Y-14.07477
G01 X10.70963 Y-14.02707
G01 X10.55967 Y-13.99725
G01 X10.39614 Y-13.98115
G01 X10.31969 Y-13.97739
G01 X10.24324 Y-13.98115
G01 X10.07971 Y-13.99725
G01 X9.92975 Y-14.02707
G01 X9.77250 Y-14.07477
G01 X9.70044 Y-14.10056
G01 X9.63122 Y-14.13330
G01 X9.48632 Y-14.21074
G01 X9.35919 Y-14.29570
G01 X9.23216 Y-14.39995
G01 X9.17545 Y-14.45136
G01 X9.12404 Y-14.50807
G01 X9.11786 Y-14.51559
G01 X9.12127 Y-14.52435
G01 X9.11786 Y-14.51559
G01 X8.73503 Y-14.51559
G01 X8.73092 Y-14.52547
G01 X8.73503 Y-14.51559
G01 X7.69127 Y-13.47183
G01 X7.68139 Y-13.47594
G01 X7.69127 Y-13.47183
G01 X7.69127 Y24.74943
G01 X7.68139 Y24.75354
G01 X7.69127 Y24.74943
G01 X8.22373 Y25.28189
G01 X8.21962 Y25.29177
G01 X8.22373 Y25.28189
G01 X9.98131 Y25.28189
G01 X9.99122 Y25.29914
G01 X9.98131 Y25.28189
G01 X10.03653 Y25.17854
G01 X10.05434 Y25.15687
G01 X10.22170 Y25.15687
G01 X10.05434 Y25.15687
G01 X9.86625 Y25.15687
G01 X9.85368 Y25.15565
G01 X9.84133 Y25.15189
G01 X9.83036 Y25.14608
G01 X9.64283 Y25.02190
G01 X9.49480 Y24.92385
G01 X9.48753 Y24.91829
G01 X9.45777 Y24.89187
G01 X9.31126 Y24.76188
G01 X8.43912 Y24.76188
G01 X8.43501 Y24.77178
G01 X8.43912 Y24.76188
G01 X8.21129 Y24.53404
G01 X8.20138 Y24.53815
G01 X8.21129 Y24.53404
G01 X8.21129 Y7.57481
G01 X8.26851 Y7.76336
G01 X8.26961 Y7.76630
G01 X8.33196 Y7.94060
G01 X8.33313 Y7.94362
G01 X8.34128 Y7.96326
G01 X8.34128 Y24.48019
G01 X8.33138 Y24.48430
G01 X8.34128 Y24.48019
G01 X8.49297 Y24.63188
G01 X8.48886 Y24.64178
G01 X8.49297 Y24.63188
G01 X9.16475 Y24.63188
G01 X9.31126 Y24.76188
G01 X9.16475 Y24.63188
G01 X9.15195 Y24.62050
G01 X9.14913 Y24.61783
G01 X9.03315 Y24.50188
G01 X8.54682 Y24.50188
G01 X8.54271 Y24.51179
G01 X8.54682 Y24.50188
G01 X8.47128 Y24.42634
G01 X8.46138 Y24.43046
G01 X8.47128 Y24.42634
G01 X8.47128 Y8.27273
G01 X8.54248 Y8.42330
G01 X8.54398 Y8.42622
G01 X8.60128 Y8.53310
G01 X8.60128 Y24.37188
G01 X8.56320 Y24.40996
G01 X8.60128 Y24.37188
G01 X8.90316 Y24.37188
G01 X9.03315 Y24.50188
G01 X8.90316 Y24.37188
G01 X8.77316 Y24.24189
G01 X8.73128 Y24.24189
G01 X8.73122 Y8.77550
G01 X8.73128 Y24.24189
G01 X8.69320 Y24.27996
G01 X8.73128 Y24.24189
G01 X8.77316 Y24.24189
G01 X8.75221 Y24.22093
G01 X8.74560 Y24.21316
G01 X8.74027 Y24.20447
G01 X8.73636 Y24.19505
G01 X8.73128 Y24.19713
G01 X8.73636 Y24.19505
G01 X8.73397 Y24.18512
G01 X8.73318 Y24.17496
G01 X8.73310 Y23.07186
G01 X8.73333 Y23.06742
G01 X8.76884 Y22.55187
G01 X8.73333 Y22.03633
G01 X8.73310 Y22.03188
G01 X8.73310 Y20.53186
G01 X8.73333 Y20.52742
G01 X8.76884 Y20.01187
G01 X8.73333 Y19.49633
G01 X8.73310 Y19.49188
G01 X8.73310 Y17.99186
G01 X8.73331 Y17.98782
G01 X8.76280 Y17.51609
G01 X8.76379 Y17.50817
G01 X8.76351 Y17.50814
G01 X8.76379 Y17.50817
G01 X8.85223 Y17.03644
G01 X8.85406 Y17.02902
G01 X8.86127 Y17.00591
G01 X8.99127 Y16.58937
G01 X9.00130 Y16.55724
G01 X9.00397 Y16.55064
G01 X9.12127 Y16.28252
G01 X9.21034 Y16.07891
G01 X9.21324 Y16.07309
G01 X9.25129 Y16.00545
G01 X9.38129 Y15.77437
G01 X9.47859 Y15.60139
G01 X9.48169 Y15.59641
G01 X9.49757 Y15.57330
G01 X9.51128 Y15.55336
G01 X9.64128 Y15.36428
G01 X9.64128 Y10.02408
G01 X9.60806 Y9.98377
G01 X9.61202 Y9.78413
G01 X9.48202 Y9.62637
G01 X9.35403 Y9.47102
G01 X9.35149 Y9.46795
G01 X9.22571 Y9.29833
G01 X9.22416 Y9.29625
G01 X9.09963 Y9.11052
G01 X8.96963 Y8.91664
G01 X8.94789 Y8.88421
G01 X8.84507 Y8.71268
G01 X8.84311 Y8.70905
G01 X8.72373 Y8.48637
G01 X8.65932 Y8.36623
G01 X8.57824 Y8.19485
G01 X8.58881 Y8.21715
G01 X8.68373 Y8.29506
G01 X8.80669 Y8.38627
G01 X8.93801 Y8.46496
G01 X9.09170 Y8.54713
G01 X9.37423 Y8.66414
G01 X9.54100 Y8.71474
G01 X9.84095 Y8.77440
G01 X10.01438 Y8.79147
G01 X10.16729 Y8.79899
G01 X10.22906 Y8.79594
G01 X10.32020 Y8.79147
G01 X10.49363 Y8.77440
G01 X10.64506 Y8.75193
G01 X10.79358 Y8.71474
G01 X10.96033 Y8.66414
G01 X11.24288 Y8.54713
G01 X11.39657 Y8.46496
G01 X11.52787 Y8.38627
G01 X11.65085 Y8.29506
G01 X11.78555 Y8.18449
G01 X12.00180 Y7.96826
G01 X12.11237 Y7.83354
G01 X12.20356 Y7.71058
G01 X12.28227 Y7.57926
G01 X12.36442 Y7.42556
G01 X12.48143 Y7.14304
G01 X12.53203 Y6.97626
G01 X12.59169 Y6.67634
G01 X12.60876 Y6.50288
G01 X12.61628 Y6.35000
G01 X12.60876 Y6.19709
G01 X12.59169 Y6.02364
G01 X12.53203 Y5.72371
G01 X12.48143 Y5.55694
G01 X12.38979 Y5.33568
G01 X12.36442 Y5.27441
G01 X12.29523 Y5.14497
G01 X12.14542 Y5.14497
G01 X12.16762 Y5.18198
G01 X12.24976 Y5.33568
G01 X12.30559 Y5.47050
G01 X12.35705 Y5.59468
G01 X12.40762 Y5.76146
G01 X12.46233 Y6.03639
G01 X12.47940 Y6.20982
G01 X12.48628 Y6.34997
G01 X12.47940 Y6.49016
G01 X12.46233 Y6.66359
G01 X12.44173 Y6.80240
G01 X12.40762 Y6.93852
G01 X12.35705 Y7.10529
G01 X12.24976 Y7.36430
G01 X12.16762 Y7.51799
G01 X12.09545 Y7.63836
G01 X12.01186 Y7.75106
G01 X11.90132 Y7.88579
G01 X11.70308 Y8.08401
G01 X11.56838 Y8.19457
G01 X11.45565 Y8.27816
G01 X11.33528 Y8.35030
G01 X11.18159 Y8.43247
G01 X10.92261 Y8.53973
G01 X10.75583 Y8.59033
G01 X10.61969 Y8.62442
G01 X10.48088 Y8.64502
G01 X10.31298 Y8.66155
G01 X10.30745 Y8.66211
G01 X10.16729 Y8.66899
G01 X10.02713 Y8.66211
G01 X9.85368 Y8.64502
G01 X9.71486 Y8.62442
G01 X9.57875 Y8.59033
G01 X9.41197 Y8.53973
G01 X9.15299 Y8.43247
G01 X8.99930 Y8.35030
G01 X8.87893 Y8.27816
G01 X8.76620 Y8.19457
G01 X8.63148 Y8.08401
G01 X8.46168 Y7.91418
G01 X8.45381 Y7.89526
G01 X8.57824 Y8.19485
G01 X8.45381 Y7.89526
G01 X8.39252 Y7.72399
G01 X8.34174 Y7.55703
G01 X8.31129 Y7.45688
G01 X8.26841 Y7.28571
G01 X8.21947 Y7.04027
G01 X8.19409 Y6.86918
G01 X8.17103 Y6.63567
G01 X8.16262 Y6.46458
G01 X8.23829 Y6.35000
G01 X8.36828 Y6.35000
G01 X8.49828 Y6.35000
G01 X8.62828 Y6.34997
G01 X8.75828 Y6.35000
G01 X8.88830 Y6.34997
G01 X9.01830 Y6.35000
G01 X9.01954 Y6.32450
G01 X9.03661 Y6.15107
G01 X9.04037 Y6.12582
G01 X9.04657 Y6.10108
G01 X9.09716 Y5.93430
G01 X9.11667 Y5.88721
G01 X9.19881 Y5.73352
G01 X9.21192 Y5.71165
G01 X9.22713 Y5.69115
G01 X9.33767 Y5.55643
G01 X9.37372 Y5.52039
G01 X9.50844 Y5.40982
G01 X9.52894 Y5.39463
G01 X9.55083 Y5.38152
G01 X9.70453 Y5.29935
G01 X9.75162 Y5.27985
G01 X9.91837 Y5.22928
G01 X9.94313 Y5.22305
G01 X9.96836 Y5.21932
G01 X10.14181 Y5.20225
G01 X10.19277 Y5.20225
G01 X10.36620 Y5.21932
G01 X10.39144 Y5.22305
G01 X10.41618 Y5.22928
G01 X10.58296 Y5.27985
G01 X10.63005 Y5.29935
G01 X10.78375 Y5.38152
G01 X10.80564 Y5.39463
G01 X10.82614 Y5.40982
G01 X10.96084 Y5.52039
G01 X10.99688 Y5.55643
G01 X11.10745 Y5.69115
G01 X11.12263 Y5.71165
G01 X11.13577 Y5.73352
G01 X11.21791 Y5.88721
G01 X11.23742 Y5.93430
G01 X11.28801 Y6.10108
G01 X11.29795 Y6.15107
G01 X11.31504 Y6.32450
G01 X11.31628 Y6.35000
G01 X11.31504 Y6.37545
G01 X11.29795 Y6.54888
G01 X11.29421 Y6.57416
G01 X11.28801 Y6.59889
G01 X11.23742 Y6.76567
G01 X11.21791 Y6.81276
G01 X11.13577 Y6.96646
G01 X11.12263 Y6.98833
G01 X11.10745 Y7.00883
G01 X10.99688 Y7.14355
G01 X10.96084 Y7.17959
G01 X10.82614 Y7.29016
G01 X10.80564 Y7.30534
G01 X10.78375 Y7.31845
G01 X10.63005 Y7.40062
G01 X10.58296 Y7.42013
G01 X10.41618 Y7.47070
G01 X10.39144 Y7.47692
G01 X10.36620 Y7.48066
G01 X10.19277 Y7.49772
G01 X10.16729 Y7.49899
G01 X10.14181 Y7.49772
G01 X9.96836 Y7.48066
G01 X9.94313 Y7.47692
G01 X9.91837 Y7.47070
G01 X9.75162 Y7.42013
G01 X9.70453 Y7.40062
G01 X9.55083 Y7.31845
G01 X9.52894 Y7.30534
G01 X9.50844 Y7.29016
G01 X9.37372 Y7.17959
G01 X9.33767 Y7.14355
G01 X9.22713 Y7.00883
G01 X9.21192 Y6.98833
G01 X9.19881 Y6.96646
G01 X9.11667 Y6.81276
G01 X9.09716 Y6.76567
G01 X9.04657 Y6.59889
G01 X9.04037 Y6.57416
G01 X9.03661 Y6.54888
G01 X9.01954 Y6.37545
G01 X9.01830 Y6.35000
G01 X9.14829 Y6.34997
G01 X9.14890 Y6.33725
G01 X9.16600 Y6.16382
G01 X9.17097 Y6.13882
G01 X9.22155 Y5.97205
G01 X9.23130 Y5.94850
G01 X9.31347 Y5.79481
G01 X9.32002 Y5.78386
G01 X9.32762 Y5.77362
G01 X9.43818 Y5.63890
G01 X9.45619 Y5.62087
G01 X9.59091 Y5.51033
G01 X9.60115 Y5.50273
G01 X9.61210 Y5.49615
G01 X9.76579 Y5.41401
G01 X9.78934 Y5.40426
G01 X9.95611 Y5.35366
G01 X9.96848 Y5.35056
G01 X9.98111 Y5.34871
G01 X10.15454 Y5.33161
G01 X10.18004 Y5.33161
G01 X10.35347 Y5.34871
G01 X10.36610 Y5.35056
G01 X10.37847 Y5.35366
G01 X10.54524 Y5.40426
G01 X10.56876 Y5.41401
G01 X10.72248 Y5.49615
G01 X10.73340 Y5.50273
G01 X10.74367 Y5.51033
G01 X10.87839 Y5.62087
G01 X10.89640 Y5.63890
G01 X11.00696 Y5.77362
G01 X11.01456 Y5.78386
G01 X11.02111 Y5.79481
G01 X11.10325 Y5.94850
G01 X11.11301 Y5.97205
G01 X11.16360 Y6.13882
G01 X11.16858 Y6.16382
G01 X11.18565 Y6.33725
G01 X11.18629 Y6.35000
G01 X11.18565 Y6.36270
G01 X11.16858 Y6.53613
G01 X11.16670 Y6.54878
G01 X11.16360 Y6.56115
G01 X11.11301 Y6.72793
G01 X11.10325 Y6.75147
G01 X11.02111 Y6.90517
G01 X11.01456 Y6.91612
G01 X11.00696 Y6.92635
G01 X10.89640 Y7.06107
G01 X10.87839 Y7.07911
G01 X10.74367 Y7.18965
G01 X10.73340 Y7.19724
G01 X10.72248 Y7.20382
G01 X10.56876 Y7.28596
G01 X10.54524 Y7.29572
G01 X10.37847 Y7.34631
G01 X10.36610 Y7.34941
G01 X10.35347 Y7.35127
G01 X10.18004 Y7.36836
G01 X10.15454 Y7.36836
G01 X9.98111 Y7.35127
G01 X9.96848 Y7.34941
G01 X9.95611 Y7.34631
G01 X9.78934 Y7.29572
G01 X9.76579 Y7.28596
G01 X9.61210 Y7.20382
G01 X9.60115 Y7.19724
G01 X9.59091 Y7.18965
G01 X9.45619 Y7.07911
G01 X9.43818 Y7.06107
G01 X9.32762 Y6.92635
G01 X9.32002 Y6.91612
G01 X9.31347 Y6.90517
G01 X9.23130 Y6.75147
G01 X9.22155 Y6.72793
G01 X9.17097 Y6.56115
G01 X9.16788 Y6.54878
G01 X9.16600 Y6.53613
G01 X9.14890 Y6.36270
G01 X9.14829 Y6.34997
G01 X9.01830 Y6.35000
G01 X8.88830 Y6.34997
G01 X8.75828 Y6.35000
G01 X8.62828 Y6.34997
G01 X8.49828 Y6.35000
G01 X8.36828 Y6.35000
G01 X8.23829 Y6.35000
G01 X8.16262 Y6.46458
G01 X8.16262 Y6.23540
G01 X8.17103 Y6.06430
G01 X8.19409 Y5.83077
G01 X8.20984 Y5.72450
G01 X8.21947 Y5.65968
G01 X8.26841 Y5.41424
G01 X8.31146 Y5.24236
G01 X8.33704 Y5.15074
G01 X8.34052 Y5.14497
G01 X8.33704 Y5.15074
G01 X8.33867 Y5.14497
G01 X8.34052 Y5.14497
G01 X8.50059 Y5.14497
G01 X8.66633 Y5.14497
G01 X8.83450 Y5.14497
G01 X9.01728 Y5.14497
G01 X9.21642 Y5.14497
G01 X9.44179 Y5.14497
G01 X9.74842 Y5.14497
G01 X10.58616 Y5.14497
G01 X10.89279 Y5.14497
G01 X11.11816 Y5.14497
G01 X11.31727 Y5.14497
G01 X11.50008 Y5.14497
G01 X11.66825 Y5.14497
G01 X11.83396 Y5.14497
G01 X11.99406 Y5.14497
G01 X12.14542 Y5.14497
G01 X12.29523 Y5.14497
G01 X12.44265 Y5.14497
G01 X12.50889 Y5.14497
G01 X12.59004 Y5.14497
G01 X12.73091 Y5.14497
G01 X12.87094 Y5.14497
G01 X13.01097 Y5.14497
G01 X13.15100 Y5.14497
G01 X13.29103 Y5.14497
G01 X13.43106 Y5.14497
G01 X13.57109 Y5.14497
G01 X13.60107 Y5.21731
G01 X13.65166 Y5.38406
G01 X13.75606 Y5.90895
G01 X13.77315 Y6.08241
G01 X13.78628 Y6.34997
G01 X13.77315 Y6.61756
G01 X13.75606 Y6.79102
G01 X13.65166 Y7.31591
G01 X13.60107 Y7.48266
G01 X13.39626 Y7.97710
G01 X13.31412 Y8.13079
G01 X13.17635 Y8.36059
G01 X13.01679 Y8.57578
G01 X12.90622 Y8.71050
G01 X12.52779 Y9.08893
G01 X12.39309 Y9.19947
G01 X12.17790 Y9.35909
G01 X11.94811 Y9.49681
G01 X11.79441 Y9.57895
G01 X11.29998 Y9.78378
G01 X11.13320 Y9.83435
G01 X10.87331 Y9.89945
G01 X10.60831 Y9.93877
G01 X10.43488 Y9.95583
G01 X10.16729 Y9.96899
G01 X9.89970 Y9.95583
G01 X9.74060 Y9.94016
G01 X9.61202 Y9.78413
G01 X9.68527 Y9.66678
G01 X9.75838 Y9.54971
G01 X9.83503 Y9.42696
G01 X9.91189 Y9.30389
G01 X9.98911 Y9.18022
G01 X10.06787 Y9.05408
G01 X10.14661 Y8.92797
G01 X10.22906 Y8.79594
G01 X10.31298 Y8.66155
G01 X10.39990 Y8.52236
G01 X10.48789 Y8.38144
G01 X10.58085 Y8.23257
G01 X10.68299 Y8.06900
G01 X10.79266 Y7.89338
G01 X10.92152 Y7.68703
G01 X11.09934 Y7.40227
G01 X11.52068 Y6.72752
G01 X11.70061 Y6.43936
G01 X11.82865 Y6.23430
G01 X11.93891 Y6.05772
G01 X12.03896 Y5.89752
G01 X12.13201 Y5.74850
G01 X12.22141 Y5.60532
G01 X12.30559 Y5.47050
G01 X12.38979 Y5.33568
G01 X12.47318 Y5.20212
G01 X12.50889 Y5.14497
G01 X12.59007 Y5.01498
G01 X12.59370 Y5.00814
G01 X12.73025 Y4.67850
G01 X12.78085 Y4.51175
G01 X12.82423 Y4.33850
G01 X12.85044 Y4.16182
G01 X12.86751 Y3.98838
G01 X12.87625 Y3.80997
G01 X12.86751 Y3.63159
G01 X12.85044 Y3.45816
G01 X12.78085 Y3.10822
G01 X12.73025 Y2.94147
G01 X12.59370 Y2.61183
G01 X12.59007 Y2.60500
G01 X12.59004 Y2.60497
G01 X12.44265 Y2.60497
G01 X12.47907 Y2.67312
G01 X12.59007 Y2.94109
G01 X12.60584 Y2.97919
G01 X12.65644 Y3.14597
G01 X12.72103 Y3.47091
G01 X12.73815 Y3.64434
G01 X12.74628 Y3.81000
G01 X12.73815 Y3.97563
G01 X12.72103 Y4.14906
G01 X12.69672 Y4.31312
G01 X12.65644 Y4.47401
G01 X12.60584 Y4.64078
G01 X12.59007 Y4.67886
G01 X12.47907 Y4.94685
G01 X12.44265 Y5.01498
G01 X12.29525 Y5.01498
G01 X12.36442 Y4.88556
G01 X12.48143 Y4.60304
G01 X12.53203 Y4.43626
G01 X12.56924 Y4.28777
G01 X12.59007 Y4.14729
G01 X12.59169 Y4.13634
G01 X12.60876 Y3.96288
G01 X12.61628 Y3.81000
G01 X12.60876 Y3.65709
G01 X12.59169 Y3.48364
G01 X12.59007 Y3.47546
G01 X12.53203 Y3.18371
G01 X12.48143 Y3.01694
G01 X12.36442 Y2.73441
G01 X12.29523 Y2.60497
G01 X12.44265 Y2.60497
G01 X12.29523 Y2.60497
G01 X12.14542 Y2.60497
G01 X12.16762 Y2.64198
G01 X12.24976 Y2.79568
G01 X12.35705 Y3.05468
G01 X12.40762 Y3.22146
G01 X12.46233 Y3.49639
G01 X12.47940 Y3.66982
G01 X12.48628 Y3.80997
G01 X12.47940 Y3.95016
G01 X12.46233 Y4.12359
G01 X12.44173 Y4.26240
G01 X12.40762 Y4.39852
G01 X12.35705 Y4.56529
G01 X12.24976 Y4.82430
G01 X12.16762 Y4.97799
G01 X12.14544 Y5.01498
G01 X11.99406 Y5.01498
G01 X12.05296 Y4.91670
G01 X12.13510 Y4.76301
G01 X12.23264 Y4.52758
G01 X12.28324 Y4.36080
G01 X12.31422 Y4.23705
G01 X12.33294 Y4.11084
G01 X12.35004 Y3.93741
G01 X12.35629 Y3.80997
G01 X12.35004 Y3.68257
G01 X12.33294 Y3.50914
G01 X12.28324 Y3.25918
G01 X12.23264 Y3.09240
G01 X12.13510 Y2.85697
G01 X12.05296 Y2.70327
G01 X11.99406 Y2.60497
G01 X12.14542 Y2.60497
G01 X11.99406 Y2.60497
G01 X11.83396 Y2.60497
G01 X11.87928 Y2.66606
G01 X11.93830 Y2.76456
G01 X12.02047 Y2.91826
G01 X12.10823 Y3.13014
G01 X12.15883 Y3.29692
G01 X12.20358 Y3.52186
G01 X12.22065 Y3.69532
G01 X12.22629 Y3.81000
G01 X12.22065 Y3.92466
G01 X12.20358 Y4.09811
G01 X12.18672 Y4.21168
G01 X12.15883 Y4.32305
G01 X12.10823 Y4.48983
G01 X12.02047 Y4.70172
G01 X11.93830 Y4.85541
G01 X11.87928 Y4.95391
G01 X11.83399 Y5.01498
G01 X11.66828 Y5.01498
G01 X11.71039 Y4.96367
G01 X11.77120 Y4.88168
G01 X11.82367 Y4.79415
G01 X11.90582 Y4.64045
G01 X11.98382 Y4.45209
G01 X12.03442 Y4.28531
G01 X12.05923 Y4.18633
G01 X12.07419 Y4.08536
G01 X12.09129 Y3.91193
G01 X12.09629 Y3.81000
G01 X12.09129 Y3.70804
G01 X12.07419 Y3.53461
G01 X12.03442 Y3.33466
G01 X11.98382 Y3.16789
G01 X11.90582 Y2.97952
G01 X11.82367 Y2.82583
G01 X11.77120 Y2.73830
G01 X11.71039 Y2.65631
G01 X11.66825 Y2.60497
G01 X11.83396 Y2.60497
G01 X11.66825 Y2.60497
G01 X11.50008 Y2.60497
G01 X11.60991 Y2.73878
G01 X11.66310 Y2.81051
G01 X11.70902 Y2.88712
G01 X11.79116 Y3.04081
G01 X11.85944 Y3.20563
G01 X11.91001 Y3.37238
G01 X11.94483 Y3.54736
G01 X11.96190 Y3.72080
G01 X11.96630 Y3.80997
G01 X11.96190 Y3.89918
G01 X11.94483 Y4.07261
G01 X11.93173 Y4.16095
G01 X11.91001 Y4.24759
G01 X11.85944 Y4.41434
G01 X11.79116 Y4.57916
G01 X11.70902 Y4.73286
G01 X11.66310 Y4.80946
G01 X11.60991 Y4.88119
G01 X11.50010 Y5.01498
G01 X11.31730 Y5.01498
G01 X11.39886 Y4.93344
G01 X11.50940 Y4.79872
G01 X11.55502 Y4.73723
G01 X11.59436 Y4.67157
G01 X11.67651 Y4.51787
G01 X11.73503 Y4.37662
G01 X11.78563 Y4.20985
G01 X11.80422 Y4.13560
G01 X11.81544 Y4.05989
G01 X11.83254 Y3.88643
G01 X11.83630 Y3.81000
G01 X11.83254 Y3.73355
G01 X11.81544 Y3.56009
G01 X11.78563 Y3.41013
G01 X11.73503 Y3.24335
G01 X11.67651 Y3.10210
G01 X11.59436 Y2.94841
G01 X11.55502 Y2.88275
G01 X11.50940 Y2.82125
G01 X11.39886 Y2.68653
G01 X11.31727 Y2.60497
G01 X11.50008 Y2.60497
G01 X11.31727 Y2.60497
G01 X11.11816 Y2.60497
G01 X11.20826 Y2.67891
G01 X11.29835 Y2.76901
G01 X11.40892 Y2.90373
G01 X11.44692 Y2.95496
G01 X11.47971 Y3.00967
G01 X11.56188 Y3.16337
G01 X11.61062 Y3.28107
G01 X11.66122 Y3.44787
G01 X11.68608 Y3.57284
G01 X11.70315 Y3.74627
G01 X11.70628 Y3.81000
G01 X11.70315 Y3.87370
G01 X11.68608 Y4.04713
G01 X11.67671 Y4.11023
G01 X11.66122 Y4.17210
G01 X11.61062 Y4.33888
G01 X11.56188 Y4.45661
G01 X11.47971 Y4.61030
G01 X11.44692 Y4.66501
G01 X11.40892 Y4.71625
G01 X11.29835 Y4.85097
G01 X11.20826 Y4.94106
G01 X11.11819 Y5.01498
G01 X10.89282 Y5.01498
G01 X10.90633 Y5.00776
G01 X10.95009 Y4.98152
G01 X10.99106 Y4.95112
G01 X11.12578 Y4.84058
G01 X11.19787 Y4.76849
G01 X11.30844 Y4.63377
G01 X11.33884 Y4.59278
G01 X11.36505 Y4.54901
G01 X11.44722 Y4.39532
G01 X11.48624 Y4.30113
G01 X11.53681 Y4.13436
G01 X11.54920 Y4.08488
G01 X11.55670 Y4.03438
G01 X11.57379 Y3.86095
G01 X11.57628 Y3.81000
G01 X11.57379 Y3.75902
G01 X11.55670 Y3.58559
G01 X11.53681 Y3.48562
G01 X11.48624 Y3.31884
G01 X11.44722 Y3.22466
G01 X11.36505 Y3.07096
G01 X11.33884 Y3.02720
G01 X11.30844 Y2.98620
G01 X11.19787 Y2.85148
G01 X11.12578 Y2.77939
G01 X10.99106 Y2.66885
G01 X10.95009 Y2.63845
G01 X10.90633 Y2.61221
G01 X10.89276 Y2.60497
G01 X11.11816 Y2.60497
G01 X10.89276 Y2.60497
G01 X10.58616 Y2.60497
G01 X10.62071 Y2.61546
G01 X10.65675 Y2.62834
G01 X10.69134 Y2.64470
G01 X10.84504 Y2.72687
G01 X10.87785 Y2.74653
G01 X10.90861 Y2.76934
G01 X11.04331 Y2.87990
G01 X11.09739 Y2.93395
G01 X11.20793 Y3.06868
G01 X11.23074 Y3.09941
G01 X11.25042 Y3.13225
G01 X11.33257 Y3.28595
G01 X11.36183 Y3.35656
G01 X11.41242 Y3.52334
G01 X11.42733 Y3.59832
G01 X11.44440 Y3.77177
G01 X11.44628 Y3.81000
G01 X11.44440 Y3.84820
G01 X11.42733 Y4.02166
G01 X11.42172 Y4.05950
G01 X11.41242 Y4.09664
G01 X11.36183 Y4.26342
G01 X11.33257 Y4.33403
G01 X11.25042 Y4.48772
G01 X11.23074 Y4.52056
G01 X11.20793 Y4.55130
G01 X11.09739 Y4.68602
G01 X11.04331 Y4.74007
G01 X10.90861 Y4.85064
G01 X10.87785 Y4.87345
G01 X10.84504 Y4.89311
G01 X10.69134 Y4.97528
G01 X10.62071 Y5.00451
G01 X10.58624 Y5.01498
G01 X9.74832 Y5.01498
G01 X9.71387 Y5.00451
G01 X9.64324 Y4.97528
G01 X9.48954 Y4.89311
G01 X9.42597 Y4.85064
G01 X9.29124 Y4.74007
G01 X9.23719 Y4.68602
G01 X9.12663 Y4.55130
G01 X9.10384 Y4.52056
G01 X9.08416 Y4.48772
G01 X9.00201 Y4.33403
G01 X8.97275 Y4.26342
G01 X8.92216 Y4.09664
G01 X8.90725 Y4.02166
G01 X8.89018 Y3.84820
G01 X8.88830 Y3.81000
G01 X8.75828 Y3.81000
G01 X8.76079 Y3.75902
G01 X8.77788 Y3.58559
G01 X8.78535 Y3.53510
G01 X8.79777 Y3.48562
G01 X8.84834 Y3.31884
G01 X8.88736 Y3.22466
G01 X8.96950 Y3.07096
G01 X8.99574 Y3.02720
G01 X9.02614 Y2.98620
G01 X9.13671 Y2.85148
G01 X9.20880 Y2.77939
G01 X9.34349 Y2.66885
G01 X9.38449 Y2.63845
G01 X9.42825 Y2.61221
G01 X9.44179 Y2.60497
G01 X9.21642 Y2.60497
G01 X9.12632 Y2.67891
G01 X9.03620 Y2.76901
G01 X8.92566 Y2.90373
G01 X8.88766 Y2.95496
G01 X8.85487 Y3.00967
G01 X8.77270 Y3.16337
G01 X8.72393 Y3.28107
G01 X8.67336 Y3.44787
G01 X8.65787 Y3.50975
G01 X8.64850 Y3.57284
G01 X8.63143 Y3.74627
G01 X8.62828 Y3.81000
G01 X8.63143 Y3.87370
G01 X8.64850 Y4.04713
G01 X8.67336 Y4.17210
G01 X8.72393 Y4.33888
G01 X8.77270 Y4.45661
G01 X8.85487 Y4.61030
G01 X8.88766 Y4.66501
G01 X8.92566 Y4.71625
G01 X9.03620 Y4.85097
G01 X9.12632 Y4.94106
G01 X9.21636 Y5.01498
G01 X9.44176 Y5.01498
G01 X9.42825 Y5.00776
G01 X9.34349 Y4.95112
G01 X9.20880 Y4.84058
G01 X9.17097 Y4.80629
G01 X9.13671 Y4.76849
G01 X9.02614 Y4.63377
G01 X8.99574 Y4.59278
G01 X8.96950 Y4.54901
G01 X8.88736 Y4.39532
G01 X8.84834 Y4.30113
G01 X8.79777 Y4.13436
G01 X8.77788 Y4.03438
G01 X8.76079 Y3.86095
G01 X8.75828 Y3.81000
G01 X8.62828 Y3.81000
G01 X8.49828 Y3.81000
G01 X8.50204 Y3.73355
G01 X8.51913 Y3.56009
G01 X8.53036 Y3.48437
G01 X8.54895 Y3.41013
G01 X8.59955 Y3.24335
G01 X8.65805 Y3.10210
G01 X8.74022 Y2.94841
G01 X8.77956 Y2.88275
G01 X8.82515 Y2.82125
G01 X8.93572 Y2.68653
G01 X9.01728 Y2.60497
G01 X8.83450 Y2.60497
G01 X8.72467 Y2.73878
G01 X8.67148 Y2.81051
G01 X8.62556 Y2.88712
G01 X8.54342 Y3.04081
G01 X8.47514 Y3.20563
G01 X8.42455 Y3.37238
G01 X8.40285 Y3.45902
G01 X8.38975 Y3.54736
G01 X8.37268 Y3.72080
G01 X8.36828 Y3.81000
G01 X8.37268 Y3.89918
G01 X8.38975 Y4.07261
G01 X8.42455 Y4.24759
G01 X8.47514 Y4.41434
G01 X8.54342 Y4.57916
G01 X8.62556 Y4.73286
G01 X8.67148 Y4.80946
G01 X8.72467 Y4.88119
G01 X8.83448 Y5.01498
G01 X9.01725 Y5.01498
G01 X8.93572 Y4.93344
G01 X8.82515 Y4.79872
G01 X8.77956 Y4.73723
G01 X8.74022 Y4.67157
G01 X8.65805 Y4.51787
G01 X8.59955 Y4.37662
G01 X8.54895 Y4.20985
G01 X8.51913 Y4.05989
G01 X8.50204 Y3.88643
G01 X8.49828 Y3.81000
G01 X8.36828 Y3.81000
G01 X8.23829 Y3.81000
G01 X8.16262 Y3.92458
G01 X8.17103 Y4.09567
G01 X8.19409 Y4.32918
G01 X8.20986 Y4.43550
G01 X8.22635 Y4.48983
G01 X8.31411 Y4.70172
G01 X8.39627 Y4.85541
G01 X8.45528 Y4.95391
G01 X8.50059 Y5.01498
G01 X8.66630 Y5.01498
G01 X8.62419 Y4.96367
G01 X8.56338 Y4.88168
G01 X8.51090 Y4.79415
G01 X8.42876 Y4.64045
G01 X8.35073 Y4.45209
G01 X8.30016 Y4.28531
G01 X8.26038 Y4.08536
G01 X8.24329 Y3.91193
G01 X8.23829 Y3.81000
G01 X8.24329 Y3.70804
G01 X8.26038 Y3.53461
G01 X8.27535 Y3.43365
G01 X8.30016 Y3.33466
G01 X8.35073 Y3.16789
G01 X8.42876 Y2.97952
G01 X8.51090 Y2.82583
G01 X8.56338 Y2.73830
G01 X8.62419 Y2.65631
G01 X8.66633 Y2.60497
G01 X8.50059 Y2.60497
G01 X8.45528 Y2.66606
G01 X8.39627 Y2.76456
G01 X8.31411 Y2.91826
G01 X8.22635 Y3.13014
G01 X8.20984 Y3.18450
G01 X8.19409 Y3.29077
G01 X8.17103 Y3.52430
G01 X8.16262 Y3.69540
G01 X8.16262 Y3.92458
G01 X8.23829 Y3.81000
G01 X8.36828 Y3.81000
G01 X8.49828 Y3.81000
G01 X8.62828 Y3.81000
G01 X8.75828 Y3.81000
G01 X8.88830 Y3.81000
G01 X9.01830 Y3.81000
G01 X9.01954 Y3.78450
G01 X9.03661 Y3.61107
G01 X9.04037 Y3.58582
G01 X9.04657 Y3.56108
G01 X9.09716 Y3.39430
G01 X9.11667 Y3.34721
G01 X9.19881 Y3.19352
G01 X9.21192 Y3.17165
G01 X9.22713 Y3.15115
G01 X9.33767 Y3.01643
G01 X9.37372 Y2.98039
G01 X9.50844 Y2.86982
G01 X9.52894 Y2.85463
G01 X9.55083 Y2.84152
G01 X9.70453 Y2.75935
G01 X9.75162 Y2.73985
G01 X9.91837 Y2.68928
G01 X9.94313 Y2.68305
G01 X9.96836 Y2.67932
G01 X10.14181 Y2.66225
G01 X10.19277 Y2.66225
G01 X10.36620 Y2.67932
G01 X10.39144 Y2.68305
G01 X10.41618 Y2.68928
G01 X10.58296 Y2.73985
G01 X10.60699 Y2.74846
G01 X10.63005 Y2.75935
G01 X10.78375 Y2.84152
G01 X10.82614 Y2.86982
G01 X10.96084 Y2.98039
G01 X10.99688 Y3.01643
G01 X11.10745 Y3.15115
G01 X11.12263 Y3.17165
G01 X11.13577 Y3.19352
G01 X11.21791 Y3.34721
G01 X11.23742 Y3.39430
G01 X11.28801 Y3.56108
G01 X11.29795 Y3.61107
G01 X11.31504 Y3.78450
G01 X11.31628 Y3.81000
G01 X11.31504 Y3.83548
G01 X11.29795 Y4.00891
G01 X11.29421 Y4.03415
G01 X11.28801 Y4.05889
G01 X11.23742 Y4.22567
G01 X11.21791 Y4.27276
G01 X11.13577 Y4.42646
G01 X11.12263 Y4.44833
G01 X11.10745 Y4.46883
G01 X10.99688 Y4.60355
G01 X10.96084 Y4.63959
G01 X10.82614 Y4.75016
G01 X10.80564 Y4.76534
G01 X10.78375 Y4.77845
G01 X10.63005 Y4.86062
G01 X10.58296 Y4.88013
G01 X10.41618 Y4.93070
G01 X10.39144 Y4.93692
G01 X10.36620 Y4.94066
G01 X10.19277 Y4.95772
G01 X10.14181 Y4.95772
G01 X9.96836 Y4.94066
G01 X9.94313 Y4.93692
G01 X9.91837 Y4.93070
G01 X9.75162 Y4.88013
G01 X9.70453 Y4.86062
G01 X9.55083 Y4.77845
G01 X9.50844 Y4.75016
G01 X9.37372 Y4.63959
G01 X9.33767 Y4.60355
G01 X9.22713 Y4.46883
G01 X9.21192 Y4.44833
G01 X9.19881 Y4.42646
G01 X9.11667 Y4.27276
G01 X9.09716 Y4.22567
G01 X9.04657 Y4.05889
G01 X9.03661 Y4.00891
G01 X9.01954 Y3.83548
G01 X9.01830 Y3.81000
G01 X9.14829 Y3.81000
G01 X9.14890 Y3.82273
G01 X9.16600 Y3.99616
G01 X9.17097 Y4.02115
G01 X9.22155 Y4.18793
G01 X9.23130 Y4.21147
G01 X9.31347 Y4.36517
G01 X9.32002 Y4.37612
G01 X9.32762 Y4.38635
G01 X9.43818 Y4.52107
G01 X9.45619 Y4.53911
G01 X9.59091 Y4.64965
G01 X9.60115 Y4.65724
G01 X9.61210 Y4.66382
G01 X9.76579 Y4.74596
G01 X9.78934 Y4.75572
G01 X9.95611 Y4.80631
G01 X9.96848 Y4.80941
G01 X9.98111 Y4.81127
G01 X10.15454 Y4.82836
G01 X10.18004 Y4.82836
G01 X10.35347 Y4.81127
G01 X10.36610 Y4.80941
G01 X10.37847 Y4.80631
G01 X10.54524 Y4.75572
G01 X10.56876 Y4.74596
G01 X10.72248 Y4.66382
G01 X10.73340 Y4.65724
G01 X10.74367 Y4.64965
G01 X10.87839 Y4.53911
G01 X10.89640 Y4.52107
G01 X11.00696 Y4.38635
G01 X11.01456 Y4.37612
G01 X11.02111 Y4.36517
G01 X11.10325 Y4.21147
G01 X11.11301 Y4.18793
G01 X11.16360 Y4.02115
G01 X11.16858 Y3.99616
G01 X11.18565 Y3.82273
G01 X11.18629 Y3.81000
G01 X11.18565 Y3.79725
G01 X11.16858 Y3.62382
G01 X11.16360 Y3.59882
G01 X11.11301 Y3.43205
G01 X11.10325 Y3.40850
G01 X11.02111 Y3.25481
G01 X11.01456 Y3.24381
G01 X11.00696 Y3.23362
G01 X10.89640 Y3.09890
G01 X10.87839 Y3.08087
G01 X10.74367 Y2.97033
G01 X10.73340 Y2.96273
G01 X10.72248 Y2.95615
G01 X10.56876 Y2.87401
G01 X10.54524 Y2.86426
G01 X10.37847 Y2.81366
G01 X10.36610 Y2.81056
G01 X10.35347 Y2.80871
G01 X10.18004 Y2.79161
G01 X10.15454 Y2.79161
G01 X9.98111 Y2.80871
G01 X9.96848 Y2.81056
G01 X9.95611 Y2.81366
G01 X9.78934 Y2.86426
G01 X9.76579 Y2.87401
G01 X9.61210 Y2.95615
G01 X9.60115 Y2.96273
G01 X9.59091 Y2.97033
G01 X9.45619 Y3.08087
G01 X9.43818 Y3.09890
G01 X9.32762 Y3.23362
G01 X9.32002 Y3.24381
G01 X9.31347 Y3.25481
G01 X9.23130 Y3.40850
G01 X9.22155 Y3.43205
G01 X9.17097 Y3.59882
G01 X9.16600 Y3.62382
G01 X9.14890 Y3.79725
G01 X9.14829 Y3.81000
G01 X9.01830 Y3.81000
G01 X8.88830 Y3.81000
G01 X8.89018 Y3.77177
G01 X8.90725 Y3.59832
G01 X8.91286 Y3.56047
G01 X8.92216 Y3.52334
G01 X8.97275 Y3.35656
G01 X9.00201 Y3.28595
G01 X9.08416 Y3.13225
G01 X9.10384 Y3.09941
G01 X9.12663 Y3.06868
G01 X9.23719 Y2.93395
G01 X9.29124 Y2.87990
G01 X9.42597 Y2.76934
G01 X9.45672 Y2.74653
G01 X9.48954 Y2.72687
G01 X9.64324 Y2.64470
G01 X9.71387 Y2.61546
G01 X9.74842 Y2.60497
G01 X10.58616 Y2.60497
G01 X9.74842 Y2.60497
G01 X9.44179 Y2.60497
G01 X9.21642 Y2.60497
G01 X9.01728 Y2.60497
G01 X8.83450 Y2.60497
G01 X8.66633 Y2.60497
G01 X8.50059 Y2.60497
G01 X8.34052 Y2.60497
G01 X8.33704 Y2.61074
G01 X8.34052 Y2.60497
G01 X8.33867 Y2.60497
G01 X8.33704 Y2.61074
G01 X8.31146 Y2.70236
G01 X8.26841 Y2.87424
G01 X8.21947 Y3.11968
G01 X8.20984 Y3.18450
G01 X8.19409 Y3.29077
G01 X8.17103 Y3.52430
G01 X8.16262 Y3.69540
G01 X8.16262 Y3.92458
G01 X8.17103 Y4.09567
G01 X8.19409 Y4.32918
G01 X8.21947 Y4.50027
G01 X8.26841 Y4.74571
G01 X8.31146 Y4.91759
G01 X8.33707 Y5.00924
G01 X8.34052 Y5.01498
G01 X8.33707 Y5.00924
G01 X8.33867 Y5.01498
G01 X8.34052 Y5.01498
G01 X8.50059 Y5.01498
G01 X8.66630 Y5.01498
G01 X8.83448 Y5.01498
G01 X9.01725 Y5.01498
G01 X9.21636 Y5.01498
G01 X9.44176 Y5.01498
G01 X9.74832 Y5.01498
G01 X10.58624 Y5.01498
G01 X10.89282 Y5.01498
G01 X11.11819 Y5.01498
G01 X11.31730 Y5.01498
G01 X11.50010 Y5.01498
G01 X11.66828 Y5.01498
G01 X11.83399 Y5.01498
G01 X11.99406 Y5.01498
G01 X12.14544 Y5.01498
G01 X12.29525 Y5.01498
G01 X12.44265 Y5.01498
G01 X12.59007 Y5.01498
G01 X12.73091 Y5.01498
G01 X12.85466 Y4.71625
G01 X12.90523 Y4.54947
G01 X12.95174 Y4.36385
G01 X12.97981 Y4.17457
G01 X12.99688 Y4.00111
G01 X13.00630 Y3.81000
G01 X12.99688 Y3.61886
G01 X12.97981 Y3.44541
G01 X12.90523 Y3.07050
G01 X12.85466 Y2.90373
G01 X12.73091 Y2.60497
G01 X12.87094 Y2.60497
G01 X12.97904 Y2.86598
G01 X13.02964 Y3.03276
G01 X13.10917 Y3.43268
G01 X13.12624 Y3.60611
G01 X13.13630 Y3.81000
G01 X13.12624 Y4.01386
G01 X13.10917 Y4.18729
G01 X13.07925 Y4.38922
G01 X13.02964 Y4.58721
G01 X12.97904 Y4.75399
G01 X12.87094 Y5.01498
G01 X12.73091 Y5.01498
G01 X12.87094 Y5.01498
G01 X13.01097 Y5.01498
G01 X13.10345 Y4.79171
G01 X13.15405 Y4.62496
G01 X13.20673 Y4.41457
G01 X13.23856 Y4.20004
G01 X13.25565 Y4.02661
G01 X13.26627 Y3.81000
G01 X13.25565 Y3.59336
G01 X13.23856 Y3.41993
G01 X13.15405 Y2.99502
G01 X13.10345 Y2.82826
G01 X13.01097 Y2.60497
G01 X13.15100 Y2.60497
G01 X13.22784 Y2.79052
G01 X13.27843 Y2.95730
G01 X13.36794 Y3.40718
G01 X13.38501 Y3.58064
G01 X13.39629 Y3.80997
G01 X13.38501 Y4.03934
G01 X13.36794 Y4.21279
G01 X13.33424 Y4.43995
G01 X13.27843 Y4.66268
G01 X13.22784 Y4.82945
G01 X13.15100 Y5.01498
G01 X13.01097 Y5.01498
G01 X13.15100 Y5.01498
G01 X13.29106 Y5.01498
G01 X13.35225 Y4.86720
G01 X13.40284 Y4.70042
G01 X13.46175 Y4.46529
G01 X13.49731 Y4.22552
G01 X13.51440 Y4.05209
G01 X13.52629 Y3.80997
G01 X13.51440 Y3.56789
G01 X13.49731 Y3.39446
G01 X13.40284 Y2.91955
G01 X13.35225 Y2.75278
G01 X13.29103 Y2.60497
G01 X13.43106 Y2.60497
G01 X13.47666 Y2.71503
G01 X13.52725 Y2.88181
G01 X13.62669 Y3.38171
G01 X13.64376 Y3.55514
G01 X13.65628 Y3.80997
G01 X13.64376 Y4.06484
G01 X13.62669 Y4.23827
G01 X13.58925 Y4.49067
G01 X13.52725 Y4.73817
G01 X13.47666 Y4.90494
G01 X13.43109 Y5.01498
G01 X13.29106 Y5.01498
G01 X13.43109 Y5.01498
G01 X13.57112 Y5.01498
G01 X13.60107 Y4.94266
G01 X13.65166 Y4.77591
G01 X13.71674 Y4.51602
G01 X13.75606 Y4.25102
G01 X13.77315 Y4.07756
G01 X13.78628 Y3.80997
G01 X13.77315 Y3.54241
G01 X13.75606 Y3.36895
G01 X13.65166 Y2.84406
G01 X13.60107 Y2.67731
G01 X13.57109 Y2.60497
G01 X13.43106 Y2.60497
G01 X13.29103 Y2.60497
G01 X13.15100 Y2.60497
G01 X13.01097 Y2.60497
G01 X12.87094 Y2.60497
G01 X12.73091 Y2.60497
G01 X12.59007 Y2.60497
G01 X12.59004 Y2.60497
G01 X12.59007 Y2.60497
G01 X12.59007 Y2.47498
G01 X12.59007 Y2.13886
G01 X12.47907 Y2.40685
G01 X12.44265 Y2.47498
G01 X12.29525 Y2.47498
G01 X12.36442 Y2.34556
G01 X12.48143 Y2.06304
G01 X12.53203 Y1.89626
G01 X12.59007 Y1.60449
G01 X12.59169 Y1.59634
G01 X12.60876 Y1.42288
G01 X12.61628 Y1.26997
G01 X12.60876 Y1.11709
G01 X12.59169 Y0.94364
G01 X12.59007 Y0.93546
G01 X12.53203 Y0.64371
G01 X12.48143 Y0.47694
G01 X12.36442 Y0.19441
G01 X12.29525 Y0.06500
G01 X12.44265 Y0.06500
G01 X12.47907 Y0.13312
G01 X12.59007 Y0.40109
G01 X12.60584 Y0.43919
G01 X12.65644 Y0.60597
G01 X12.69672 Y0.76685
G01 X12.72103 Y0.93091
G01 X12.73815 Y1.10434
G01 X12.74628 Y1.26997
G01 X12.73815 Y1.43563
G01 X12.72103 Y1.60906
G01 X12.65644 Y1.93401
G01 X12.60584 Y2.10078
G01 X12.59007 Y2.13886
G01 X12.59007 Y1.60449
G01 X12.59007 Y0.93546
G01 X12.59007 Y0.40109
G01 X12.59007 Y0.06502
G01 X12.59007 Y0.06500
G01 X12.59007 Y-0.06500
G01 X12.59007 Y-0.06505
G01 X12.59007 Y-0.40112
G01 X12.47907 Y-0.13312
G01 X12.44265 Y-0.06500
G01 X12.29525 Y-0.06500
G01 X12.36442 Y-0.19441
G01 X12.48143 Y-0.47694
G01 X12.53203 Y-0.64371
G01 X12.59007 Y-0.93548
G01 X12.59169 Y-0.94364
G01 X12.60876 Y-1.11709
G01 X12.61628 Y-1.27000
G01 X12.60876 Y-1.42288
G01 X12.59169 Y-1.59634
G01 X12.59007 Y-1.60449
G01 X12.53203 Y-1.89626
G01 X12.48143 Y-2.06304
G01 X12.36442 Y-2.34556
G01 X12.29525 Y-2.47498
G01 X12.44265 Y-2.47498
G01 X12.47907 Y-2.40685
G01 X12.59007 Y-2.13886
G01 X12.60584 Y-2.10078
G01 X12.65644 Y-1.93401
G01 X12.72103 Y-1.60906
G01 X12.73815 Y-1.43563
G01 X12.74628 Y-1.27000
G01 X12.73815 Y-1.10434
G01 X12.72103 Y-0.93091
G01 X12.65644 Y-0.60597
G01 X12.60584 Y-0.43919
G01 X12.59007 Y-0.40112
G01 X12.59007 Y-0.93548
G01 X12.59007 Y-1.60449
G01 X12.59007 Y-2.13886
G01 X12.59007 Y-2.47498
G01 X9.74842 Y-2.60497
G01 X9.44179 Y-2.60497
G01 X9.42825 Y-2.61221
G01 X9.38449 Y-2.63845
G01 X9.34349 Y-2.66885
G01 X9.20880 Y-2.77939
G01 X9.13671 Y-2.85148
G01 X9.02614 Y-2.98620
G01 X8.99574 Y-3.02720
G01 X8.96950 Y-3.07096
G01 X8.88736 Y-3.22466
G01 X8.84834 Y-3.31884
G01 X8.79777 Y-3.48562
G01 X8.77788 Y-3.58559
G01 X8.76079 Y-3.75902
G01 X8.75828 Y-3.81000
G01 X8.62828 Y-3.81000
G01 X8.49828 Y-3.81000
G01 X8.50204 Y-3.88643
G01 X8.51913 Y-4.05989
G01 X8.53036 Y-4.13560
G01 X8.54895 Y-4.20985
G01 X8.59955 Y-4.37662
G01 X8.65805 Y-4.51787
G01 X8.74022 Y-4.67157
G01 X8.77956 Y-4.73723
G01 X8.82515 Y-4.79872
G01 X8.93572 Y-4.93344
G01 X9.01725 Y-5.01498
G01 X8.83448 Y-5.01498
G01 X8.72467 Y-4.88119
G01 X8.67148 Y-4.80946
G01 X8.62556 Y-4.73286
G01 X8.54342 Y-4.57916
G01 X8.47514 Y-4.41434
G01 X8.42455 Y-4.24759
G01 X8.40285 Y-4.16095
G01 X8.38975 Y-4.07261
G01 X8.37268 Y-3.89918
G01 X8.36828 Y-3.81000
G01 X8.37268 Y-3.72080
G01 X8.38975 Y-3.54736
G01 X8.42455 Y-3.37238
G01 X8.47514 Y-3.20563
G01 X8.54342 Y-3.04081
G01 X8.62556 Y-2.88712
G01 X8.67148 Y-2.81051
G01 X8.72467 Y-2.73878
G01 X8.83450 Y-2.60497
G01 X9.01728 Y-2.60497
G01 X8.93572 Y-2.68653
G01 X8.82515 Y-2.82125
G01 X8.77956 Y-2.88275
G01 X8.74022 Y-2.94841
G01 X8.65805 Y-3.10210
G01 X8.59955 Y-3.24335
G01 X8.54895 Y-3.41013
G01 X8.51913 Y-3.56009
G01 X8.50204 Y-3.73355
G01 X8.49828 Y-3.81000
G01 X8.36828 Y-3.81000
G01 X8.23829 Y-3.81000
G01 X8.16262 Y-3.92458
G01 X8.17103 Y-4.09567
G01 X8.19409 Y-4.32918
G01 X8.20986 Y-4.43550
G01 X8.22635 Y-4.48983
G01 X8.31411 Y-4.70172
G01 X8.39627 Y-4.85541
G01 X8.45528 Y-4.95391
G01 X8.50059 Y-5.01498
G01 X8.66630 Y-5.01498
G01 X8.62419 Y-4.96367
G01 X8.56338 Y-4.88168
G01 X8.51090 Y-4.79415
G01 X8.42876 Y-4.64045
G01 X8.35073 Y-4.45209
G01 X8.30016 Y-4.28531
G01 X8.27535 Y-4.18633
G01 X8.26038 Y-4.08536
G01 X8.24329 Y-3.91193
G01 X8.23829 Y-3.81000
G01 X8.24329 Y-3.70804
G01 X8.26038 Y-3.53461
G01 X8.30016 Y-3.33466
G01 X8.35073 Y-3.16789
G01 X8.42876 Y-2.97952
G01 X8.51090 Y-2.82583
G01 X8.56338 Y-2.73830
G01 X8.62419 Y-2.65631
G01 X8.66633 Y-2.60497
G01 X8.50059 Y-2.60497
G01 X8.45528 Y-2.66606
G01 X8.39627 Y-2.76456
G01 X8.31411 Y-2.91826
G01 X8.22635 Y-3.13014
G01 X8.20984 Y-3.18450
G01 X8.19409 Y-3.29077
G01 X8.17103 Y-3.52430
G01 X8.16262 Y-3.69540
G01 X8.16262 Y-3.92458
G01 X8.23829 Y-3.81000
G01 X8.36828 Y-3.81000
G01 X8.49828 Y-3.81000
G01 X8.62828 Y-3.81000
G01 X8.75828 Y-3.81000
G01 X8.88830 Y-3.81000
G01 X9.01830 Y-3.81000
G01 X9.01954 Y-3.83548
G01 X9.03661 Y-4.00891
G01 X9.04037 Y-4.03415
G01 X9.04657 Y-4.05889
G01 X9.09716 Y-4.22567
G01 X9.11667 Y-4.27276
G01 X9.19881 Y-4.42646
G01 X9.21192 Y-4.44833
G01 X9.22713 Y-4.46883
G01 X9.33767 Y-4.60355
G01 X9.37372 Y-4.63959
G01 X9.50844 Y-4.75016
G01 X9.52894 Y-4.76534
G01 X9.55083 Y-4.77845
G01 X9.70453 Y-4.86062
G01 X9.75162 Y-4.88013
G01 X9.91837 Y-4.93070
G01 X9.94313 Y-4.93692
G01 X9.96836 Y-4.94066
G01 X10.14181 Y-4.95772
G01 X10.19277 Y-4.95772
G01 X10.36620 Y-4.94066
G01 X10.39144 Y-4.93692
G01 X10.41618 Y-4.93070
G01 X10.58296 Y-4.88013
G01 X10.60699 Y-4.87152
G01 X10.63005 Y-4.86062
G01 X10.78375 Y-4.77845
G01 X10.82614 Y-4.75016
G01 X10.96084 Y-4.63959
G01 X10.99688 Y-4.60355
G01 X11.10745 Y-4.46883
G01 X11.12263 Y-4.44833
G01 X11.13577 Y-4.42646
G01 X11.21791 Y-4.27276
G01 X11.23742 Y-4.22567
G01 X11.28801 Y-4.05889
G01 X11.29795 Y-4.00891
G01 X11.31504 Y-3.83548
G01 X11.31628 Y-3.81000
G01 X11.31504 Y-3.78450
G01 X11.29795 Y-3.61107
G01 X11.29421 Y-3.58582
G01 X11.28801 Y-3.56108
G01 X11.23742 Y-3.39430
G01 X11.21791 Y-3.34721
G01 X11.13577 Y-3.19352
G01 X11.12263 Y-3.17165
G01 X11.10745 Y-3.15115
G01 X10.99688 Y-3.01643
G01 X10.96084 Y-2.98039
G01 X10.82614 Y-2.86982
G01 X10.80564 Y-2.85463
G01 X10.78375 Y-2.84152
G01 X10.63005 Y-2.75935
G01 X10.58296 Y-2.73985
G01 X10.41618 Y-2.68928
G01 X10.39144 Y-2.68305
G01 X10.36620 Y-2.67932
G01 X10.19277 Y-2.66225
G01 X10.14181 Y-2.66225
G01 X9.96836 Y-2.67932
G01 X9.94313 Y-2.68305
G01 X9.91837 Y-2.68928
G01 X9.75162 Y-2.73985
G01 X9.70453 Y-2.75935
G01 X9.55083 Y-2.84152
G01 X9.50844 Y-2.86982
G01 X9.37372 Y-2.98039
G01 X9.33767 Y-3.01643
G01 X9.22713 Y-3.15115
G01 X9.21192 Y-3.17165
G01 X9.19881 Y-3.19352
G01 X9.11667 Y-3.34721
G01 X9.09716 Y-3.39430
G01 X9.04657 Y-3.56108
G01 X9.03661 Y-3.61107
G01 X9.01954 Y-3.78450
G01 X9.01830 Y-3.81000
G01 X9.14829 Y-3.81000
G01 X9.14890 Y-3.82273
G01 X9.16600 Y-3.99616
G01 X9.17097 Y-4.02115
G01 X9.22155 Y-4.18793
G01 X9.23130 Y-4.21147
G01 X9.31347 Y-4.36517
G01 X9.32002 Y-4.37612
G01 X9.32762 Y-4.38635
G01 X9.43818 Y-4.52107
G01 X9.45619 Y-4.53911
G01 X9.59091 Y-4.64965
G01 X9.60115 Y-4.65724
G01 X9.61210 Y-4.66382
G01 X9.76579 Y-4.74596
G01 X9.78934 Y-4.75572
G01 X9.95611 Y-4.80631
G01 X9.96848 Y-4.80941
G01 X9.98111 Y-4.81127
G01 X10.15454 Y-4.82836
G01 X10.18004 Y-4.82836
G01 X10.35347 Y-4.81127
G01 X10.36610 Y-4.80941
G01 X10.37847 Y-4.80631
G01 X10.54524 Y-4.75572
G01 X10.56876 Y-4.74596
G01 X10.72248 Y-4.66382
G01 X10.73340 Y-4.65724
G01 X10.74367 Y-4.64965
G01 X10.87839 Y-4.53911
G01 X10.89640 Y-4.52107
G01 X11.00696 Y-4.38635
G01 X11.01456 Y-4.37612
G01 X11.02111 Y-4.36517
G01 X11.10325 Y-4.21147
G01 X11.11301 Y-4.18793
G01 X11.16360 Y-4.02115
G01 X11.16858 Y-3.99616
G01 X11.18565 Y-3.82273
G01 X11.18629 Y-3.81000
G01 X11.18565 Y-3.79725
G01 X11.16858 Y-3.62382
G01 X11.16360 Y-3.59882
G01 X11.11301 Y-3.43205
G01 X11.10325 Y-3.40850
G01 X11.02111 Y-3.25481
G01 X11.01456 Y-3.24381
G01 X11.00696 Y-3.23362
G01 X10.89640 Y-3.09890
G01 X10.87839 Y-3.08087
G01 X10.74367 Y-2.97033
G01 X10.73340 Y-2.96273
G01 X10.72248 Y-2.95615
G01 X10.56876 Y-2.87401
G01 X10.54524 Y-2.86426
G01 X10.37847 Y-2.81366
G01 X10.36610 Y-2.81056
G01 X10.35347 Y-2.80871
G01 X10.18004 Y-2.79161
G01 X10.15454 Y-2.79161
G01 X9.98111 Y-2.80871
G01 X9.96848 Y-2.81056
G01 X9.95611 Y-2.81366
G01 X9.78934 Y-2.86426
G01 X9.76579 Y-2.87401
G01 X9.61210 Y-2.95615
G01 X9.60115 Y-2.96273
G01 X9.59091 Y-2.97033
G01 X9.45619 Y-3.08087
G01 X9.43818 Y-3.09890
G01 X9.32762 Y-3.23362
G01 X9.32002 Y-3.24381
G01 X9.31347 Y-3.25481
G01 X9.23130 Y-3.40850
G01 X9.22155 Y-3.43205
G01 X9.17097 Y-3.59882
G01 X9.16600 Y-3.62382
G01 X9.14890 Y-3.79725
G01 X9.14829 Y-3.81000
G01 X9.01830 Y-3.81000
G01 X8.88830 Y-3.81000
G01 X8.75828 Y-3.81000
G01 X8.76079 Y-3.86095
G01 X8.77788 Y-4.03438
G01 X8.78535 Y-4.08488
G01 X8.79777 Y-4.13436
G01 X8.84834 Y-4.30113
G01 X8.88736 Y-4.39532
G01 X8.96950 Y-4.54901
G01 X8.99574 Y-4.59278
G01 X9.02614 Y-4.63377
G01 X9.13671 Y-4.76849
G01 X9.20880 Y-4.84058
G01 X9.34349 Y-4.95112
G01 X9.38449 Y-4.98152
G01 X9.42825 Y-5.00776
G01 X9.44176 Y-5.01498
G01 X9.21636 Y-5.01498
G01 X9.12632 Y-4.94106
G01 X9.03620 Y-4.85097
G01 X8.92566 Y-4.71625
G01 X8.88766 Y-4.66501
G01 X8.85487 Y-4.61030
G01 X8.77270 Y-4.45661
G01 X8.72393 Y-4.33888
G01 X8.67336 Y-4.17210
G01 X8.65787 Y-4.11023
G01 X8.64850 Y-4.04713
G01 X8.63143 Y-3.87370
G01 X8.62828 Y-3.81000
G01 X8.63143 Y-3.74627
G01 X8.64850 Y-3.57284
G01 X8.67336 Y-3.44787
G01 X8.72393 Y-3.28107
G01 X8.77270 Y-3.16337
G01 X8.85487 Y-3.00967
G01 X8.88766 Y-2.95496
G01 X8.92566 Y-2.90373
G01 X9.03620 Y-2.76901
G01 X9.12632 Y-2.67891
G01 X9.21642 Y-2.60497
G01 X9.44179 Y-2.60497
G01 X9.21642 Y-2.60497
G01 X9.01728 Y-2.60497
G01 X8.83450 Y-2.60497
G01 X8.66633 Y-2.60497
G01 X8.50059 Y-2.60497
G01 X8.34052 Y-2.60497
G01 X8.33704 Y-2.61076
G01 X8.34052 Y-2.60497
G01 X8.33867 Y-2.60497
G01 X8.33704 Y-2.61076
G01 X8.31146 Y-2.70236
G01 X8.26841 Y-2.87424
G01 X8.21947 Y-3.11968
G01 X8.20984 Y-3.18450
G01 X8.19409 Y-3.29077
G01 X8.17103 Y-3.52430
G01 X8.16262 Y-3.69540
G01 X8.16262 Y-3.92458
G01 X8.17103 Y-4.09567
G01 X8.19409 Y-4.32918
G01 X8.21947 Y-4.50027
G01 X8.26841 Y-4.74571
G01 X8.31146 Y-4.91759
G01 X8.33707 Y-5.00924
G01 X8.34052 Y-5.01498
G01 X8.33707 Y-5.00924
G01 X8.31146 Y-4.91759
G01 X8.33867 Y-5.01498
G01 X8.34052 Y-5.01498
G01 X8.50059 Y-5.01498
G01 X8.66630 Y-5.01498
G01 X8.83448 Y-5.01498
G01 X9.01725 Y-5.01498
G01 X9.21636 Y-5.01498
G01 X9.44176 Y-5.01498
G01 X9.74832 Y-5.01498
G01 X10.58624 Y-5.01498
G01 X10.62071 Y-5.00451
G01 X10.65675 Y-4.99163
G01 X10.69134 Y-4.97528
G01 X10.84504 Y-4.89311
G01 X10.87785 Y-4.87345
G01 X10.90861 Y-4.85064
G01 X11.04331 Y-4.74007
G01 X11.09739 Y-4.68602
G01 X11.20793 Y-4.55130
G01 X11.23074 Y-4.52056
G01 X11.25042 Y-4.48772
G01 X11.33257 Y-4.33403
G01 X11.36183 Y-4.26342
G01 X11.41242 Y-4.09664
G01 X11.42733 Y-4.02166
G01 X11.44440 Y-3.84820
G01 X11.44628 Y-3.81000
G01 X11.44440 Y-3.77177
G01 X11.42733 Y-3.59832
G01 X11.42172 Y-3.56047
G01 X11.41242 Y-3.52334
G01 X11.36183 Y-3.35656
G01 X11.33257 Y-3.28595
G01 X11.25042 Y-3.13225
G01 X11.23074 Y-3.09941
G01 X11.20793 Y-3.06868
G01 X11.09739 Y-2.93395
G01 X11.04331 Y-2.87990
G01 X10.90861 Y-2.76934
G01 X10.87785 Y-2.74653
G01 X10.84504 Y-2.72687
G01 X10.69134 Y-2.64470
G01 X10.62071 Y-2.61546
G01 X10.58616 Y-2.60497
G01 X10.89276 Y-2.60497
G01 X10.90633 Y-2.61221
G01 X10.95009 Y-2.63845
G01 X10.99106 Y-2.66885
G01 X11.12578 Y-2.77939
G01 X11.19787 Y-2.85148
G01 X11.30844 Y-2.98620
G01 X11.33884 Y-3.02720
G01 X11.36505 Y-3.07096
G01 X11.44722 Y-3.22466
G01 X11.48624 Y-3.31884
G01 X11.53681 Y-3.48562
G01 X11.54920 Y-3.53510
G01 X11.55670 Y-3.58559
G01 X11.57379 Y-3.75902
G01 X11.57628 Y-3.81000
G01 X11.57379 Y-3.86095
G01 X11.55670 Y-4.03438
G01 X11.53681 Y-4.13436
G01 X11.48624 Y-4.30113
G01 X11.44722 Y-4.39532
G01 X11.36505 Y-4.54901
G01 X11.33884 Y-4.59278
G01 X11.30844 Y-4.63377
G01 X11.19787 Y-4.76849
G01 X11.12578 Y-4.84058
G01 X10.99106 Y-4.95112
G01 X10.90633 Y-5.00776
G01 X10.89282 Y-5.01498
G01 X10.58624 Y-5.01498
G01 X10.89282 Y-5.01498
G01 X11.11819 Y-5.01498
G01 X11.20826 Y-4.94106
G01 X11.29835 Y-4.85097
G01 X11.40892 Y-4.71625
G01 X11.44692 Y-4.66501
G01 X11.47971 Y-4.61030
G01 X11.56188 Y-4.45661
G01 X11.61062 Y-4.33888
G01 X11.66122 Y-4.17210
G01 X11.68608 Y-4.04713
G01 X11.70315 Y-3.87370
G01 X11.70628 Y-3.81000
G01 X11.70315 Y-3.74627
G01 X11.68608 Y-3.57284
G01 X11.67671 Y-3.50975
G01 X11.66122 Y-3.44787
G01 X11.61062 Y-3.28107
G01 X11.56188 Y-3.16337
G01 X11.47971 Y-3.00967
G01 X11.44692 Y-2.95496
G01 X11.40892 Y-2.90373
G01 X11.29835 Y-2.76901
G01 X11.20826 Y-2.67891
G01 X11.11816 Y-2.60497
G01 X11.31727 Y-2.60497
G01 X11.39886 Y-2.68653
G01 X11.50940 Y-2.82125
G01 X11.55502 Y-2.88275
G01 X11.59436 Y-2.94841
G01 X11.67651 Y-3.10210
G01 X11.73503 Y-3.24335
G01 X11.78563 Y-3.41013
G01 X11.80422 Y-3.48437
G01 X11.81544 Y-3.56009
G01 X11.83254 Y-3.73355
G01 X11.83630 Y-3.81000
G01 X11.83254 Y-3.88643
G01 X11.81544 Y-4.05989
G01 X11.78563 Y-4.20985
G01 X11.73503 Y-4.37662
G01 X11.67651 Y-4.51787
G01 X11.59436 Y-4.67157
G01 X11.55502 Y-4.73723
G01 X11.50940 Y-4.79872
G01 X11.39886 Y-4.93344
G01 X11.31730 Y-5.01498
G01 X11.11819 Y-5.01498
G01 X11.31730 Y-5.01498
G01 X11.50010 Y-5.01498
G01 X11.60991 Y-4.88119
G01 X11.66310 Y-4.80946
G01 X11.70902 Y-4.73286
G01 X11.79116 Y-4.57916
G01 X11.85944 Y-4.41434
G01 X11.91001 Y-4.24759
G01 X11.94483 Y-4.07261
G01 X11.96190 Y-3.89918
G01 X11.96630 Y-3.81000
G01 X11.96190 Y-3.72080
G01 X11.94483 Y-3.54736
G01 X11.93173 Y-3.45902
G01 X11.91001 Y-3.37238
G01 X11.85944 Y-3.20563
G01 X11.79116 Y-3.04081
G01 X11.70902 Y-2.88712
G01 X11.66310 Y-2.81051
G01 X11.60991 Y-2.73878
G01 X11.50008 Y-2.60497
G01 X11.66825 Y-2.60497
G01 X11.71039 Y-2.65631
G01 X11.77120 Y-2.73830
G01 X11.82367 Y-2.82583
G01 X11.90582 Y-2.97952
G01 X11.98382 Y-3.16789
G01 X12.03442 Y-3.33466
G01 X12.05923 Y-3.43365
G01 X12.07419 Y-3.53461
G01 X12.09129 Y-3.70804
G01 X12.09629 Y-3.81000
G01 X12.09129 Y-3.91193
G01 X12.07419 Y-4.08536
G01 X12.03442 Y-4.28531
G01 X11.98382 Y-4.45209
G01 X11.90582 Y-4.64045
G01 X11.82367 Y-4.79415
G01 X11.77120 Y-4.88168
G01 X11.71039 Y-4.96367
G01 X11.66828 Y-5.01498
G01 X11.50010 Y-5.01498
G01 X11.66828 Y-5.01498
G01 X11.83399 Y-5.01498
G01 X11.87928 Y-4.95391
G01 X11.93830 Y-4.85541
G01 X12.02047 Y-4.70172
G01 X12.10823 Y-4.48983
G01 X12.15883 Y-4.32305
G01 X12.20358 Y-4.09811
G01 X12.22065 Y-3.92466
G01 X12.22629 Y-3.81000
G01 X12.22065 Y-3.69532
G01 X12.20358 Y-3.52186
G01 X12.18672 Y-3.40830
G01 X12.15883 Y-3.29692
G01 X12.10823 Y-3.13014
G01 X12.02047 Y-2.91826
G01 X11.93830 Y-2.76456
G01 X11.87928 Y-2.66606
G01 X11.83396 Y-2.60497
G01 X11.99406 Y-2.60497
G01 X12.05296 Y-2.70327
G01 X12.13510 Y-2.85697
G01 X12.23264 Y-3.09240
G01 X12.28324 Y-3.25918
G01 X12.31422 Y-3.38292
G01 X12.33294 Y-3.50914
G01 X12.35004 Y-3.68257
G01 X12.35629 Y-3.81000
G01 X12.35004 Y-3.93741
G01 X12.33294 Y-4.11084
G01 X12.28324 Y-4.36080
G01 X12.23264 Y-4.52758
G01 X12.13510 Y-4.76301
G01 X12.05296 Y-4.91670
G01 X11.99406 Y-5.01498
G01 X11.83399 Y-5.01498
G01 X11.99406 Y-5.01498
G01 X12.14544 Y-5.01498
G01 X12.16762 Y-4.97799
G01 X12.24976 Y-4.82430
G01 X12.35705 Y-4.56529
G01 X12.40762 Y-4.39852
G01 X12.46233 Y-4.12359
G01 X12.47940 Y-3.95016
G01 X12.48628 Y-3.81000
G01 X12.47940 Y-3.66982
G01 X12.46233 Y-3.49639
G01 X12.44173 Y-3.35758
G01 X12.40762 Y-3.22146
G01 X12.35705 Y-3.05468
G01 X12.24976 Y-2.79568
G01 X12.16762 Y-2.64198
G01 X12.14542 Y-2.60497
G01 X12.29523 Y-2.60497
G01 X12.36442 Y-2.73441
G01 X12.48143 Y-3.01694
G01 X12.53203 Y-3.18371
G01 X12.56924 Y-3.33220
G01 X12.59169 Y-3.48364
G01 X12.60876 Y-3.65709
G01 X12.61628 Y-3.81000
G01 X12.60876 Y-3.96288
G01 X12.59169 Y-4.13634
G01 X12.53203 Y-4.43626
G01 X12.48143 Y-4.60304
G01 X12.36442 Y-4.88556
G01 X12.29525 Y-5.01498
G01 X12.14544 Y-5.01498
G01 X12.29525 Y-5.01498
G01 X12.44265 Y-5.01498
G01 X12.47907 Y-4.94685
G01 X12.60584 Y-4.64078
G01 X12.65644 Y-4.47401
G01 X12.72103 Y-4.14906
G01 X12.73815 Y-3.97563
G01 X12.74628 Y-3.81000
G01 X12.73815 Y-3.64434
G01 X12.72103 Y-3.47091
G01 X12.69672 Y-3.30685
G01 X12.65644 Y-3.14597
G01 X12.60584 Y-2.97919
G01 X12.47907 Y-2.67312
G01 X12.44265 Y-2.60497
G01 X12.59004 Y-2.60497
G01 X12.59370 Y-2.61183
G01 X12.73025 Y-2.94147
G01 X12.78085 Y-3.10822
G01 X12.82423 Y-3.28148
G01 X12.85044 Y-3.45816
G01 X12.86751 Y-3.63159
G01 X12.87625 Y-3.81000
G01 X12.86751 Y-3.98838
G01 X12.85044 Y-4.16182
G01 X12.78085 Y-4.51175
G01 X12.73025 Y-4.67850
G01 X12.59370 Y-5.00814
G01 X12.59004 Y-5.01498
G01 X12.44265 Y-5.01498
G01 X12.59004 Y-5.01498
G01 X12.73091 Y-5.01498
G01 X12.85466 Y-4.71625
G01 X12.90523 Y-4.54947
G01 X12.97981 Y-4.17457
G01 X12.99688 Y-4.00111
G01 X13.00630 Y-3.81000
G01 X12.99688 Y-3.61886
G01 X12.97981 Y-3.44541
G01 X12.95174 Y-3.25613
G01 X12.90523 Y-3.07050
G01 X12.85466 Y-2.90373
G01 X12.73091 Y-2.60497
G01 X12.87094 Y-2.60497
G01 X12.97904 Y-2.86598
G01 X13.02964 Y-3.03276
G01 X13.07925 Y-3.23075
G01 X13.10917 Y-3.43268
G01 X13.12624 Y-3.60611
G01 X13.13630 Y-3.81000
G01 X13.12624 Y-4.01386
G01 X13.10917 Y-4.18729
G01 X13.02964 Y-4.58721
G01 X12.97904 Y-4.75399
G01 X12.87094 Y-5.01498
G01 X12.73091 Y-5.01498
G01 X12.87094 Y-5.01498
G01 X13.01097 Y-5.01498
G01 X13.10345 Y-4.79171
G01 X13.15405 Y-4.62496
G01 X13.23856 Y-4.20004
G01 X13.25565 Y-4.02661
G01 X13.26627 Y-3.81000
G01 X13.25565 Y-3.59336
G01 X13.23856 Y-3.41993
G01 X13.20673 Y-3.20540
G01 X13.15405 Y-2.99502
G01 X13.10345 Y-2.82826
G01 X13.01097 Y-2.60497
G01 X13.15100 Y-2.60497
G01 X13.22784 Y-2.79052
G01 X13.27843 Y-2.95730
G01 X13.33424 Y-3.18003
G01 X13.36794 Y-3.40718
G01 X13.38501 Y-3.58064
G01 X13.39629 Y-3.81000
G01 X13.38501 Y-4.03934
G01 X13.36794 Y-4.21279
G01 X13.27843 Y-4.66268
G01 X13.22784 Y-4.82945
G01 X13.15100 Y-5.01498
G01 X13.01097 Y-5.01498
G01 X13.15100 Y-5.01498
G01 X13.29106 Y-5.01498
G01 X13.35225 Y-4.86720
G01 X13.40284 Y-4.70042
G01 X13.49731 Y-4.22552
G01 X13.51440 Y-4.05209
G01 X13.52629 Y-3.81000
G01 X13.51440 Y-3.56789
G01 X13.49731 Y-3.39446
G01 X13.46175 Y-3.15468
G01 X13.40284 Y-2.91955
G01 X13.35225 Y-2.75278
G01 X13.29103 Y-2.60497
G01 X13.43106 Y-2.60497
G01 X13.47666 Y-2.71503
G01 X13.52725 Y-2.88181
G01 X13.58925 Y-3.12931
G01 X13.62669 Y-3.38171
G01 X13.64376 Y-3.55514
G01 X13.65628 Y-3.81000
G01 X13.64376 Y-4.06484
G01 X13.62669 Y-4.23827
G01 X13.52725 Y-4.73817
G01 X13.47666 Y-4.90494
G01 X13.43109 Y-5.01498
G01 X13.29106 Y-5.01498
G01 X13.43109 Y-5.01498
G01 X13.57112 Y-5.01498
G01 X13.60107 Y-4.94266
G01 X13.65166 Y-4.77591
G01 X13.75606 Y-4.25102
G01 X13.77315 Y-4.07756
G01 X13.78628 Y-3.81000
G01 X13.77315 Y-3.54241
G01 X13.75606 Y-3.36895
G01 X13.71674 Y-3.10396
G01 X13.65166 Y-2.84406
G01 X13.60107 Y-2.67731
G01 X13.57109 Y-2.60497
G01 X13.43106 Y-2.60497
G01 X13.29103 Y-2.60497
G01 X13.15100 Y-2.60497
G01 X13.01097 Y-2.60497
G01 X12.87094 Y-2.60497
G01 X12.73091 Y-2.60497
G01 X12.59004 Y-2.60497
G01 X12.44265 Y-2.60497
G01 X12.29523 Y-2.60497
G01 X12.14542 Y-2.60497
G01 X11.99406 Y-2.60497
G01 X11.83396 Y-2.60497
G01 X11.66825 Y-2.60497
G01 X11.50008 Y-2.60497
G01 X11.31727 Y-2.60497
G01 X11.11816 Y-2.60497
G01 X10.89276 Y-2.60497
G01 X10.58616 Y-2.60497
G01 X9.74842 Y-2.60497
G01 X9.71387 Y-2.61546
G01 X9.64324 Y-2.64470
G01 X9.48954 Y-2.72687
G01 X9.45672 Y-2.74653
G01 X9.42597 Y-2.76934
G01 X9.29124 Y-2.87990
G01 X9.23719 Y-2.93395
G01 X9.12663 Y-3.06868
G01 X9.10384 Y-3.09941
G01 X9.08416 Y-3.13225
G01 X9.00201 Y-3.28595
G01 X8.97275 Y-3.35656
G01 X8.92216 Y-3.52334
G01 X8.90725 Y-3.59832
G01 X8.89018 Y-3.77177
G01 X8.88830 Y-3.81000
G01 X8.89018 Y-3.84820
G01 X8.90725 Y-4.02166
G01 X8.91286 Y-4.05950
G01 X8.92216 Y-4.09664
G01 X8.97275 Y-4.26342
G01 X9.00201 Y-4.33403
G01 X9.08416 Y-4.48772
G01 X9.10384 Y-4.52056
G01 X9.12663 Y-4.55130
G01 X9.23719 Y-4.68602
G01 X9.29124 Y-4.74007
G01 X9.42597 Y-4.85064
G01 X9.45672 Y-4.87345
G01 X9.48954 Y-4.89311
G01 X9.64324 Y-4.97528
G01 X9.71387 Y-5.00451
G01 X9.74832 Y-5.01498
G01 X9.74842 Y-5.14497
G01 X9.71387 Y-5.15546
G01 X9.64324 Y-5.18470
G01 X9.48954 Y-5.26687
G01 X9.45672 Y-5.28653
G01 X9.42597 Y-5.30934
G01 X9.29124 Y-5.41990
G01 X9.23719 Y-5.47395
G01 X9.12663 Y-5.60868
G01 X9.10384 Y-5.63941
G01 X9.08416 Y-5.67225
G01 X9.00201 Y-5.82595
G01 X8.97275 Y-5.89656
G01 X8.92216 Y-6.06334
G01 X8.91286 Y-6.10047
G01 X8.90725 Y-6.13832
G01 X8.89018 Y-6.31177
G01 X8.88830 Y-6.35000
G01 X8.89018 Y-6.38820
G01 X8.90725 Y-6.56163
G01 X8.91286 Y-6.59950
G01 X8.92216 Y-6.63664
G01 X8.97275 Y-6.80342
G01 X9.00201 Y-6.87403
G01 X9.08416 Y-7.02772
G01 X9.10384 Y-7.06057
G01 X9.12663 Y-7.09130
G01 X9.23719 Y-7.22602
G01 X9.29124 Y-7.28007
G01 X9.42597 Y-7.39064
G01 X9.45672 Y-7.41345
G01 X9.48954 Y-7.43311
G01 X9.64324 Y-7.51528
G01 X9.71387 Y-7.54451
G01 X9.88065 Y-7.59511
G01 X9.91776 Y-7.60440
G01 X9.95563 Y-7.61002
G01 X10.12906 Y-7.62711
G01 X10.16729 Y-7.62899
G01 X10.20552 Y-7.62711
G01 X10.37895 Y-7.61002
G01 X10.41682 Y-7.60440
G01 X10.45393 Y-7.59511
G01 X10.62071 Y-7.54451
G01 X10.69134 Y-7.51528
G01 X10.84504 Y-7.43311
G01 X10.87785 Y-7.41345
G01 X10.90861 Y-7.39064
G01 X11.04331 Y-7.28007
G01 X11.09739 Y-7.22602
G01 X11.20793 Y-7.09130
G01 X11.23074 Y-7.06057
G01 X11.25042 Y-7.02772
G01 X11.33257 Y-6.87403
G01 X11.36183 Y-6.80342
G01 X11.41242 Y-6.63664
G01 X11.42172 Y-6.59950
G01 X11.42733 Y-6.56163
G01 X11.44440 Y-6.38820
G01 X11.44628 Y-6.35000
G01 X11.44440 Y-6.31177
G01 X11.42733 Y-6.13832
G01 X11.42172 Y-6.10047
G01 X11.41242 Y-6.06334
G01 X11.36183 Y-5.89656
G01 X11.33257 Y-5.82595
G01 X11.25042 Y-5.67225
G01 X11.23074 Y-5.63941
G01 X11.20793 Y-5.60868
G01 X11.09739 Y-5.47395
G01 X11.04331 Y-5.41990
G01 X10.90861 Y-5.30934
G01 X10.87785 Y-5.28653
G01 X10.84504 Y-5.26687
G01 X10.69134 Y-5.18470
G01 X10.62071 Y-5.15546
G01 X10.58616 Y-5.14497
G01 X9.74842 Y-5.14497
G01 X9.44179 Y-5.14497
G01 X9.21642 Y-5.14497
G01 X9.01728 Y-5.14497
G01 X8.83450 Y-5.14497
G01 X8.66630 Y-5.14497
G01 X8.50059 Y-5.14497
G01 X8.34052 Y-5.14497
G01 X8.33704 Y-5.15076
G01 X8.34052 Y-5.14497
G01 X8.33867 Y-5.14497
G01 X8.33704 Y-5.15076
G01 X8.31146 Y-5.24236
G01 X8.26841 Y-5.41424
G01 X8.21947 Y-5.65968
G01 X8.20984 Y-5.72450
G01 X8.19409 Y-5.83077
G01 X8.17103 Y-6.06430
G01 X8.16262 Y-6.23540
G01 X8.16262 Y-6.46458
G01 X8.17103 Y-6.63567
G01 X8.19409 Y-6.86918
G01 X8.21947 Y-7.04027
G01 X8.26841 Y-7.28571
G01 X8.31129 Y-7.45688
G01 X8.34174 Y-7.55706
G01 X8.39252 Y-7.72399
G01 X8.45381 Y-7.89526
G01 X8.57824 Y-8.19485
G01 X8.65932 Y-8.36623
G01 X8.84311 Y-8.70908
G01 X8.84507 Y-8.71268
G01 X8.94789 Y-8.88421
G01 X8.96963 Y-8.91667
G01 X9.26102 Y-9.03735
G01 X9.42779 Y-9.08794
G01 X9.61342 Y-9.13442
G01 X9.80272 Y-9.16252
G01 X9.97615 Y-9.17959
G01 X10.16729 Y-9.18898
G01 X10.35842 Y-9.17959
G01 X10.53186 Y-9.16252
G01 X10.72114 Y-9.13442
G01 X10.90679 Y-9.08794
G01 X11.07354 Y-9.03735
G01 X11.42672 Y-8.89107
G01 X11.58042 Y-8.80890
G01 X11.74455 Y-8.71052
G01 X11.89825 Y-8.59653
G01 X12.03297 Y-8.48599
G01 X12.30328 Y-8.21568
G01 X12.41384 Y-8.08096
G01 X12.52784 Y-7.92726
G01 X12.62621 Y-7.76310
G01 X12.70836 Y-7.60941
G01 X12.85466 Y-7.25625
G01 X12.90523 Y-7.08947
G01 X12.95174 Y-6.90385
G01 X12.97981 Y-6.71457
G01 X12.99688 Y-6.54108
G01 X13.00630 Y-6.35000
G01 X12.99688 Y-6.15886
G01 X12.97981 Y-5.98541
G01 X12.95174 Y-5.79613
G01 X12.90523 Y-5.61050
G01 X12.85466 Y-5.44373
G01 X12.73091 Y-5.14497
G01 X12.87094 Y-5.14497
G01 X12.97904 Y-5.40598
G01 X13.02964 Y-5.57276
G01 X13.07925 Y-5.77075
G01 X13.10917 Y-5.97268
G01 X13.12624 Y-6.14611
G01 X13.13630 Y-6.35000
G01 X13.12624 Y-6.55383
G01 X13.10917 Y-6.72729
G01 X13.07925 Y-6.92922
G01 X13.02964 Y-7.12721
G01 X12.97904 Y-7.29399
G01 X12.82301 Y-7.67070
G01 X12.74087 Y-7.82439
G01 X12.63592 Y-7.99948
G01 X12.51433 Y-8.16343
G01 X12.40376 Y-8.29815
G01 X12.11544 Y-8.58647
G01 X11.98072 Y-8.69704
G01 X11.81677 Y-8.81863
G01 X11.64168 Y-8.92355
G01 X11.48799 Y-9.00572
G01 X11.11128 Y-9.16175
G01 X10.94450 Y-9.21235
G01 X10.74651 Y-9.26193
G01 X10.54461 Y-9.29188
G01 X10.37118 Y-9.30897
G01 X10.16729 Y-9.31898
G01 X9.96340 Y-9.30897
G01 X9.78997 Y-9.29188
G01 X9.58807 Y-9.26193
G01 X9.39005 Y-9.21235
G01 X9.22330 Y-9.16175
G01 X9.09963 Y-9.11055
G01 X8.96963 Y-8.91667
G01 X9.09963 Y-9.11055
G01 X9.22416 Y-9.29625
G01 X9.22571 Y-9.29833
G01 X9.35233 Y-9.33674
G01 X9.56269 Y-9.38944
G01 X9.77722 Y-9.42127
G01 X9.95068 Y-9.43834
G01 X10.16729 Y-9.44898
G01 X10.38390 Y-9.43834
G01 X10.55733 Y-9.42127
G01 X10.77186 Y-9.38944
G01 X10.98225 Y-9.33674
G01 X11.14903 Y-9.28616
G01 X11.54928 Y-9.12035
G01 X11.70297 Y-9.03821
G01 X11.88900 Y-8.92670
G01 X12.06320 Y-8.79752
G01 X12.19792 Y-8.68695
G01 X12.50427 Y-8.38060
G01 X12.61481 Y-8.24591
G01 X12.74402 Y-8.07169
G01 X12.85547 Y-7.88568
G01 X12.93764 Y-7.73199
G01 X13.10345 Y-7.33171
G01 X13.15405 Y-7.16496
G01 X13.20673 Y-6.95457
G01 X13.23856 Y-6.74004
G01 X13.25565 Y-6.56659
G01 X13.26627 Y-6.35000
G01 X13.25565 Y-6.13336
G01 X13.23856 Y-5.95993
G01 X13.20673 Y-5.74540
G01 X13.15405 Y-5.53502
G01 X13.10345 Y-5.36826
G01 X13.01097 Y-5.14497
G01 X13.15100 Y-5.14497
G01 X13.22784 Y-5.33052
G01 X13.27843 Y-5.49730
G01 X13.33424 Y-5.72003
G01 X13.36794 Y-5.94718
G01 X13.38501 Y-6.12064
G01 X13.39629 Y-6.35000
G01 X13.38501 Y-6.57934
G01 X13.36794 Y-6.75279
G01 X13.33424 Y-6.97995
G01 X13.27843 Y-7.20268
G01 X13.22784 Y-7.36945
G01 X13.05230 Y-7.79325
G01 X12.97015 Y-7.94695
G01 X12.85210 Y-8.14393
G01 X12.71532 Y-8.32838
G01 X12.60475 Y-8.46308
G01 X12.28039 Y-8.78746
G01 X12.14567 Y-8.89800
G01 X11.96122 Y-9.03481
G01 X11.76426 Y-9.15286
G01 X11.61057 Y-9.23501
G01 X11.18677 Y-9.41055
G01 X11.01999 Y-9.46114
G01 X10.79724 Y-9.51695
G01 X10.57008 Y-9.55063
G01 X10.39665 Y-9.56772
G01 X10.16729 Y-9.57897
G01 X9.93793 Y-9.56772
G01 X9.76450 Y-9.55063
G01 X9.53734 Y-9.51695
G01 X9.35403 Y-9.47102
G01 X9.35149 Y-9.46795
G01 X9.22416 Y-9.29625
G01 X9.35149 Y-9.46795
G01 X9.49300 Y-9.63971
G01 X9.51197 Y-9.64446
G01 X9.75175 Y-9.68002
G01 X9.92518 Y-9.69708
G01 X10.16729 Y-9.70900
G01 X10.40938 Y-9.69708
G01 X10.58283 Y-9.68002
G01 X10.82258 Y-9.64446
G01 X11.05774 Y-9.58555
G01 X11.22449 Y-9.53496
G01 X11.67183 Y-9.34966
G01 X11.82553 Y-9.26752
G01 X12.03345 Y-9.14288
G01 X12.22814 Y-8.99851
G01 X12.36287 Y-8.88794
G01 X12.70523 Y-8.54555
G01 X12.81580 Y-8.41083
G01 X12.96020 Y-8.21614
G01 X13.08481 Y-8.00824
G01 X13.16693 Y-7.85454
G01 X13.35225 Y-7.40720
G01 X13.40284 Y-7.24042
G01 X13.46175 Y-7.00529
G01 X13.49731 Y-6.76552
G01 X13.51440 Y-6.59209
G01 X13.52629 Y-6.35000
G01 X13.51440 Y-6.10789
G01 X13.49731 Y-5.93446
G01 X13.46175 Y-5.69468
G01 X13.40284 Y-5.45955
G01 X13.35225 Y-5.29278
G01 X13.29103 Y-5.14497
G01 X13.43106 Y-5.14497
G01 X13.47666 Y-5.25503
G01 X13.52725 Y-5.42181
G01 X13.58925 Y-5.66931
G01 X13.62669 Y-5.92171
G01 X13.64376 Y-6.09514
G01 X13.65628 Y-6.35000
G01 X13.64376 Y-6.60484
G01 X13.62669 Y-6.77827
G01 X13.58925 Y-7.03067
G01 X13.52725 Y-7.27817
G01 X13.47666 Y-7.44494
G01 X13.28161 Y-7.91583
G01 X13.19947 Y-8.06953
G01 X13.06827 Y-8.28838
G01 X12.91628 Y-8.49330
G01 X12.80574 Y-8.62802
G01 X12.44534 Y-8.98842
G01 X12.31062 Y-9.09899
G01 X12.10567 Y-9.25098
G01 X11.88682 Y-9.38215
G01 X11.73312 Y-9.46432
G01 X11.26223 Y-9.65937
G01 X11.09546 Y-9.70996
G01 X10.84796 Y-9.77194
G01 X10.59556 Y-9.80938
G01 X10.42213 Y-9.82647
G01 X10.16729 Y-9.83899
G01 X9.91245 Y-9.82647
G01 X9.73899 Y-9.80938
G01 X9.61804 Y-9.79147
G01 X9.38129 Y-9.70854
G01 X9.38129 Y-12.42741
G01 X9.33320 Y-12.48664
G01 X9.38129 Y-12.42741
G01 X9.43915 Y-12.40986
G01 X9.91405 Y-12.31539
G01 X10.07758 Y-12.29929
G01 X10.31969 Y-12.28738
G01 X10.56178 Y-12.29929
G01 X10.72530 Y-12.31539
G01 X11.20021 Y-12.40986
G01 X11.33777 Y-12.45159
G01 X11.33775 Y-12.45725
G01 X11.33777 Y-12.45159
G01 X11.41100 Y-12.42123
G01 X11.57046 Y-12.37287
G01 X11.80559 Y-12.31397
G01 X12.04537 Y-12.27841
G01 X12.21118 Y-12.26208
G01 X12.45329 Y-12.25019
G01 X12.69538 Y-12.26208
G01 X12.86121 Y-12.27841
G01 X13.10099 Y-12.31397
G01 X13.33612 Y-12.37287
G01 X13.49558 Y-12.42123
G01 X13.94292 Y-12.60655
G01 X14.08986 Y-12.68509
G01 X14.29779 Y-12.80968
G01 X14.49248 Y-12.95410
G01 X14.62128 Y-13.05982
G01 X14.80088 Y-13.22260
G01 X14.92448 Y-13.35895
G01 X14.92448 Y-13.16561
G01 X14.89281 Y-13.13066
G01 X14.70376 Y-12.95931
G01 X14.57495 Y-12.85362
G01 X14.37000 Y-12.70160
G01 X14.15115 Y-12.57043
G01 X14.00419 Y-12.49190
G01 X13.53330 Y-12.29685
G01 X13.37386 Y-12.24846
G01 X13.12634 Y-12.18649
G01 X12.87396 Y-12.14905
G01 X12.70813 Y-12.13272
G01 X12.45329 Y-12.12019
G01 X12.19845 Y-12.13272
G01 X12.03261 Y-12.14905
G01 X11.78022 Y-12.18649
G01 X11.53272 Y-12.24846
G01 X11.37326 Y-12.29685
G01 X11.33196 Y-12.31397
G01 X11.33208 Y-12.31796
G01 X11.33196 Y-12.31397
G01 X11.23795 Y-12.28545
G01 X10.73805 Y-12.18601
G01 X10.57453 Y-12.16990
G01 X10.31969 Y-12.15738
G01 X10.06485 Y-12.16990
G01 X9.90133 Y-12.18601
G01 X9.51128 Y-12.26360
G01 X9.46376 Y-12.32151
G01 X9.51128 Y-12.26360
G01 X9.51128 Y-9.86633
G01 X9.38129 Y-9.70854
G01 X9.61804 Y-9.79147
G01 X9.49300 Y-9.63971
G01 X9.61804 Y-9.79147
G01 X9.74060 Y-9.94016
G01 X9.89970 Y-9.95583
G01 X10.16729 Y-9.96899
G01 X10.43488 Y-9.95583
G01 X10.60831 Y-9.93877
G01 X10.87331 Y-9.89945
G01 X11.13320 Y-9.83435
G01 X11.29998 Y-9.78378
G01 X11.79441 Y-9.57895
G01 X11.94811 Y-9.49681
G01 X12.17790 Y-9.35909
G01 X12.39309 Y-9.19947
G01 X12.52779 Y-9.08893
G01 X12.90622 Y-8.71050
G01 X13.01679 Y-8.57578
G01 X13.17635 Y-8.36059
G01 X13.31412 Y-8.13079
G01 X13.39626 Y-7.97710
G01 X13.60107 Y-7.48266
G01 X13.65166 Y-7.31591
G01 X13.71674 Y-7.05602
G01 X13.75606 Y-6.79102
G01 X13.77315 Y-6.61756
G01 X13.78628 Y-6.35000
G01 X13.77315 Y-6.08241
G01 X13.75606 Y-5.90895
G01 X13.71674 Y-5.64396
G01 X13.65166 Y-5.38406
G01 X13.60107 Y-5.21731
G01 X13.57109 Y-5.14497
G01 X13.43106 Y-5.14497
G01 X13.29103 Y-5.14497
G01 X13.15100 Y-5.14497
G01 X13.01097 Y-5.14497
G01 X12.87094 Y-5.14497
G01 X12.73091 Y-5.14497
G01 X12.59004 Y-5.14497
G01 X12.44265 Y-5.14497
G01 X12.29523 Y-5.14497
G01 X12.14542 Y-5.14497
G01 X11.99406 Y-5.14497
G01 X11.83399 Y-5.14497
G01 X11.66825 Y-5.14497
G01 X11.50008 Y-5.14497
G01 X11.31727 Y-5.14497
G01 X11.11816 Y-5.14497
G01 X10.89279 Y-5.14497
G01 X10.58616 Y-5.14497
G01 X10.89279 Y-5.14497
G01 X10.90633 Y-5.15221
G01 X10.95009 Y-5.17845
G01 X10.99106 Y-5.20885
G01 X11.12578 Y-5.31940
G01 X11.19787 Y-5.39148
G01 X11.30844 Y-5.52620
G01 X11.33884 Y-5.56720
G01 X11.36505 Y-5.61096
G01 X11.44722 Y-5.76466
G01 X11.48624 Y-5.85884
G01 X11.53681 Y-6.02562
G01 X11.54920 Y-6.07510
G01 X11.55670 Y-6.12559
G01 X11.57379 Y-6.29902
G01 X11.57628 Y-6.35000
G01 X11.57379 Y-6.40095
G01 X11.55670 Y-6.57438
G01 X11.54920 Y-6.62488
G01 X11.53681 Y-6.67436
G01 X11.48624 Y-6.84113
G01 X11.44722 Y-6.93532
G01 X11.36505 Y-7.08901
G01 X11.33884 Y-7.13278
G01 X11.30844 Y-7.17377
G01 X11.19787 Y-7.30849
G01 X11.12578 Y-7.38058
G01 X10.99106 Y-7.49112
G01 X10.95009 Y-7.52152
G01 X10.90633 Y-7.54776
G01 X10.75261 Y-7.62991
G01 X10.65845 Y-7.66892
G01 X10.49167 Y-7.71952
G01 X10.44217 Y-7.73191
G01 X10.39170 Y-7.73941
G01 X10.21827 Y-7.75647
G01 X10.16729 Y-7.75899
G01 X10.11631 Y-7.75647
G01 X9.94288 Y-7.73941
G01 X9.89241 Y-7.73191
G01 X9.84291 Y-7.71952
G01 X9.67613 Y-7.66892
G01 X9.58195 Y-7.62991
G01 X9.42825 Y-7.54776
G01 X9.38449 Y-7.52152
G01 X9.34349 Y-7.49112
G01 X9.20880 Y-7.38058
G01 X9.13671 Y-7.30849
G01 X9.02614 Y-7.17377
G01 X8.99574 Y-7.13278
G01 X8.96950 Y-7.08901
G01 X8.88736 Y-6.93532
G01 X8.84834 Y-6.84113
G01 X8.79777 Y-6.67436
G01 X8.78535 Y-6.62488
G01 X8.77788 Y-6.57438
G01 X8.76079 Y-6.40095
G01 X8.75828 Y-6.35000
G01 X8.76079 Y-6.29902
G01 X8.77788 Y-6.12559
G01 X8.78535 Y-6.07510
G01 X8.79777 Y-6.02562
G01 X8.84834 Y-5.85884
G01 X8.88736 Y-5.76466
G01 X8.96950 Y-5.61096
G01 X8.99574 Y-5.56720
G01 X9.02614 Y-5.52620
G01 X9.13671 Y-5.39148
G01 X9.20880 Y-5.31940
G01 X9.34349 Y-5.20885
G01 X9.38449 Y-5.17845
G01 X9.42825 Y-5.15221
G01 X9.44179 Y-5.14497
G01 X9.21642 Y-5.14497
G01 X9.12632 Y-5.21891
G01 X9.03620 Y-5.30901
G01 X8.92566 Y-5.44373
G01 X8.88766 Y-5.49496
G01 X8.85487 Y-5.54967
G01 X8.77270 Y-5.70337
G01 X8.72393 Y-5.82110
G01 X8.67336 Y-5.98787
G01 X8.65787 Y-6.04975
G01 X8.64850 Y-6.11284
G01 X8.63143 Y-6.28627
G01 X8.62828 Y-6.35000
G01 X8.63143 Y-6.41370
G01 X8.64850 Y-6.58713
G01 X8.65787 Y-6.65023
G01 X8.67336 Y-6.71210
G01 X8.72393 Y-6.87888
G01 X8.77270 Y-6.99661
G01 X8.85487 Y-7.15030
G01 X8.88766 Y-7.20501
G01 X8.92566 Y-7.25625
G01 X9.03620 Y-7.39097
G01 X9.12632 Y-7.48106
G01 X9.26102 Y-7.59163
G01 X9.31227 Y-7.62963
G01 X9.36699 Y-7.66242
G01 X9.52068 Y-7.74456
G01 X9.63839 Y-7.79333
G01 X9.80516 Y-7.84393
G01 X9.86704 Y-7.85942
G01 X9.93013 Y-7.86877
G01 X10.10359 Y-7.88586
G01 X10.16729 Y-7.88899
G01 X10.23099 Y-7.88586
G01 X10.40442 Y-7.86877
G01 X10.46754 Y-7.85942
G01 X10.52942 Y-7.84393
G01 X10.69617 Y-7.79333
G01 X10.81390 Y-7.74456
G01 X10.96759 Y-7.66242
G01 X11.02230 Y-7.62963
G01 X11.07354 Y-7.59163
G01 X11.20826 Y-7.48106
G01 X11.29835 Y-7.39097
G01 X11.40892 Y-7.25625
G01 X11.44692 Y-7.20501
G01 X11.47971 Y-7.15030
G01 X11.56188 Y-6.99661
G01 X11.61062 Y-6.87888
G01 X11.66122 Y-6.71210
G01 X11.67671 Y-6.65023
G01 X11.68608 Y-6.58713
G01 X11.70315 Y-6.41370
G01 X11.70628 Y-6.35000
G01 X11.70315 Y-6.28627
G01 X11.68608 Y-6.11284
G01 X11.67671 Y-6.04975
G01 X11.66122 Y-5.98787
G01 X11.61062 Y-5.82110
G01 X11.56188 Y-5.70337
G01 X11.47971 Y-5.54967
G01 X11.44692 Y-5.49496
G01 X11.40892 Y-5.44373
G01 X11.29835 Y-5.30901
G01 X11.20826 Y-5.21891
G01 X11.11816 Y-5.14497
G01 X11.31727 Y-5.14497
G01 X11.39886 Y-5.22653
G01 X11.50940 Y-5.36125
G01 X11.55502 Y-5.42275
G01 X11.59436 Y-5.48841
G01 X11.67651 Y-5.64210
G01 X11.73503 Y-5.78335
G01 X11.78563 Y-5.95013
G01 X11.80422 Y-6.02437
G01 X11.81544 Y-6.10009
G01 X11.83254 Y-6.27355
G01 X11.83630 Y-6.35000
G01 X11.83254 Y-6.42640
G01 X11.81544 Y-6.59989
G01 X11.80422 Y-6.67560
G01 X11.78563 Y-6.74985
G01 X11.73503 Y-6.91662
G01 X11.67651 Y-7.05787
G01 X11.59436 Y-7.21157
G01 X11.55502 Y-7.27723
G01 X11.50940 Y-7.33872
G01 X11.39886 Y-7.47344
G01 X11.29073 Y-7.58154
G01 X11.15601 Y-7.69211
G01 X11.09454 Y-7.73770
G01 X11.02888 Y-7.77707
G01 X10.87519 Y-7.85922
G01 X10.73391 Y-7.91774
G01 X10.56714 Y-7.96831
G01 X10.49289 Y-7.98693
G01 X10.41718 Y-7.99816
G01 X10.24374 Y-8.01522
G01 X10.16729 Y-8.01898
G01 X10.09084 Y-8.01522
G01 X9.91740 Y-7.99816
G01 X9.84169 Y-7.98693
G01 X9.76742 Y-7.96831
G01 X9.60067 Y-7.91774
G01 X9.45939 Y-7.85922
G01 X9.30570 Y-7.77707
G01 X9.24004 Y-7.73770
G01 X9.17857 Y-7.69211
G01 X9.04385 Y-7.58154
G01 X8.93572 Y-7.47344
G01 X8.82515 Y-7.33872
G01 X8.77956 Y-7.27723
G01 X8.74022 Y-7.21157
G01 X8.65805 Y-7.05787
G01 X8.59955 Y-6.91662
G01 X8.54895 Y-6.74985
G01 X8.53036 Y-6.67560
G01 X8.51913 Y-6.59989
G01 X8.50204 Y-6.42640
G01 X8.49828 Y-6.35000
G01 X8.50204 Y-6.27355
G01 X8.51913 Y-6.10009
G01 X8.53036 Y-6.02437
G01 X8.54895 Y-5.95013
G01 X8.59955 Y-5.78335
G01 X8.65805 Y-5.64210
G01 X8.74022 Y-5.48841
G01 X8.77956 Y-5.42275
G01 X8.82515 Y-5.36125
G01 X8.93572 Y-5.22653
G01 X9.01728 Y-5.14497
G01 X8.83450 Y-5.14497
G01 X8.72467 Y-5.27878
G01 X8.67148 Y-5.35051
G01 X8.62556 Y-5.42712
G01 X8.54342 Y-5.58081
G01 X8.47514 Y-5.74563
G01 X8.42455 Y-5.91238
G01 X8.40285 Y-5.99902
G01 X8.38975 Y-6.08736
G01 X8.37268 Y-6.26080
G01 X8.36828 Y-6.35000
G01 X8.37268 Y-6.43918
G01 X8.38975 Y-6.61261
G01 X8.40285 Y-6.70095
G01 X8.42455 Y-6.78759
G01 X8.47514 Y-6.95434
G01 X8.54342 Y-7.11916
G01 X8.62556 Y-7.27286
G01 X8.67148 Y-7.34946
G01 X8.72467 Y-7.42119
G01 X8.83524 Y-7.55592
G01 X8.96137 Y-7.68205
G01 X9.09610 Y-7.79259
G01 X9.16783 Y-7.84581
G01 X9.24441 Y-7.89170
G01 X9.39810 Y-7.97387
G01 X9.56292 Y-8.04212
G01 X9.72970 Y-8.09272
G01 X9.81631 Y-8.11441
G01 X9.90465 Y-8.12752
G01 X10.07808 Y-8.14461
G01 X10.16729 Y-8.14898
G01 X10.25649 Y-8.14461
G01 X10.42993 Y-8.12752
G01 X10.51827 Y-8.11441
G01 X10.60488 Y-8.09272
G01 X10.77166 Y-8.04212
G01 X10.93645 Y-7.97387
G01 X11.09015 Y-7.89170
G01 X11.16675 Y-7.84581
G01 X11.23848 Y-7.79259
G01 X11.37321 Y-7.68205
G01 X11.49934 Y-7.55592
G01 X11.60991 Y-7.42119
G01 X11.66310 Y-7.34946
G01 X11.70902 Y-7.27286
G01 X11.79116 Y-7.11916
G01 X11.85944 Y-6.95434
G01 X11.91001 Y-6.78759
G01 X11.93173 Y-6.70095
G01 X11.94483 Y-6.61261
G01 X11.96190 Y-6.43918
G01 X11.96630 Y-6.35000
G01 X11.96190 Y-6.26080
G01 X11.94483 Y-6.08736
G01 X11.93173 Y-5.99902
G01 X11.91001 Y-5.91238
G01 X11.85944 Y-5.74563
G01 X11.79116 Y-5.58081
G01 X11.70902 Y-5.42712
G01 X11.66310 Y-5.35051
G01 X11.60991 Y-5.27878
G01 X11.50008 Y-5.14497
G01 X11.66825 Y-5.14497
G01 X11.71039 Y-5.19631
G01 X11.77120 Y-5.27830
G01 X11.82367 Y-5.36583
G01 X11.90582 Y-5.51952
G01 X11.98382 Y-5.70789
G01 X12.03442 Y-5.87466
G01 X12.05923 Y-5.97365
G01 X12.07419 Y-6.07461
G01 X12.09129 Y-6.24804
G01 X12.09629 Y-6.35000
G01 X12.09129 Y-6.45193
G01 X12.07419 Y-6.62536
G01 X12.05923 Y-6.72633
G01 X12.03442 Y-6.82531
G01 X11.98382 Y-6.99209
G01 X11.90582 Y-7.18045
G01 X11.82367 Y-7.33415
G01 X11.77120 Y-7.42168
G01 X11.71039 Y-7.50367
G01 X11.59982 Y-7.63836
G01 X11.45568 Y-7.78253
G01 X11.32096 Y-7.89310
G01 X11.23899 Y-7.95388
G01 X11.15144 Y-8.00636
G01 X10.99774 Y-8.08850
G01 X10.80938 Y-8.16653
G01 X10.64263 Y-8.21713
G01 X10.54362 Y-8.24192
G01 X10.44265 Y-8.25690
G01 X10.26922 Y-8.27397
G01 X10.16729 Y-8.27898
G01 X10.06536 Y-8.27397
G01 X9.89190 Y-8.25690
G01 X9.79096 Y-8.24192
G01 X9.69195 Y-8.21713
G01 X9.52518 Y-8.16653
G01 X9.33684 Y-8.08850
G01 X9.18314 Y-8.00636
G01 X9.09559 Y-7.95388
G01 X9.01362 Y-7.89310
G01 X8.87890 Y-7.78253
G01 X8.73473 Y-7.63836
G01 X8.62419 Y-7.50367
G01 X8.56338 Y-7.42168
G01 X8.51090 Y-7.33415
G01 X8.42876 Y-7.18045
G01 X8.35073 Y-6.99209
G01 X8.30016 Y-6.82531
G01 X8.27535 Y-6.72633
G01 X8.26038 Y-6.62536
G01 X8.24329 Y-6.45193
G01 X8.23829 Y-6.35000
G01 X8.24329 Y-6.24804
G01 X8.26038 Y-6.07461
G01 X8.27535 Y-5.97365
G01 X8.30016 Y-5.87466
G01 X8.35073 Y-5.70789
G01 X8.42876 Y-5.51952
G01 X8.51090 Y-5.36583
G01 X8.56338 Y-5.27830
G01 X8.62419 Y-5.19631
G01 X8.66630 Y-5.14497
G01 X8.50059 Y-5.14497
G01 X8.45528 Y-5.20606
G01 X8.39627 Y-5.30456
G01 X8.31411 Y-5.45826
G01 X8.22635 Y-5.67014
G01 X8.20984 Y-5.72450
G01 X8.19409 Y-5.83077
G01 X8.17103 Y-6.06430
G01 X8.16262 Y-6.23540
G01 X8.16262 Y-6.46458
G01 X8.17103 Y-6.63567
G01 X8.19409 Y-6.86918
G01 X8.21947 Y-7.04027
G01 X8.26841 Y-7.28571
G01 X8.31129 Y-7.45688
G01 X8.34174 Y-7.55706
G01 X8.39252 Y-7.72399
G01 X8.45381 Y-7.89526
G01 X8.57824 Y-8.19485
G01 X8.65932 Y-8.36623
G01 X8.84311 Y-8.70908
G01 X8.96915 Y-8.77641
G01 X9.29876 Y-8.91294
G01 X9.46554 Y-8.96353
G01 X9.63879 Y-9.00694
G01 X9.81545 Y-9.03313
G01 X9.98891 Y-9.05022
G01 X10.16729 Y-9.05899
G01 X10.34567 Y-9.05022
G01 X10.51911 Y-9.03313
G01 X10.69579 Y-9.00694
G01 X10.86904 Y-8.96353
G01 X11.03582 Y-8.91294
G01 X11.36543 Y-8.77641
G01 X11.51913 Y-8.69427
G01 X11.67232 Y-8.60245
G01 X11.81578 Y-8.49605
G01 X11.95050 Y-8.38548
G01 X12.20279 Y-8.13321
G01 X12.31334 Y-7.99849
G01 X12.41974 Y-7.85503
G01 X12.51156 Y-7.70184
G01 X12.59370 Y-7.54814
G01 X12.73025 Y-7.21850
G01 X12.78085 Y-7.05175
G01 X12.82423 Y-6.87850
G01 X12.85044 Y-6.70182
G01 X12.86751 Y-6.52838
G01 X12.87625 Y-6.34997
G01 X12.86751 Y-6.17159
G01 X12.85044 Y-5.99816
G01 X12.82423 Y-5.82148
G01 X12.78085 Y-5.64822
G01 X12.73025 Y-5.48147
G01 X12.59370 Y-5.15183
G01 X12.59004 Y-5.14497
G01 X12.44265 Y-5.14497
G01 X12.47907 Y-5.21312
G01 X12.60584 Y-5.51919
G01 X12.65644 Y-5.68597
G01 X12.69672 Y-5.84685
G01 X12.72103 Y-6.01091
G01 X12.73815 Y-6.18434
G01 X12.74628 Y-6.35000
G01 X12.73815 Y-6.51563
G01 X12.72103 Y-6.68906
G01 X12.69672 Y-6.85312
G01 X12.65644 Y-7.01401
G01 X12.60584 Y-7.18078
G01 X12.47907 Y-7.48685
G01 X12.39690 Y-7.64055
G01 X12.31166 Y-7.78281
G01 X12.21285 Y-7.91601
G01 X12.10229 Y-8.05073
G01 X11.86802 Y-8.28500
G01 X11.73330 Y-8.39556
G01 X11.60010 Y-8.49434
G01 X11.45784 Y-8.57961
G01 X11.30414 Y-8.66176
G01 X10.99807 Y-8.78855
G01 X10.83130 Y-8.83912
G01 X10.67041 Y-8.87943
G01 X10.50638 Y-8.90377
G01 X10.33295 Y-8.92086
G01 X10.16729 Y-8.92899
G01 X10.00163 Y-8.92086
G01 X9.82820 Y-8.90377
G01 X9.66414 Y-8.87943
G01 X9.50328 Y-8.83912
G01 X9.33651 Y-8.78855
G01 X9.03041 Y-8.66176
G01 X8.87672 Y-8.57961
G01 X8.73448 Y-8.49434
G01 X8.72373 Y-8.48637
G01 X8.65932 Y-8.36623
G01 X8.57824 Y-8.19485
G01 X8.58881 Y-8.21715
G01 X8.68373 Y-8.29506
G01 X8.80669 Y-8.38627
G01 X8.93801 Y-8.46496
G01 X9.09170 Y-8.54713
G01 X9.37423 Y-8.66414
G01 X9.54100 Y-8.71474
G01 X9.68952 Y-8.75193
G01 X9.84095 Y-8.77440
G01 X10.01438 Y-8.79147
G01 X10.16729 Y-8.79899
G01 X10.32020 Y-8.79147
G01 X10.49363 Y-8.77440
G01 X10.64506 Y-8.75193
G01 X10.79358 Y-8.71474
G01 X10.96033 Y-8.66414
G01 X11.24288 Y-8.54713
G01 X11.39657 Y-8.46496
G01 X11.52787 Y-8.38627
G01 X11.65085 Y-8.29506
G01 X11.78555 Y-8.18449
G01 X12.00180 Y-7.96826
G01 X12.11237 Y-7.83354
G01 X12.20356 Y-7.71058
G01 X12.28227 Y-7.57926
G01 X12.36442 Y-7.42556
G01 X12.48143 Y-7.14304
G01 X12.53203 Y-6.97626
G01 X12.56924 Y-6.82777
G01 X12.59169 Y-6.67634
G01 X12.60876 Y-6.50288
G01 X12.61628 Y-6.35000
G01 X12.60876 Y-6.19709
G01 X12.59169 Y-6.02364
G01 X12.56924 Y-5.87220
G01 X12.53203 Y-5.72371
G01 X12.48143 Y-5.55694
G01 X12.36442 Y-5.27441
G01 X12.29523 Y-5.14497
G01 X12.14542 Y-5.14497
G01 X12.16762 Y-5.18198
G01 X12.24976 Y-5.33568
G01 X12.35705 Y-5.59468
G01 X12.40762 Y-5.76146
G01 X12.44173 Y-5.89758
G01 X12.46233 Y-6.03639
G01 X12.47940 Y-6.20982
G01 X12.48628 Y-6.35000
G01 X12.47940 Y-6.49016
G01 X12.46233 Y-6.66359
G01 X12.44173 Y-6.80240
G01 X12.40762 Y-6.93852
G01 X12.35705 Y-7.10529
G01 X12.24976 Y-7.36430
G01 X12.16762 Y-7.51799
G01 X12.09545 Y-7.63836
G01 X12.01186 Y-7.75106
G01 X11.90132 Y-7.88579
G01 X11.70308 Y-8.08401
G01 X11.56838 Y-8.19457
G01 X11.45565 Y-8.27816
G01 X11.33528 Y-8.35030
G01 X11.18159 Y-8.43247
G01 X10.92261 Y-8.53973
G01 X10.75583 Y-8.59033
G01 X10.61969 Y-8.62442
G01 X10.48088 Y-8.64502
G01 X10.30745 Y-8.66211
G01 X10.16729 Y-8.66899
G01 X10.02713 Y-8.66211
G01 X9.85368 Y-8.64502
G01 X9.71486 Y-8.62442
G01 X9.57875 Y-8.59033
G01 X9.41197 Y-8.53973
G01 X9.15299 Y-8.43247
G01 X8.99930 Y-8.35030
G01 X8.87893 Y-8.27816
G01 X8.76620 Y-8.19457
G01 X8.63148 Y-8.08401
G01 X8.46168 Y-7.91418
G01 X8.45381 Y-7.89526
G01 X8.39252 Y-7.72399
G01 X8.34174 Y-7.55706
G01 X8.34720 Y-7.56613
G01 X8.42320 Y-7.66859
G01 X8.53377 Y-7.80331
G01 X8.71395 Y-7.98352
G01 X8.84867 Y-8.09407
G01 X8.95114 Y-8.17006
G01 X9.06056 Y-8.23567
G01 X9.21426 Y-8.31781
G01 X9.44971 Y-8.41535
G01 X9.61649 Y-8.46592
G01 X9.74024 Y-8.49694
G01 X9.86643 Y-8.51565
G01 X10.03986 Y-8.53272
G01 X10.16729 Y-8.53900
G01 X10.29472 Y-8.53272
G01 X10.46815 Y-8.51565
G01 X10.59434 Y-8.49694
G01 X10.71809 Y-8.46592
G01 X10.88487 Y-8.41535
G01 X11.12030 Y-8.31781
G01 X11.27399 Y-8.23567
G01 X11.38344 Y-8.17006
G01 X11.48591 Y-8.09407
G01 X11.62063 Y-7.98352
G01 X11.80081 Y-7.80331
G01 X11.91138 Y-7.66859
G01 X11.98738 Y-7.56613
G01 X12.05296 Y-7.45670
G01 X12.13510 Y-7.30301
G01 X12.23264 Y-7.06758
G01 X12.28324 Y-6.90080
G01 X12.31422 Y-6.77705
G01 X12.33294 Y-6.65084
G01 X12.35004 Y-6.47741
G01 X12.35629 Y-6.35000
G01 X12.35004 Y-6.22257
G01 X12.33294 Y-6.04914
G01 X12.31422 Y-5.92292
G01 X12.28324 Y-5.79918
G01 X12.23264 Y-5.63240
G01 X12.13510 Y-5.39697
G01 X12.05296 Y-5.24327
G01 X11.99406 Y-5.14497
G01 X11.83399 Y-5.14497
G01 X11.87928 Y-5.20606
G01 X11.93830 Y-5.30456
G01 X12.02047 Y-5.45826
G01 X12.10823 Y-5.67014
G01 X12.15883 Y-5.83692
G01 X12.18672 Y-5.94830
G01 X12.20358 Y-6.06186
G01 X12.22065 Y-6.23532
G01 X12.22629 Y-6.35000
G01 X12.22065 Y-6.46466
G01 X12.20358 Y-6.63811
G01 X12.18672 Y-6.75168
G01 X12.15883 Y-6.86305
G01 X12.10823 Y-7.02983
G01 X12.02047 Y-7.24172
G01 X11.93830 Y-7.39541
G01 X11.87928 Y-7.49391
G01 X11.81090 Y-7.58614
G01 X11.70033 Y-7.72084
G01 X11.53815 Y-7.88302
G01 X11.40343 Y-7.99358
G01 X11.31120 Y-8.06199
G01 X11.21273 Y-8.12101
G01 X11.05903 Y-8.20316
G01 X10.84712 Y-8.29094
G01 X10.68034 Y-8.34154
G01 X10.56899 Y-8.36943
G01 X10.45540 Y-8.38627
G01 X10.28197 Y-8.40336
G01 X10.16729 Y-8.40897
G01 X10.05261 Y-8.40336
G01 X9.87918 Y-8.38627
G01 X9.76559 Y-8.36943
G01 X9.65421 Y-8.34154
G01 X9.48746 Y-8.29094
G01 X9.27555 Y-8.20316
G01 X9.12185 Y-8.12101
G01 X9.02338 Y-8.06199
G01 X8.93115 Y-7.99358
G01 X8.79643 Y-7.88302
G01 X8.63425 Y-7.72084
G01 X8.52368 Y-7.58614
G01 X8.45528 Y-7.49391
G01 X8.39627 Y-7.39541
G01 X8.31411 Y-7.24172
G01 X8.22635 Y-7.02983
G01 X8.20986 Y-6.97550
G01 X8.19409 Y-6.86918
G01 X8.17103 Y-6.63567
G01 X8.16262 Y-6.46458
G01 X8.23829 Y-6.35000
G01 X8.36828 Y-6.35000
G01 X8.49828 Y-6.35000
G01 X8.62828 Y-6.35000
G01 X8.75828 Y-6.35000
G01 X8.88830 Y-6.35000
G01 X9.01830 Y-6.35000
G01 X9.01954 Y-6.37545
G01 X9.03661 Y-6.54888
G01 X9.04037 Y-6.57416
G01 X9.04657 Y-6.59889
G01 X9.09716 Y-6.76567
G01 X9.11667 Y-6.81276
G01 X9.19881 Y-6.96646
G01 X9.21192 Y-6.98833
G01 X9.22713 Y-7.00883
G01 X9.33767 Y-7.14355
G01 X9.37372 Y-7.17959
G01 X9.50844 Y-7.29016
G01 X9.52894 Y-7.30534
G01 X9.55083 Y-7.31845
G01 X9.70453 Y-7.40062
G01 X9.75162 Y-7.42013
G01 X9.91837 Y-7.47070
G01 X9.94313 Y-7.47692
G01 X9.96836 Y-7.48066
G01 X10.14181 Y-7.49772
G01 X10.16729 Y-7.49899
G01 X10.19277 Y-7.49772
G01 X10.36620 Y-7.48066
G01 X10.39144 Y-7.47692
G01 X10.41618 Y-7.47070
G01 X10.58296 Y-7.42013
G01 X10.63005 Y-7.40062
G01 X10.78375 Y-7.31845
G01 X10.80564 Y-7.30534
G01 X10.82614 Y-7.29016
G01 X10.96084 Y-7.17959
G01 X10.99688 Y-7.14355
G01 X11.10745 Y-7.00883
G01 X11.12263 Y-6.98833
G01 X11.13577 Y-6.96646
G01 X11.21791 Y-6.81276
G01 X11.23742 Y-6.76567
G01 X11.28801 Y-6.59889
G01 X11.29421 Y-6.57416
G01 X11.29795 Y-6.54888
G01 X11.31504 Y-6.37545
G01 X11.31628 Y-6.35000
G01 X11.31504 Y-6.32450
G01 X11.29795 Y-6.15107
G01 X11.29421 Y-6.12582
G01 X11.28801 Y-6.10108
G01 X11.23742 Y-5.93430
G01 X11.21791 Y-5.88721
G01 X11.13577 Y-5.73352
G01 X11.12263 Y-5.71165
G01 X11.10745 Y-5.69115
G01 X10.99688 Y-5.55643
G01 X10.96084 Y-5.52039
G01 X10.82614 Y-5.40982
G01 X10.80564 Y-5.39463
G01 X10.78375 Y-5.38152
G01 X10.63005 Y-5.29935
G01 X10.58296 Y-5.27985
G01 X10.41618 Y-5.22928
G01 X10.39144 Y-5.22305
G01 X10.36620 Y-5.21932
G01 X10.19277 Y-5.20225
G01 X10.14181 Y-5.20225
G01 X9.96836 Y-5.21932
G01 X9.94313 Y-5.22305
G01 X9.91837 Y-5.22928
G01 X9.75162 Y-5.27985
G01 X9.70453 Y-5.29935
G01 X9.55083 Y-5.38152
G01 X9.52894 Y-5.39463
G01 X9.50844 Y-5.40982
G01 X9.37372 Y-5.52039
G01 X9.33767 Y-5.55643
G01 X9.22713 Y-5.69115
G01 X9.21192 Y-5.71165
G01 X9.19881 Y-5.73352
G01 X9.11667 Y-5.88721
G01 X9.09716 Y-5.93430
G01 X9.04657 Y-6.10108
G01 X9.04037 Y-6.12582
G01 X9.03661 Y-6.15107
G01 X9.01954 Y-6.32450
G01 X9.01830 Y-6.35000
G01 X9.14829 Y-6.35000
G01 X9.14890 Y-6.36270
G01 X9.16600 Y-6.53613
G01 X9.16788 Y-6.54878
G01 X9.17097 Y-6.56115
G01 X9.22155 Y-6.72793
G01 X9.23130 Y-6.75147
G01 X9.31347 Y-6.90517
G01 X9.32002 Y-6.91612
G01 X9.32762 Y-6.92635
G01 X9.43818 Y-7.06107
G01 X9.45619 Y-7.07911
G01 X9.59091 Y-7.18965
G01 X9.60115 Y-7.19724
G01 X9.61210 Y-7.20382
G01 X9.76579 Y-7.28596
G01 X9.78934 Y-7.29572
G01 X9.95611 Y-7.34631
G01 X9.96848 Y-7.34941
G01 X9.98111 Y-7.35127
G01 X10.15454 Y-7.36836
G01 X10.18004 Y-7.36836
G01 X10.35347 Y-7.35127
G01 X10.36610 Y-7.34941
G01 X10.37847 Y-7.34631
G01 X10.54524 Y-7.29572
G01 X10.56876 Y-7.28596
G01 X10.72248 Y-7.20382
G01 X10.73340 Y-7.19724
G01 X10.74367 Y-7.18965
G01 X10.87839 Y-7.07911
G01 X10.89640 Y-7.06107
G01 X11.00696 Y-6.92635
G01 X11.01456 Y-6.91612
G01 X11.02111 Y-6.90517
G01 X11.10325 Y-6.75147
G01 X11.11301 Y-6.72793
G01 X11.16360 Y-6.56115
G01 X11.16670 Y-6.54878
G01 X11.16858 Y-6.53613
G01 X11.18565 Y-6.36270
G01 X11.18629 Y-6.35000
G01 X11.18565 Y-6.33725
G01 X11.16858 Y-6.16382
G01 X11.16360 Y-6.13882
G01 X11.11301 Y-5.97205
G01 X11.10325 Y-5.94850
G01 X11.02111 Y-5.79481
G01 X11.01456 Y-5.78386
G01 X11.00696 Y-5.77362
G01 X10.89640 Y-5.63890
G01 X10.87839 Y-5.62087
G01 X10.74367 Y-5.51033
G01 X10.73340 Y-5.50273
G01 X10.72248 Y-5.49615
G01 X10.56876 Y-5.41401
G01 X10.54524 Y-5.40426
G01 X10.37847 Y-5.35366
G01 X10.36610 Y-5.35056
G01 X10.35347 Y-5.34871
G01 X10.18004 Y-5.33161
G01 X10.15454 Y-5.33161
G01 X9.98111 Y-5.34871
G01 X9.96848 Y-5.35056
G01 X9.95611 Y-5.35366
G01 X9.78934 Y-5.40426
G01 X9.76579 Y-5.41401
G01 X9.61210 Y-5.49615
G01 X9.60115 Y-5.50273
G01 X9.59091 Y-5.51033
G01 X9.45619 Y-5.62087
G01 X9.43818 Y-5.63890
G01 X9.32762 Y-5.77362
G01 X9.32002 Y-5.78386
G01 X9.31347 Y-5.79481
G01 X9.23130 Y-5.94850
G01 X9.22155 Y-5.97205
G01 X9.17097 Y-6.13882
G01 X9.16600 Y-6.16382
G01 X9.14890 Y-6.33725
G01 X9.14829 Y-6.35000
G01 X9.01830 Y-6.35000
G01 X8.88830 Y-6.35000
G01 X8.75828 Y-6.35000
G01 X8.62828 Y-6.35000
G01 X8.49828 Y-6.35000
G01 X8.36828 Y-6.35000
G01 X8.23829 Y-6.35000
G01 X8.16262 Y-6.46458
G01 X8.23829 Y-6.35000
G01 X8.36828 Y-6.35000
G01 X8.49828 Y-6.35000
G01 X8.62828 Y-6.35000
G01 X8.75828 Y-6.35000
G01 X8.88830 Y-6.35000
G01 X8.89018 Y-6.31177
G01 X8.90725 Y-6.13832
G01 X8.91286 Y-6.10047
G01 X8.92216 Y-6.06334
G01 X8.97275 Y-5.89656
G01 X9.00201 Y-5.82595
G01 X9.08416 Y-5.67225
G01 X9.10384 Y-5.63941
G01 X9.12663 Y-5.60868
G01 X9.23719 Y-5.47395
G01 X9.29124 Y-5.41990
G01 X9.42597 Y-5.30934
G01 X9.45672 Y-5.28653
G01 X9.48954 Y-5.26687
G01 X9.64324 Y-5.18470
G01 X9.71387 Y-5.15546
G01 X9.74842 Y-5.14497
G01 X9.74832 Y-5.01498
G01 X9.71387 Y-5.00451
G01 X9.64324 Y-4.97528
G01 X9.48954 Y-4.89311
G01 X9.45672 Y-4.87345
G01 X9.42597 Y-4.85064
G01 X9.29124 Y-4.74007
G01 X9.23719 Y-4.68602
G01 X9.12663 Y-4.55130
G01 X9.10384 Y-4.52056
G01 X9.08416 Y-4.48772
G01 X9.00201 Y-4.33403
G01 X8.97275 Y-4.26342
G01 X8.92216 Y-4.09664
G01 X8.91286 Y-4.05950
G01 X8.90725 Y-4.02166
G01 X8.89018 Y-3.84820
G01 X8.88830 Y-3.81000
G01 X8.89018 Y-3.77177
G01 X8.90725 Y-3.59832
G01 X8.92216 Y-3.52334
G01 X8.97275 Y-3.35656
G01 X9.00201 Y-3.28595
G01 X9.08416 Y-3.13225
G01 X9.10384 Y-3.09941
G01 X9.12663 Y-3.06868
G01 X9.23719 Y-2.93395
G01 X9.29124 Y-2.87990
G01 X9.42597 Y-2.76934
G01 X9.45672 Y-2.74653
G01 X9.48954 Y-2.72687
G01 X9.64324 Y-2.64470
G01 X9.71387 Y-2.61546
G01 X9.74842 Y-2.60497
G01 X12.59007 Y-2.47498
G01 X12.73091 Y-2.47498
G01 X12.85466 Y-2.17625
G01 X12.90523 Y-2.00947
G01 X12.97981 Y-1.63454
G01 X12.99688 Y-1.46111
G01 X13.00630 Y-1.27000
G01 X12.99688 Y-1.07886
G01 X12.97981 Y-0.90541
G01 X12.90523 Y-0.53050
G01 X12.85466 Y-0.36373
G01 X12.73091 Y-0.06500
G01 X12.87094 Y-0.06500
G01 X12.97904 Y-0.32598
G01 X13.02964 Y-0.49276
G01 X13.10917 Y-0.89268
G01 X13.12624 Y-1.06611
G01 X13.13630 Y-1.27000
G01 X13.12624 Y-1.47386
G01 X13.10917 Y-1.64724
G01 X13.02964 Y-2.04721
G01 X12.97904 Y-2.21399
G01 X12.87094 Y-2.47498
G01 X12.73091 Y-2.47498
G01 X12.87094 Y-2.47498
G01 X13.01097 Y-2.47498
G01 X13.10345 Y-2.25171
G01 X13.15405 Y-2.08496
G01 X13.20673 Y-1.87457
G01 X13.23856 Y-1.66004
G01 X13.25565 Y-1.48661
G01 X13.26627 Y-1.27000
G01 X13.25565 Y-1.05336
G01 X13.23856 Y-0.87993
G01 X13.15405 Y-0.45502
G01 X13.10345 Y-0.28826
G01 X13.01097 Y-0.06500
G01 X13.15100 Y-0.06500
G01 X13.22784 Y-0.25052
G01 X13.27843 Y-0.41730
G01 X13.33424 Y-0.64003
G01 X13.36794 Y-0.86718
G01 X13.38501 Y-1.04064
G01 X13.39629 Y-1.27000
G01 X13.38501 Y-1.49934
G01 X13.36794 Y-1.67279
G01 X13.27843 Y-2.12268
G01 X13.22784 Y-2.28945
G01 X13.15100 Y-2.47498
G01 X13.01097 Y-2.47498
G01 X13.15100 Y-2.47498
G01 X13.29106 Y-2.47498
G01 X13.35225 Y-2.32720
G01 X13.40284 Y-2.16042
G01 X13.49731 Y-1.68552
G01 X13.51440 Y-1.51209
G01 X13.52629 Y-1.27000
G01 X13.51440 Y-1.02789
G01 X13.49731 Y-0.85446
G01 X13.40284 Y-0.37955
G01 X13.35225 Y-0.21278
G01 X13.29103 Y-0.06500
G01 X13.43106 Y-0.06500
G01 X13.47666 Y-0.17503
G01 X13.52725 Y-0.34181
G01 X13.62669 Y-0.84171
G01 X13.64376 Y-1.01514
G01 X13.65628 Y-1.27000
G01 X13.64376 Y-1.52484
G01 X13.62669 Y-1.69827
G01 X13.52725 Y-2.19817
G01 X13.47666 Y-2.36494
G01 X13.43109 Y-2.47498
G01 X13.29106 Y-2.47498
G01 X13.43109 Y-2.47498
G01 X13.57112 Y-2.47498
G01 X13.60107 Y-2.40266
G01 X13.65166 Y-2.23591
G01 X13.75606 Y-1.71102
G01 X13.77315 Y-1.53756
G01 X13.78628 Y-1.27000
G01 X13.77315 Y-1.00241
G01 X13.75606 Y-0.82895
G01 X13.65166 Y-0.30406
G01 X13.60107 Y-0.13731
G01 X13.57112 Y-0.06500
G01 X13.43106 Y-0.06500
G01 X13.29103 Y-0.06500
G01 X13.15100 Y-0.06500
G01 X13.01097 Y-0.06500
G01 X12.87094 Y-0.06500
G01 X12.73091 Y-0.06500
G01 X12.59007 Y-0.06500
G01 X12.59004 Y-0.06500
G01 X12.44265 Y-0.06500
G01 X12.29525 Y-0.06500
G01 X12.14544 Y-0.06500
G01 X12.16762 Y-0.10198
G01 X12.24976 Y-0.25568
G01 X12.35705 Y-0.51468
G01 X12.40762 Y-0.68146
G01 X12.46233 Y-0.95639
G01 X12.47940 Y-1.12982
G01 X12.48628 Y-1.27000
G01 X12.47940 Y-1.41016
G01 X12.46233 Y-1.58359
G01 X12.40762 Y-1.85852
G01 X12.35705 Y-2.02529
