( pcb2gcode 2.5.0 )
( Software-independent Gcode )

G94 ( Millimeters per minute feed rate. )
G21 ( Units == Millimeters. )

G90 ( Absolute coordinates. )
G00 S12000 ( RPM spindle speed. )
G01 F250.00000 ( Feedrate. )


G00 Z20.00000 (Retract to tool change height)
T1
M5      (Spindle stop.)
G04 P1.00000 (Wait for spindle to stop)
(MSG, Change tool bit to cutter diameter 2.40000mm)
M6      (Tool change.)
M0      (Temporary machine stop.)
M3 ( Spindle on clockwise. )
G04 P1.00000 (Wait for spindle to get up to speed)
G04 P0 ( dwell for no time -- G64 should not smooth over this point )
G00 Z5.00000 ( retract )

G00 X16.27548 Y-58.85259 ( rapid move to begin. )
G01 Z-0.65000 F60.00000 ( plunge. )
G04 P0 ( dwell for no time -- G64 should not smooth over this point )
G01 F250.00000
G01 X16.27548 Y-1.55260
G00 Z-0.60000
G01 X16.27548 Y1.84740
G01 Z-0.65000 F60.00000
G01 F250.00000
G01 X16.27548 Y59.14738
G01 X16.25242 Y59.38147
G01 X16.18412 Y59.60659
G01 X16.07325 Y59.81405
G01 X15.92400 Y59.99589
G01 X15.74216 Y60.14514
G01 X15.53469 Y60.25601
G01 X15.30957 Y60.32431
G01 X15.07548 Y60.34738
G01 X1.77550 Y60.34738
G00 Z-0.60000
G01 X-1.62450 Y60.34738
G01 Z-0.65000 F60.00000
G01 F250.00000
G01 X-14.92448 Y60.34738
G01 X-15.15857 Y60.32431
G01 X-15.38369 Y60.25601
G01 X-15.59115 Y60.14514
G01 X-15.77299 Y59.99589
G01 X-15.92224 Y59.81405
G01 X-16.03311 Y59.60659
G01 X-16.10142 Y59.38147
G01 X-16.12448 Y59.14738
G01 X-16.12448 Y1.84740
G00 Z-0.60000
G01 X-16.12448 Y-1.55260
G01 Z-0.65000 F60.00000
G01 F250.00000
G01 X-16.12448 Y-58.85259
G01 X-16.10142 Y-59.08667
G01 X-16.03311 Y-59.31179
G01 X-15.92224 Y-59.51926
G01 X-15.77299 Y-59.70110
G01 X-15.59115 Y-59.85035
G01 X-15.38369 Y-59.96122
G01 X-15.15857 Y-60.02952
G01 X-14.92448 Y-60.05259
G01 X-1.62450 Y-60.05259
G00 Z-0.60000
G01 X1.77550 Y-60.05259
G01 Z-0.65000 F60.00000
G01 F250.00000
G01 X15.07548 Y-60.05259
G01 X15.30957 Y-60.02952
G01 X15.53469 Y-59.96122
G01 X15.74216 Y-59.85035
G01 X15.92400 Y-59.70110
G01 X16.07325 Y-59.51926
G01 X16.18412 Y-59.31179
G01 X16.25242 Y-59.08667
G01 X16.27548 Y-58.85259
G01 Z-1.30000 F60.00000 ( plunge. )
G04 P0 ( dwell for no time -- G64 should not smooth over this point )
G01 F250.00000
G01 X16.27548 Y-1.55260
G00 Z-0.60000
G01 X16.27548 Y1.84740
G01 Z-1.30000 F60.00000
G01 F250.00000
G01 X16.27548 Y59.14738
G01 X16.25242 Y59.38147
G01 X16.18412 Y59.60659
G01 X16.07325 Y59.81405
G01 X15.92400 Y59.99589
G01 X15.74216 Y60.14514
G01 X15.53469 Y60.25601
G01 X15.30957 Y60.32431
G01 X15.07548 Y60.34738
G01 X1.77550 Y60.34738
G00 Z-0.60000
G01 X-1.62450 Y60.34738
G01 Z-1.30000 F60.00000
G01 F250.00000
G01 X-14.92448 Y60.34738
G01 X-15.15857 Y60.32431
G01 X-15.38369 Y60.25601
G01 X-15.59115 Y60.14514
G01 X-15.77299 Y59.99589
G01 X-15.92224 Y59.81405
G01 X-16.03311 Y59.60659
G01 X-16.10142 Y59.38147
G01 X-16.12448 Y59.14738
G01 X-16.12448 Y1.84740
G00 Z-0.60000
G01 X-16.12448 Y-1.55260
G01 Z-1.30000 F60.00000
G01 F250.00000
G01 X-16.12448 Y-58.85259
G01 X-16.10142 Y-59.08667
G01 X-16.03311 Y-59.31179
G01 X-15.92224 Y-59.51926
G01 X-15.77299 Y-59.70110
G01 X-15.59115 Y-59.85035
G01 X-15.38369 Y-59.96122
G01 X-15.15857 Y-60.02952
G01 X-14.92448 Y-60.05259
G01 X-1.62450 Y-60.05259
G00 Z-0.60000
G01 X1.77550 Y-60.05259
G01 Z-1.30000 F60.00000
G01 F250.00000
G01 X15.07548 Y-60.05259
G01 X15.30957 Y-60.02952
G01 X15.53469 Y-59.96122
G01 X15.74216 Y-59.85035
G01 X15.92400 Y-59.70110
G01 X16.07325 Y-59.51926
G01 X16.18412 Y-59.31179
G01 X16.25242 Y-59.08667
G01 X16.27548 Y-58.85259

G04 P0 ( dwell for no time -- G64 should not smooth over this point )
G00 Z20.000000 ( retract )

M5 ( Spindle off. )
G04 P1.000000
M9 ( Coolant off. )
M2 ( Program end. )

